P3
100 150
255
99 81 79 101 81 81 95 73 71 90 67 65 92 68 65 86 65 61 70 58 56 77 75 76 75 84 89 65 86 96 52 83 97 80 116 132 142 180 199 171 201 219 177 197 212 159 180 196 110 137 155 62 103 123 106 147 164 149 179 191 99 112 119 85 67 66 106 86 85 81 66 68 99 116 125 107 149 164 84 142 163 86 145 170 95 152 176 87 140 162 32 81 101 116 161 178 105 155 174 86 138 160 91 145 169 89 145 171 94 151 178 95 152 179 52 105 130 79 122 142 115 165 186 91 148 171 79 143 168 85 146 171 90 147 168 98 154 173 73 125 143 56 104 123 114 169 189 93 149 172 86 145 170 91 150 175 89 145 169 104 156 179 84 133 151 35 89 104 125 174 190 102 156 174 82 145 168 87 152 178 84 148 173 92 151 171 83 130 146 76 114 128 116 166 184 85 140 166 87 145 175 94 148 177 116 160 182 60 86 96 0 0 0 116 126 128 87 92 95 19 13 15 76 67 63 111 96 88 107 85 76 99 72 62 100 74 65 86 64 57 75 61 57 71 66 66 78 85 89 74 91 99 62 86 99 67 94 110 139 168 185 164 195 213 147 181 198 117 148 169 57 82 114 122 147 165 149 172 182 97 98 99 80 65 61 96 114 117 108 152 166 100 153 183 99 154 184 109 160 178 97 78 75 106 86 85 107 85 83 97 73 71 95 73 69 79 60 55 69 57 54 81 79 80 68 79 85 67 89 101 51 82 96 77 114 131 141 182 200 172 203 220 179 199 214 159 179 196 108 132 151 62 101 122 116 155 173 154 183 196 91 102 109 67 47 45 99 80 80 96 84 86 97 114 124 104 147 162 82 141 161 83 142 167 94 152 174 82 136 156 27 78 98 118 163 179 103 154 172 85 137 159 91 145 169 90 146 171 92 149 176 93 150 177 50 104 129 82 125 144 113 163 183 90 147 169 82 146 171 86 148 171 95 152 171 99 155 173 69 121 138 58 104 122 115 169 189 91 147 170 91 150 173 90 149 173 90 147 171 103 156 178 80 127 146 41 93 109 121 170 186 102 157 175 79 141 164 85 150 176 84 148 173 94 153 174 74 122 138 79 119 133 119 169 187 85 140 166 88 146 176 97 151 179 115 159 180 58 84 94 0 0 0 114 124 126 94 99 100 44 41 40 81 71 67 102 86 79 108 87 77 111 86 75 99 73 64 92 70 63 65 50 46 66 63 64 77 85 90 74 93 101 55 81 94 74 102 118 141 170 188 160 192 210 151 184 201 114 145 166 57 83 115 129 154 172 147 172 181 88 90 89 81 66 63 98 117 120 103 147 162 96 150 180 98 155 184 109 161 178 101 82 79 84 65 64 100 78 76 99 75 73 87 65 61 82 64 59 69 58 55 75 74 75 74 85 91 67 90 101 42 76 93 81 119 136 144 185 203 173 203 221 177 197 212 156 175 192 105 129 148 63 101 122 122 160 178 152 181 194 88 98 105 87 69 68 99 79 79 92 81 82 101 118 127 107 150 165 86 146 165 84 145 168 95 153 175 81 135 153 26 79 96 118 164 180 104 155 174 87 139 160 91 145 169 89 145 171 92 149 176 93 150 174 47 102 126 83 127 146 114 164 184 87 144 167 80 144 169 86 148 170 94 151 170 99 155 172 66 120 135 62 109 126 118 172 192 83 140 160 87 146 169 87 147 170 88 145 167 102 155 176 78 126 144 50 100 115 119 169 185 101 155 173 80 142 165 86 151 177 84 148 173 94 153 174 69 117 133 80 119 133 120 169 187 85 140 166 88 146 176 98 152 180 113 157 179 56 82 92 0 0 0 115 125 126 96 101 102 58 57 54 95 86 80 114 99 91 109 87 78 103 79 68 95 71 61 90 70 63 66 52 48 66 64 65 75 83 89 73 92 102 52 80 93 74 102 119 144 172 193 161 192 211 149 182 199 110 141 163 57 83 117 129 156 173 142 167 177 87 87 86 86 72 71 101 122 127 108 152 167 97 152 181 93 152 181 101 155 171 114 96 93 88 68 68 101 79 77 99 76 72 81 59 54 84 68 63 69 58 56 72 72 74 79 90 99 66 89 101 37 73 89 87 126 143 146 188 206 172 203 220 175 195 210 153 173 190 102 126 145 63 102 123 126 164 182 144 172 186 81 89 96 102 83 83 96 77 76 78 66 68 100 118 126 105 150 164 87 147 166 86 147 168 97 156 176 78 132 151 22 78 95 117 164 180 105 156 174 89 141 162 90 145 166 88 144 169 92 150 176 93 150 174 41 98 121 86 130 149 115 164 185 86 143 165 82 146 169 87 149 170 92 150 169 99 154 172 62 115 131 64 112 130 122 176 196 85 142 162 91 150 173 93 152 175 90 147 168 102 155 175 77 124 140 58 107 121 118 168 185 100 154 173 84 146 169 88 154 180 86 150 175 95 155 175 65 114 130 80 120 134 119 169 187 85 140 166 88 145 175 98 152 180 111 155 177 53 78 88 0 0 0 111 121 123 83 88 87 37 35 30 76 67 61 106 90 82 102 81 71 105 81 70 104 80 69 87 67 60 74 61 56 72 70 71 75 84 91 72 93 104 53 83 96 72 102 118 146 174 195 164 195 215 148 182 199 107 137 160 57 83 117 130 157 174 139 163 174 79 78 80 79 67 66 96 117 122 106 152 166 96 152 181 96 156 185 104 158 175 107 88 85 99 80 78 93 73 68 91 70 65 85 65 59 78 63 57 70 59 57 78 79 81 74 88 96 64 89 101 43 79 95 87 127 143 146 189 206 170 204 220 174 195 210 153 173 190 100 124 143 63 102 123 130 167 185 141 167 182 76 82 90 98 80 80 102 82 82 75 59 62 97 116 125 108 152 166 85 145 164 86 147 169 98 156 176 75 128 147 19 77 95 115 162 176 104 155 171 90 142 163 90 144 166 88 144 167 92 151 175 92 149 173 34 92 116 88 133 152 115 165 184 86 144 164 86 151 173 89 152 173 91 149 168 98 154 170 56 109 125 65 113 130 121 176 195 80 137 158 88 147 170 91 151 174 88 144 166 100 153 173 72 118 135 63 111 125 116 166 182 97 152 170 86 148 171 89 154 180 86 150 175 95 155 175 58 108 125 80 121 135 119 169 187 86 141 166 87 145 175 99 153 181 107 152 173 48 73 83 1 3 0 120 130 131 84 89 88 37 34 28 81 72 66 113 97 88 103 81 71 94 70 59 98 74 64 89 69 62 80 68 63 78 77 77 77 88 94 73 95 105 56 86 99 74 105 122 146 174 194 168 200 220 151 184 203 104 134 157 57 84 116 134 160 179 139 163 176 80 78 79 82 71 69 97 119 124 107 152 166 95 152 181 98 159 189 107 162 180 105 88 82 107 88 84 78 58 54 77 56 51 91 71 66 73 57 51 69 61 59 87 87 89 68 81 88 62 88 100 50 86 104 86 126 143 147 189 207 170 204 220 175 196 211 154 173 190 99 123 142 64 101 122 132 169 187 143 169 184 79 84 93 90 72 71 110 91 90 84 68 70 98 119 127 113 159 172 83 144 163 85 146 168 98 157 177 73 125 142 17 77 95 112 159 174 102 153 169 89 142 161 90 145 166 88 145 168 94 152 176 93 149 172 23 86 111 91 136 153 115 165 182 84 142 162 88 152 174 89 151 171 89 147 164 100 155 170 55 108 122 67 116 131 122 178 195 84 141 161 92 150 173 95 154 177 91 148 169 106 159 179 74 120 137 74 121 134 116 166 183 96 151 169 89 151 174 90 155 181 87 150 175 98 157 178 56 106 123 81 123 138 119 169 187 87 141 167 87 145 174 100 154 182 104 149 170 43 67 77 17 24 16 120 131 132 79 84 83 28 22 16 80 70 65 113 98 88 109 88 77 102 78 67 99 74 64 88 68 61 79 67 62 77 79 78 77 89 95 71 94 103 56 86 100 75 107 124 144 173 194 173 204 224 154 187 206 101 131 154 57 84 117 138 164 184 140 164 177 89 86 87 96 86 84 105 127 132 112 158 172 93 152 181 97 158 188 105 160 178 118 101 95 113 94 90 90 70 66 87 66 62 94 74 68 74 58 52 70 62 59 87 88 90 66 81 87 58 87 99 49 88 105 88 130 146 148 192 208 170 204 220 173 195 209 152 171 188 98 121 140 65 101 123 137 173 192 141 166 181 79 83 93 88 70 70 107 88 87 89 75 77 100 121 129 112 157 171 83 143 162 84 145 167 100 159 179 72 123 139 21 79 96 111 159 174 101 152 168 89 142 160 91 146 167 89 146 169 94 153 177 92 149 171 11 80 106 92 138 155 113 164 181 82 140 160 87 152 174 86 149 169 87 145 162 103 159 174 57 110 124 68 118 134 122 178 195 87 144 164 93 151 174 94 153 177 90 146 167 104 157 177 71 115 131 73 118 131 114 165 182 98 153 171 93 156 178 92 158 184 88 152 177 101 161 182 57 108 125 83 127 142 118 168 187 87 141 168 86 145 175 101 155 183 101 146 167 39 63 73 26 34 29 113 123 124 72 77 77 39 32 28 90 81 75 112 97 87 111 89 79 103 79 68 92 69 58 87 69 61 71 61 56 75 76 77 77 89 95 67 90 100 53 83 98 78 111 128 147 178 198 175 206 227 152 185 204 96 126 150 62 88 121 143 169 189 139 163 175 84 79 80 93 83 82 102 125 129 111 158 172 91 149 179 94 157 188 102 159 176 102 84 78 85 66 63 104 84 79 102 81 76 87 67 62 83 67 62 71 63 60 79 81 82 71 86 93 57 84 95 44 81 99 94 137 153 150 195 211 170 203 220 171 191 208 149 168 187 95 118 138 65 102 123 141 178 195 137 164 176 81 85 91 98 80 80 95 74 74 91 81 83 106 126 134 104 151 164 84 145 164 84 146 167 103 162 181 74 125 141 24 83 100 111 159 175 103 153 169 90 142 161 93 147 168 92 146 169 98 153 176 95 149 170 11 78 102 96 139 157 115 162 179 86 142 162 95 157 179 90 150 171 88 143 161 109 162 178 63 113 127 70 118 133 119 171 188 76 131 150 73 133 155 66 131 154 60 126 147 93 147 168 33 94 112 53 107 121 96 148 163 70 128 147 78 139 161 78 142 167 78 138 162 95 150 171 49 98 114 87 127 142 123 171 189 89 142 166 88 144 173 103 155 182 100 145 165 37 62 71 29 38 35 110 121 122 74 79 78 49 44 39 99 90 84 105 90 82 113 91 81 110 87 78 88 66 57 90 72 64 65 55 50 74 76 78 80 91 98 67 89 100 51 83 99 85 118 136 153 184 205 176 207 227 147 178 197 92 121 145 67 94 128 145 171 192 135 158 170 71 65 64 85 76 75 98 123 128 111 160 176 93 153 182 98 160 190 103 159 176 100 81 76 87 68 63 104 85 80 89 72 66 79 62 59 82 69 66 74 65 64 79 79 82 77 88 96 64 82 93 48 76 91 105 140 156 157 196 215 174 202 226 173 187 217 149 162 192 94 114 142 67 105 125 143 181 191 131 160 163 66 70 69 113 92 92 110 86 88 91 80 86 108 132 140 102 155 168 83 148 166 85 147 167 98 158 178 67 117 134 40 92 112 117 165 184 104 151 169 98 143 163 101 146 167 101 144 166 108 151 172 101 143 162 9 69 88 98 133 149 118 157 172 86 133 152 89 142 163 85 136 156 99 145 162 108 151 166 43 87 101 57 97 109 122 162 174 109 146 159 146 176 188 174 200 211 186 210 217 194 215 224 180 195 206 183 200 208 180 202 210 154 179 189 134 166 179 115 151 167 101 140 158 112 150 166 5 70 86 60 100 115 111 151 168 96 139 158 96 142 164 110 155 176 100 142 159 30 56 67 32 50 51 109 120 121 75 77 74 48 43 39 88 80 76 98 85 82 96 77 73 103 81 76 96 75 70 89 72 69 72 61 60 73 72 78 78 89 99 68 90 106 55 86 107 82 117 139 150 184 205 176 205 224 152 177 192 96 122 142 61 95 128 145 171 191 134 154 164 74 72 64 86 84 78 97 127 133 112 162 180 92 150 178 100 159 186 106 157 177 103 83 78 100 82 75 94 78 72 88 73 68 85 70 67 78 66 64 77 68 70 84 81 87 81 86 95 70 82 94 57 76 88 109 139 153 158 194 213 175 199 227 173 183 220 147 157 195 92 112 145 71 108 127 145 185 189 136 166 161 65 70 61 112 89 88 107 81 85 84 72 82 108 135 147 105 163 175 75 143 159 79 140 159 112 170 190 78 125 144 48 96 117 116 162 182 96 138 157 87 126 146 91 128 147 92 127 144 101 135 151 92 125 141 0 56 76 101 131 144 125 157 171 99 135 152 106 145 165 102 141 160 106 144 159 101 135 148 66 98 108 133 154 158 210 227 229 217 230 232 231 242 244 243 253 254 248 254 254 251 254 254 250 252 254 252 254 254 247 251 254 234 244 247 226 237 240 219 231 234 214 228 231 209 225 229 172 191 201 163 185 197 127 155 169 78 114 130 99 134 147 114 152 164 94 132 144 18 50 60 37 61 64 117 126 125 71 70 66 43 35 31 90 82 80 112 100 100 96 79 80 85 64 64 91 71 70 86 67 67 76 62 64 75 72 80 80 90 103 68 90 108 52 84 109 81 117 143 148 185 206 175 204 220 157 176 188 99 122 140 51 95 127 148 172 192 139 153 163 81 80 70 87 90 81 97 131 139 112 164 183 91 148 174 101 157 183 107 154 176 101 81 75 88 70 64 86 69 61 85 70 63 82 67 63 73 59 59 72 63 66 81 78 85 79 85 96 69 82 95 58 79 93 113 144 157 161 198 210 174 202 222 171 185 215 142 156 188 87 109 138 71 110 126 144 185 188 125 155 151 67 71 64 109 88 90 103 77 85 95 84 99 106 131 146 92 150 163 79 141 155 90 143 158 108 159 176 69 112 127 26 76 94 106 144 161 111 146 161 127 157 171 144 172 186 160 185 199 190 212 221 203 223 227 193 214 221 209 227 229 210 231 234 204 229 232 213 233 237 213 232 236 210 229 231 209 227 230 202 220 223 219 234 235 249 254 254 248 254 254 248 254 254 242 246 246 242 243 247 249 249 253 248 246 251 246 244 248 246 245 245 244 246 244 251 253 253 253 254 254 247 254 254 238 249 251 228 243 252 229 247 254 217 238 242 184 205 210 122 149 158 114 144 151 99 129 136 13 43 49 50 67 69 127 133 128 83 78 71 62 52 45 92 82 77 105 91 88 117 98 95 109 87 84 94 70 68 86 65 62 72 56 55 82 78 83 88 95 106 68 87 103 47 79 102 89 125 149 154 192 212 174 204 218 154 171 183 95 116 134 56 100 132 151 175 196 141 154 164 68 68 56 74 77 68 91 125 134 107 160 180 93 150 174 103 158 183 104 150 173 110 91 85 99 81 74 93 76 66 89 72 63 80 63 58 69 54 52 69 59 63 78 77 84 77 85 98 66 83 98 57 83 101 116 151 162 163 203 208 175 205 216 172 190 212 140 157 184 83 109 134 73 114 128 144 185 190 127 158 159 66 72 72 98 80 85 104 81 93 97 86 104 104 127 144 99 153 167 95 150 161 104 145 157 104 141 153 56 93 103 78 108 121 176 204 215 205 230 239 211 232 241 227 243 246 232 247 250 242 254 254 245 254 254 245 254 254 248 254 254 241 254 254 244 254 254 247 254 254 243 254 253 249 254 254 252 254 254 250 254 254 250 254 254 246 252 249 242 249 246 247 253 250 239 244 242 237 239 240 240 241 245 237 238 243 238 239 243 248 249 246 247 248 241 237 238 233 225 228 225 214 218 216 204 210 211 218 226 229 219 231 234 219 233 236 213 229 233 175 194 197 152 173 175 105 127 130 0 21 25 45 60 58 104 107 99 45 38 27 27 10 0 86 73 65 100 83 76 101 81 74 94 71 65 96 70 64 96 73 67 76 59 55 85 79 79 87 92 100 67 83 98 49 78 97 99 133 153 159 196 215 172 202 217 151 168 180 90 112 130 64 106 137 152 177 198 136 149 159 72 71 59 81 85 76 98 132 140 111 164 183 95 152 177 102 158 183 97 144 166 97 79 71 96 78 68 101 82 71 98 78 68 87 68 61 77 61 59 73 64 68 81 81 92 76 87 103 61 81 100 55 87 108 113 153 164 156 200 199 168 203 207 169 192 208 136 158 180 81 110 133 80 121 138 147 187 197 120 150 156 36 45 50 69 51 62 86 65 80 88 79 97 111 133 151 106 155 169 93 139 149 96 126 134 113 138 145 165 187 195 216 232 235 237 253 254 235 250 254 242 253 254 240 250 251 238 247 248 237 245 245 229 238 237 235 244 242 234 243 241 231 240 238 235 238 234 229 229 224 226 225 220 224 223 217 217 217 210 223 224 216 236 238 229 239 241 233 245 247 240 249 253 246 242 245 239 238 241 238 238 242 242 236 239 241 238 241 240 232 231 224 220 217 206 204 202 191 186 184 175 188 186 179 187 186 182 203 205 201 185 188 187 138 144 145 120 128 129 161 171 171 187 199 196 118 129 126 0 0 0 59 66 61 132 130 119 135 124 111 128 117 104 136 122 109 124 106 95 102 81 70 97 72 60 101 74 62 95 71 60 81 63 55 85 77 74 83 87 92 71 87 99 53 81 98 101 135 155 161 198 217 170 200 214 150 167 179 87 109 127 70 111 142 150 175 197 128 140 151 71 69 57 83 87 78 99 133 142 109 161 181 94 151 176 102 158 183 92 139 161 94 76 68 90 72 59 95 74 61 76 55 44 80 59 53 74 57 55 69 59 66 79 79 91 73 86 103 57 82 104 54 90 115 115 158 170 156 202 200 168 205 207 167 194 208 130 156 176 75 105 129 83 122 141 144 184 198 120 150 162 90 100 111 118 107 123 100 83 100 66 59 78 96 118 133 99 144 155 92 131 137 147 163 165 204 215 218 236 248 251 248 254 254 242 250 250 239 245 247 239 242 243 246 249 248 248 251 250 244 246 244 234 237 233 230 233 228 215 218 213 206 208 202 214 211 202 225 217 206 235 227 216 230 222 211 220 215 202 227 223 211 226 223 211 213 210 199 215 213 202 212 213 204 206 207 200 213 216 210 225 228 224 223 225 223 218 220 216 201 200 189 191 186 170 192 188 173 182 178 166 191 187 176 188 184 176 183 178 172 153 148 143 100 97 91 73 70 64 105 105 102 166 170 164 150 154 147 125 128 121 193 194 185 238 236 224 237 226 211 197 183 168 165 151 136 144 126 112 116 95 80 101 77 61 97 71 57 87 64 49 78 61 50 85 78 73 84 89 91 77 94 103 53 81 97 99 134 153 161 198 217 168 198 213 150 167 179 84 106 124 74 114 144 150 175 197 124 136 146 63 61 48 77 80 71 95 129 138 103 155 175 93 150 175 102 158 183 88 135 158 101 83 72 98 80 67 97 76 63 89 67 54 81 58 50 74 54 53 67 56 63 76 77 90 70 86 104 53 80 104 53 92 119 121 165 179 162 207 209 169 205 210 165 193 209 126 153 177 74 104 132 82 122 145 149 187 206 165 193 211 188 198 214 215 206 225 201 188 205 158 154 168 114 131 142 112 149 156 168 192 195 229 237 237 253 254 254 253 254 254 237 239 237 215 216 216 234 234 234 243 242 241 251 250 246 245 244 240 225 224 219 216 214 209 210 209 203 203 203 195 204 203 194 193 186 177 186 176 166 193 184 173 200 192 181 210 202 191 213 206 195 207 202 190 200 196 184 200 196 184 191 189 178 176 177 165 179 180 171 193 194 186 198 199 191 200 202 192 194 193 179 186 183 166 204 199 183 200 194 179 191 185 172 175 167 156 153 144 135 145 136 127 118 110 101 108 101 93 109 103 95 96 92 83 112 109 100 189 186 178 211 208 197 169 164 150 136 127 112 123 112 97 140 127 111 134 118 103 127 109 93 150 128 111 135 112 95 86 65 49 73 58 47 82 77 71 84 92 94 73 93 102 46 78 95 104 140 159 161 199 218 167 197 211 150 167 178 80 101 120 76 115 145 152 178 200 125 137 147 75 74 62 88 91 83 107 141 149 112 164 183 99 156 181 102 158 183 80 128 150 107 88 78 101 82 70 100 79 65 96 72 59 96 72 65 81 62 60 76 65 70 82 82 94 71 86 105 58 84 107 53 92 118 117 158 176 159 199 208 168 201 212 164 191 211 124 150 176 76 106 137 112 147 173 169 204 227 198 222 243 214 223 242 225 218 236 240 229 244 231 226 237 180 194 197 194 221 220 238 254 252 252 254 251 252 248 245 252 250 247 243 240 237 219 214 211 224 220 217 227 224 219 239 236 231 230 227 222 209 206 199 200 197 190 188 185 178 184 181 173 187 184 175 192 187 179 188 182 175 176 170 163 174 167 158 164 157 148 144 138 128 145 141 130 166 162 151 169 165 153 180 176 164 181 179 166 187 185 172 194 192 178 191 190 176 192 192 178 187 185 169 180 178 160 201 198 181 198 192 177 180 172 159 158 150 137 150 139 128 153 142 132 106 96 85 97 87 77 114 104 94 108 98 88 89 80 70 127 121 111 143 136 125 105 97 80 69 59 35 86 76 61 120 108 93 137 124 109 170 154 137 173 153 136 139 118 101 105 86 70 70 58 46 81 80 75 80 90 94 67 91 102 44 80 98 107 145 165 162 201 220 167 197 211 147 164 176 77 99 117 79 118 148 153 179 202 127 139 149 61 60 47 74 77 68 99 133 141 106 158 177 97 154 179 104 160 185 79 126 149 96 78 68 96 77 64 95 73 60 95 71 60 88 64 58 66 46 45 78 67 72 84 83 93 68 82 97 61 86 106 55 92 114 112 149 168 160 193 209 175 202 221 163 187 212 120 143 170 91 117 148 168 196 224 185 213 238 186 204 226 205 212 229 204 200 214 209 200 209 218 215 217 222 232 227 217 240 228 224 236 226 239 237 231 248 242 238 254 251 246 238 234 229 237 233 227 227 224 218 214 211 204 223 220 213 208 205 198 201 198 191 196 193 186 186 183 174 173 169 160 180 176 168 192 190 185 191 191 187 183 182 179 163 163 159 147 147 142 151 151 144 140 138 131 149 146 137 148 144 134 147 143 131 147 143 128 169 164 147 185 179 162 180 174 155 188 184 164 174 172 154 173 172 156 175 172 158 167 161 147 159 151 138 137 129 116 130 120 108 124 113 102 83 71 59 79 67 55 79 67 55 98 86 77 106 95 86 94 82 71 124 115 104 116 109 96 65 59 45 39 33 20 36 29 16 57 47 34 102 88 74 144 127 112 151 133 117 112 96 81 80 72 61 90 94 90 74 88 92 65 94 107 50 89 110 102 143 165 162 203 223 167 197 212 141 157 169 77 100 119 90 128 157 146 173 196 115 127 136 68 67 57 83 87 78 106 139 147 107 160 179 95 151 176 108 164 188 70 118 141 95 77 66 98 80 69 97 76 66 86 65 56 78 58 53 72 54 52 76 64 70 82 80 88 72 82 93 61 82 93 67 98 113 109 140 157 160 184 203 168 188 210 148 167 191 111 131 156 120 140 166 177 199 222 183 204 224 185 198 214 206 212 225 214 211 217 223 216 217 217 214 207 224 229 214 190 203 184 189 195 180 217 211 202 237 229 221 243 236 228 226 221 212 228 224 215 216 213 204 198 196 186 209 206 196 205 203 193 199 196 188 189 186 176 186 183 174 153 150 141 126 122 114 119 119 115 108 113 112 108 113 112 129 132 130 146 149 146 144 145 141 136 137 131 148 148 140 166 163 154 145 141 128 137 130 114 152 145 126 172 164 143 171 162 139 196 189 166 175 172 153 142 141 126 136 133 119 136 130 116 129 121 107 99 89 75 65 51 36 51 35 20 59 42 29 62 45 31 40 23 7 29 9 0 67 55 43 95 84 72 129 118 107 100 92 80 29 22 5 12 4 0 26 18 3 14 3 0 0 0 0 46 30 15 100 84 69 122 108 93 97 89 78 78 85 80 79 95 100 59 88 102 44 87 109 110 154 177 162 203 222 165 195 210 138 155 167 75 98 117 91 128 158 144 170 193 111 123 132 62 61 51 76 81 72 102 135 144 104 156 175 92 149 174 108 164 189 68 116 139 85 67 60 86 68 59 97 79 71 80 60 55 88 68 64 79 62 61 74 62 65 76 73 77 81 88 93 70 88 95 38 75 87 99 124 136 167 181 196 187 198 216 164 176 193 124 137 153 153 167 180 181 196 207 178 191 201 188 197 204 199 201 204 212 207 207 215 207 202 196 192 178 216 215 194 211 215 189 223 225 204 244 240 226 235 227 215 215 208 197 207 202 190 222 218 206 221 218 206 203 201 189 205 203 191 222 219 208 188 186 176 133 130 118 117 113 101 103 97 85 88 82 73 66 67 63 51 61 62 52 60 60 61 67 66 71 75 74 78 79 76 118 119 113 137 136 128 156 152 142 149 144 131 136 129 112 140 132 112 161 152 128 162 152 125 169 159 135 162 157 138 131 128 115 122 118 103 119 113 98 89 80 65 53 38 20 46 27 5 72 54 39 98 79 64 101 83 68 87 69 54 72 55 41 70 55 41 61 45 32 76 63 51 83 75 62 41 36 23 14 5 0 35 28 16 47 37 22 44 30 15 13 0 0 45 26 3 120 106 92 111 103 91 59 66 61 76 93 98 67 95 109 42 84 109 106 149 173 163 204 223 165 195 209 137 153 165 74 96 116 96 133 161 144 171 194 108 120 129 67 66 57 83 87 78 107 141 149 106 158 178 94 151 176 109 164 189 61 109 132 102 84 76 90 74 67 90 73 69 79 62 60 74 57 56 77 61 61 71 59 60 95 91 90 80 82 83 60 75 72 144 160 155 196 209 207 206 210 216 199 203 210 184 190 194 161 169 171 172 181 180 173 182 179 187 193 189 201 202 196 203 201 192 168 163 153 102 93 75 131 123 101 171 166 141 222 219 189 253 250 224 249 243 225 219 212 194 194 188 169 200 195 178 221 218 201 227 225 207 215 213 196 222 220 204 205 203 188 136 133 118 103 98 84 90 85 73 78 71 59 87 79 67 105 103 94 101 104 97 85 89 83 55 59 52 46 48 42 69 69 63 97 95 89 93 90 80 121 116 105 148 141 127 140 133 115 151 142 122 166 155 132 167 156 130 144 133 106 149 142 122 150 143 128 134 126 109 99 89 71 65 50 32 82 66 50 98 79 62 102 80 61 124 101 82 127 104 85 107 86 67 97 77 59 105 86 68 99 82 64 84 69 53 79 67 52 52 42 27 33 20 3 25 7 0 15 0 0 25 3 0 37 23 11 34 0 0 113 98 82 132 122 108 82 83 77 66 80 86 68 94 108 49 86 111 112 152 177 166 206 226 166 196 211 136 153 164 72 95 115 102 138 167 145 173 196 105 116 126 67 67 59 85 90 81 110 143 151 105 158 177 95 152 177 110 165 190 54 103 126 100 81 75 87 71 66 74 60 57 85 70 69 81 65 66 68 54 54 79 68 67 80 72 70 68 68 60 178 186 174 219 232 219 201 209 199 179 177 170 167 164 154 167 167 152 170 173 155 169 173 151 152 156 132 178 179 158 188 185 168 155 151 133 167 160 139 174 164 143 137 125 100 196 183 155 220 208 178 208 196 169 216 205 180 200 191 168 198 191 167 198 193 170 207 204 181 224 221 198 213 211 189 201 197 177 165 161 140 93 89 67 79 73 51 44 33 0 122 112 98 160 149 134 146 140 125 130 129 114 135 134 121 114 111 99 69 65 54 54 49 38 58 52 39 59 53 39 93 85 73 124 116 101 128 121 103 158 148 128 164 153 130 168 157 132 159 148 124 153 144 124 162 152 134 154 141 123 114 99 80 81 62 40 113 92 70 143 117 95 144 115 92 132 102 80 106 78 56 94 69 45 99 75 52 93 71 50 95 76 56 108 89 69 114 97 78 93 78 61 81 65 47 96 80 61 115 96 78 93 73 54 0 0 0 68 49 32 133 112 91 144 130 115 100 97 89 67 77 81 69 90 102 54 86 109 124 162 186 168 206 226 164 194 208 132 149 160 69 92 112 105 141 169 143 171 195 99 110 119 65 65 58 84 89 80 111 143 151 104 156 176 95 152 177 111 166 191 49 98 121 95 75 71 78 62 59 59 46 46 73 60 62 81 68 71 68 56 59 87 76 75 65 54 50 151 149 138 218 221 204 175 182 162 130 131 107 111 101 77 106 100 76 106 105 82 126 127 99 158 161 123 171 171 130 166 163 124 153 147 111 143 135 100 192 184 155 237 229 201 189 176 148 217 200 171 199 180 151 165 148 117 213 200 171 214 203 175 213 204 176 186 179 150 186 181 151 223 218 190 211 208 180 181 176 150 103 98 74 81 75 52 163 154 133 189 179 159 211 198 178 198 184 165 141 130 107 126 116 92 148 139 118 164 154 134 138 128 111 107 96 80 75 65 50 67 56 42 93 82 68 112 101 86 119 109 92 142 133 114 147 138 118 152 144 121 171 161 138 158 146 126 134 119 102 129 113 93 146 126 105 158 134 112 142 116 91 135 104 80 137 105 80 126 92 67 112 78 52 104 73 46 98 68 42 75 48 20 75 49 21 85 62 40 98 79 60 101 81 62 99 79 57 115 95 72 159 134 110 160 133 107 104 76 51 123 98 72 170 144 118 152 133 115 92 84 74 77 82 85 78 94 105 57 86 105 123 158 180 167 205 225 162 193 207 129 145 157 67 89 109 108 144 172 142 171 194 93 104 112 70 71 63 92 97 88 117 150 158 107 159 179 97 153 179 112 167 191 43 92 115 104 84 83 102 86 86 69 57 57 76 63 64 75 63 65 69 56 57 65 51 48 118 109 101 198 192 179 168 166 148 132 133 109 107 106 83 56 45 19 23 8 0 0 0 0 0 0 0 74 75 30 134 131 87 185 178 136 204 196 157 207 197 161 213 204 170 241 232 199 204 189 157 190 170 139 204 181 150 198 178 146 228 215 181 234 223 189 219 209 177 169 161 129 174 168 135 227 222 189 202 197 164 139 135 108 27 18 0 154 144 118 216 203 177 199 185 162 199 184 161 173 157 135 123 107 81 125 110 83 139 125 99 166 153 128 154 139 117 145 130 108 137 121 103 117 102 84 129 115 98 150 137 119 152 139 122 129 118 100 148 139 119 146 138 118 164 155 134 165 151 131 138 121 100 120 99 75 140 115 90 168 140 114 156 126 99 133 101 73 131 97 69 131 96 67 118 84 56 109 79 50 104 76 48 87 59 31 93 67 38 91 65 36 69 43 14 82 58 35 93 71 47 106 83 59 142 115 91 151 123 97 143 114 85 140 111 80 192 168 143 191 173 152 98 90 78 72 78 79 73 88 97 65 92 112 129 161 183 172 206 225 165 194 209 127 147 158 64 92 111 113 147 175 145 172 195 93 102 109 65 66 60 87 92 85 113 146 155 103 156 175 94 152 177 112 167 191 41 91 114 82 64 66 87 71 72 94 77 76 86 69 67 85 67 63 66 49 44 57 39 29 179 168 156 209 200 185 124 118 99 90 87 68 23 18 0 6 2 1 20 16 12 32 30 15 34 33 20 0 0 0 34 28 0 115 109 82 192 183 153 223 213 181 209 197 164 195 182 147 189 174 138 210 190 153 214 192 154 204 186 147 231 218 180 222 211 174 204 195 160 173 166 132 193 187 154 222 216 181 147 140 107 56 38 0 164 149 119 195 178 146 173 155 127 131 111 82 147 129 105 154 137 115 117 103 82 95 85 62 97 86 63 118 105 82 120 105 80 143 126 102 174 155 131 164 144 121 159 141 116 188 172 148 184 169 145 144 130 107 140 127 105 153 142 122 164 155 134 160 151 130 170 154 130 147 123 92 132 100 62 142 109 76 150 120 91 135 108 81 121 94 67 116 86 58 100 72 45 93 71 46 107 89 66 104 85 63 107 80 49 110 81 46 89 68 37 61 44 18 82 63 39 92 73 51 79 58 41 89 65 43 119 95 72 119 96 69 179 165 142 183 175 154 86 89 76 65 80 80 68 88 98 65 94 117 136 163 188 177 201 222 162 187 204 118 149 164 47 90 109 113 146 166 149 171 187 106 105 113 82 75 78 91 95 98 118 151 164 99 153 172 90 154 177 113 172 195 41 89 111 75 55 61 74 53 56 75 56 55 69 49 44 78 59 52 57 37 27 81 65 52 198 185 170 216 205 189 111 103 87 0 0 0 27 22 14 29 26 21 31 29 25 29 26 20 28 25 16 36 32 22 0 0 0 0 0 0 136 126 106 193 181 154 179 165 134 173 156 122 194 177 138 210 192 149 188 168 125 175 158 114 218 204 162 208 197 158 177 169 131 198 192 156 204 198 163 169 162 126 128 118 82 196 181 147 219 199 162 184 162 126 148 123 91 149 127 100 141 122 99 113 97 79 63 53 39 41 36 21 33 25 5 47 38 19 54 42 23 105 89 67 169 149 124 160 139 111 159 139 109 166 148 119 147 131 104 160 143 118 152 137 113 144 132 110 171 162 141 150 144 124 166 154 129 171 146 110 156 123 81 146 114 79 130 104 75 115 95 70 91 71 47 85 61 34 88 68 45 64 50 31 54 45 31 74 63 45 114 87 57 117 86 49 102 82 48 74 61 32 80 63 39 80 63 42 22 0 0 69 49 34 110 90 73 123 108 88 142 136 114 117 120 101 61 74 61 76 95 97 65 91 103 62 94 121 141 166 194 187 204 227 161 184 203 106 147 165 32 92 111 127 159 173 158 177 188 103 94 103 85 76 82 93 97 105 119 154 168 98 155 172 87 157 178 105 170 189 41 88 108 117 102 108 111 95 99 90 74 76 77 60 58 81 66 60 42 20 10 81 68 58 200 187 173 165 153 138 56 46 27 36 25 4 37 30 19 42 37 32 37 33 30 37 32 26 28 20 13 29 21 8 32 24 5 34 25 8 151 140 116 162 149 120 127 113 81 187 170 134 225 207 166 209 192 149 186 167 123 194 176 131 229 213 170 218 205 164 169 160 122 207 200 164 176 170 135 102 94 52 178 167 132 237 221 184 204 184 148 151 127 93 154 131 102 148 128 102 89 72 52 40 23 6 19 8 0 34 29 18 52 47 34 48 42 27 34 17 0 36 20 0 92 76 58 128 108 82 136 116 88 141 121 93 138 121 94 150 133 108 148 134 110 174 163 141 180 171 150 159 153 134 171 161 138 181 157 123 170 137 99 161 134 101 119 98 71 88 71 51 62 46 26 63 41 20 78 60 40 73 63 49 54 50 40 25 21 8 72 49 23 114 85 51 113 93 59 100 86 55 86 69 43 84 63 43 75 53 36 107 87 71 143 123 106 145 131 112 119 112 92 63 67 49 70 81 72 84 103 105 58 84 98 68 100 128 141 169 196 179 197 217 156 184 200 102 146 163 24 91 110 128 162 174 149 170 180 84 76 84 93 87 94 103 110 119 117 153 166 94 152 169 88 160 180 103 169 187 38 86 104 182 172 178 165 156 160 164 154 157 148 138 139 140 130 128 99 89 86 91 78 69 175 162 149 120 106 91 65 50 27 33 20 0 45 33 13 103 93 84 109 100 91 38 28 18 82 72 60 86 75 61 40 25 0 62 51 29 162 149 121 146 131 99 122 107 71 197 181 142 207 190 147 174 157 113 200 182 137 222 204 158 222 204 160 227 212 170 179 168 129 164 156 119 134 126 91 130 122 86 192 182 146 171 156 123 147 127 94 132 112 79 130 111 83 98 81 60 18 0 0 39 29 21 55 48 38 40 37 29 42 38 27 99 93 80 89 81 67 34 15 0 51 32 6 71 53 32 118 101 75 151 134 106 155 139 112 149 133 107 145 131 105 154 142 118 164 155 133 170 166 146 166 159 138 156 135 106 150 121 88 150 126 98 107 90 68 57 44 29 31 15 1 40 21 4 42 25 8 52 43 31 91 87 79 80 76 68 44 25 0 83 57 27 107 87 55 112 95 64 95 75 50 73 51 30 91 68 50 122 99 83 137 116 99 126 110 92 101 92 74 71 72 59 82 91 85 77 95 98 52 78 94 75 106 134 142 170 197 175 198 216 157 189 203 103 149 165 30 96 114 130 166 178 143 168 177 80 77 83 87 85 92 96 107 114 116 153 167 95 153 171 94 162 183 108 172 191 41 88 105 173 169 174 165 163 168 162 159 164 168 165 169 166 163 164 144 139 137 125 116 109 148 136 124 125 110 94 76 59 38 71 54 33 129 112 93 152 137 123 125 112 99 69 56 38 133 119 102 162 147 126 112 97 76 84 68 36 143 127 96 124 108 73 139 121 84 199 181 140 194 175 133 178 159 116 194 177 131 176 159 113 188 170 123 229 212 168 194 180 140 136 125 85 157 147 111 181 171 136 174 162 127 123 109 73 121 104 70 138 119 90 98 82 59 29 10 0 64 53 40 58 50 41 36 32 26 32 32 30 15 15 13 47 43 34 138 131 121 113 104 92 58 44 23 65 50 28 92 76 51 124 108 82 146 129 103 151 136 109 166 152 126 157 143 117 153 144 120 163 159 140 161 155 138 151 132 107 138 112 83 112 92 69 74 59 44 28 19 9 31 18 8 51 33 19 48 33 21 17 9 1 46 46 41 76 74 66 87 74 58 71 48 23 79 58 26 106 85 56 121 97 72 75 51 26 99 74 56 130 105 87 129 107 89 103 86 70 71 63 47 80 81 69 80 89 85 69 88 94 55 82 99 75 107 135 146 176 203 179 207 223 153 188 200 88 137 153 37 100 117 135 174 187 141 168 178 61 62 68 51 53 59 78 93 99 117 154 168 99 153 172 87 152 172 103 164 182 41 85 101 154 156 160 174 178 184 156 160 167 147 151 157 147 149 153 150 149 149 137 133 128 125 115 104 149 133 117 94 76 55 107 85 61 150 128 105 90 74 59 71 56 43 132 116 95 162 145 121 176 158 132 136 118 92 126 107 76 159 141 105 108 91 54 115 96 56 194 175 133 217 198 155 213 194 150 183 166 121 134 114 62 195 175 126 214 195 147 188 172 129 162 149 111 185 174 139 177 164 130 150 136 102 143 128 95 144 127 97 140 123 96 80 66 46 35 26 16 61 52 41 36 31 24 26 25 27 58 59 61 70 70 71 35 36 36 74 70 62 153 145 135 87 77 65 49 33 8 69 53 32 83 67 43 128 112 87 149 134 108 161 147 121 157 144 117 149 138 113 161 154 137 171 163 146 165 145 122 142 117 91 96 78 58 58 45 34 24 16 11 42 31 22 49 31 18 50 37 27 48 41 34 12 10 7 21 22 19 89 75 61 97 76 54 68 46 10 97 74 46 139 113 86 95 69 45 94 67 48 127 100 81 129 106 89 106 90 74 62 52 38 76 75 68 76 86 86 74 93 103 61 87 107 71 105 133 144 177 203 170 200 216 150 186 198 90 137 153 48 104 121 123 162 176 131 158 168 83 88 93 112 117 122 126 139 147 119 153 168 92 143 164 88 147 168 114 169 188 55 97 112 109 115 120 147 156 162 166 175 184 156 166 175 146 154 160 147 150 153 155 153 149 113 105 97 160 143 128 174 153 133 118 95 72 89 63 32 53 31 2 26 2 0 72 56 36 104 87 64 122 104 76 124 104 71 175 155 120 147 128 91 91 70 19 117 97 57 178 158 116 177 158 115 165 148 102 154 135 90 152 130 81 210 188 138 204 184 135 160 142 97 170 155 115 181 168 132 171 156 123 157 141 109 142 125 95 139 122 95 130 115 92 57 45 27 42 34 22 33 29 22 26 27 28 58 60 65 68 72 78 78 80 84 88 89 90 36 36 35 108 101 93 147 138 127 57 44 24 70 57 36 80 66 44 92 77 51 149 135 108 149 135 108 128 114 87 155 142 117 165 156 137 168 157 141 169 146 123 132 106 81 85 67 50 49 36 26 25 18 13 45 33 25 50 31 18 5 0 0 10 0 0 39 35 31 14 14 13 65 53 42 104 85 63 99 75 48 94 69 40 126 99 73 106 79 55 73 44 23 98 70 50 100 76 58 93 74 59 70 57 46 71 70 67 85 94 98 75 93 105 57 84 105 75 109 136 142 177 201 168 200 215 155 190 202 97 140 157 58 106 125 120 155 173 159 181 193 169 176 182 206 211 218 209 221 231 184 214 226 152 196 213 103 155 178 105 154 175 45 81 96 109 118 121 111 124 130 146 160 168 149 163 172 146 157 165 146 152 157 162 162 161 142 136 130 117 102 89 171 150 131 170 147 124 131 110 89 89 71 49 56 40 21 38 19 0 0 0 0 54 32 0 157 135 102 187 164 126 107 87 54 102 80 33 132 111 69 154 133 89 135 115 71 170 152 108 150 132 88 145 122 72 210 187 134 216 194 144 156 137 93 166 151 112 185 170 134 200 185 152 169 154 123 129 113 85 135 119 95 120 106 88 27 13 0 33 28 22 39 39 36 54 58 61 78 83 89 76 81 87 65 67 73 59 59 61 60 60 57 89 85 79 175 167 156 137 129 116 69 56 35 69 56 32 103 90 68 162 148 122 158 144 116 173 159 130 179 166 138 167 155 135 177 161 141 177 152 127 123 95 71 78 58 40 43 31 21 42 33 28 29 14 3 99 78 66 154 132 119 105 92 84 0 0 0 33 29 26 46 34 24 102 82 61 123 99 73 96 71 41 115 88 60 120 93 68 72 42 17 91 63 42 97 72 54 81 62 50 64 51 43 78 77 77 85 94 100 62 82 95 58 85 106 81 115 142 143 178 201 173 204 219 152 183 197 85 122 143 60 99 123 133 163 184 185 204 218 212 219 226 220 224 232 210 221 231 212 236 247 204 241 254 158 200 222 111 153 176 55 86 102 121 132 135 107 122 129 128 142 150 138 152 162 135 146 156 130 138 145 141 143 144 156 151 146 131 119 109 92 71 53 137 116 96 181 161 138 137 121 101 53 31 0 98 83 58 124 109 85 144 125 96 169 147 113 156 132 97 107 84 47 146 123 83 143 120 78 133 111 64 166 146 105 233 212 166 182 163 118 131 109 55 183 160 108 200 178 126 165 145 99 167 149 110 177 161 126 183 168 135 140 126 95 130 113 89 158 141 120 105 90 74 16 2 0 37 34 30 47 50 52 66 74 79 78 85 91 77 82 87 86 88 92 103 103 103 77 76 73 30 26 14 144 138 127 191 184 171 87 76 59 59 45 16 125 115 92 200 186 159 188 174 147 171 157 127 175 160 132 178 163 138 191 171 146 181 151 123 115 85 59 78 57 38 53 40 30 57 45 38 0 0 0 120 98 84 211 185 168 162 143 131 0 0 0 32 27 23 40 25 14 105 85 65 133 109 84 109 84 55 129 102 73 134 108 80 78 51 23 85 60 37 102 80 62 82 65 52 63 53 49 83 81 84 80 89 98 68 87 103 59 86 107 77 111 135 139 174 195 168 197 211 152 181 196 87 118 142 87 116 142 165 188 211 190 205 221 194 201 210 206 210 218 196 204 214 194 213 233 201 230 252 198 233 254 135 169 193 43 71 87 118 130 132 109 123 130 127 142 150 133 146 155 128 138 147 123 130 137 127 129 131 142 140 135 143 134 125 121 107 94 83 65 47 101 86 69 152 141 124 131 123 107 124 113 90 159 144 118 163 145 116 146 125 92 127 103 69 127 104 65 158 135 94 162 139 95 130 106 60 159 137 93 185 164 121 158 137 91 160 138 87 173 150 96 181 158 106 166 147 100 170 153 113 174 157 123 164 148 116 150 134 106 148 130 107 150 133 114 75 61 47 19 10 3 37 33 31 58 63 69 72 81 89 65 72 77 69 72 74 165 166 166 199 199 196 103 103 99 0 0 0 122 118 106 194 187 173 124 115 96 91 79 57 96 85 60 170 158 132 188 175 147 170 157 125 167 153 122 173 156 129 186 162 134 182 150 119 122 91 63 76 54 35 56 42 31 61 50 43 0 0 0 131 108 93 186 157 137 143 120 105 80 68 59 0 0 0 48 34 23 101 82 64 120 98 76 114 91 65 124 98 71 139 114 85 110 85 58 84 59 35 98 78 60 84 67 55 67 57 55 80 79 85 76 85 98 75 94 111 57 86 105 66 102 123 136 172 189 162 192 206 151 178 193 77 106 131 104 126 153 178 197 222 186 199 217 183 191 200 195 203 210 193 202 213 196 214 233 186 210 238 198 228 253 163 194 217 48 76 91 111 121 123 109 120 125 135 146 154 141 151 159 140 148 157 140 145 151 131 132 135 129 128 125 140 135 128 138 129 120 109 98 87 60 49 33 104 101 89 143 139 125 142 136 120 137 128 110 126 111 87 158 139 110 157 136 103 125 102 64 142 119 77 158 134 91 153 130 88 184 162 119 148 127 84 106 84 31 176 154 105 196 173 120 177 154 103 169 149 103 178 160 121 187 171 136 179 162 132 179 162 135 169 151 128 142 126 108 56 44 30 27 19 11 43 41 41 68 74 82 73 83 92 49 56 60 73 73 68 193 192 187 216 215 208 148 147 138 0 0 0 107 102 89 191 184 166 148 140 120 76 66 41 55 40 0 129 119 93 185 174 144 156 144 115 149 135 103 172 153 124 176 150 121 180 147 114 135 105 75 79 59 39 50 38 28 58 47 39 0 0 0 138 113 96 193 162 140 159 135 118 98 84 74 0 0 0 49 37 27 84 67 51 105 86 66 114 94 70 111 89 62 139 117 87 123 101 72 74 51 26 88 68 49 88 73 63 68 59 58 73 73 83 80 89 104 69 89 107 63 93 111 69 105 123 129 165 180 159 189 202 144 171 187 71 97 125 113 132 161 178 195 222 180 192 211 176 186 197 186 196 204 185 197 209 184 201 222 176 198 225 201 228 253 165 195 216 54 83 93 109 119 119 114 123 126 151 158 163 159 166 173 148 154 161 150 154 160 150 151 155 144 144 145 145 144 140 148 144 138 138 133 125 121 121 114 94 99 96 66 69 62 98 96 86 100 95 83 93 84 65 168 154 129 180 161 131 154 134 100 150 126 88 142 117 76 155 131 90 205 181 138 180 156 115 94 68 19 143 122 78 187 165 111 168 146 94 166 146 101 180 161 122 192 175 141 195 178 149 188 171 145 163 145 123 115 99 82 49 35 23 25 16 7 52 52 54 73 78 86 68 76 86 44 51 54 87 86 75 171 167 158 176 172 161 152 149 135 47 45 34 86 80 64 177 170 150 155 148 128 40 29 0 80 69 38 179 169 143 221 210 181 168 156 127 153 138 109 178 159 130 172 146 117 174 142 110 145 117 88 86 70 52 42 33 25 54 45 37 7 1 0 90 65 49 187 157 135 180 156 138 79 65 56 0 0 0 39 29 22 75 62 50 99 84 66 107 91 68 99 82 56 134 116 85 115 96 66 65 45 19 86 67 48 82 68 58 72 64 65 73 73 83 86 96 111 74 95 111 58 89 105 80 118 131 121 158 169 150 183 193 125 153 168 67 92 120 100 118 148 154 171 199 171 186 205 178 193 203 176 192 199 178 195 205 170 189 208 169 192 218 185 214 241 129 160 181 49 82 89 104 110 111 114 120 123 152 156 160 159 161 166 147 149 154 149 151 155 154 156 160 158 158 162 153 153 154 144 144 143 136 135 135 139 144 145 125 134 136 85 96 97 75 83 82 59 62 55 83 79 65 141 129 108 172 155 128 194 173 142 163 140 105 125 100 60 129 105 67 182 157 116 172 147 106 147 123 83 149 127 80 177 155 101 176 155 104 180 161 117 179 162 123 182 166 132 200 183 155 195 178 153 148 131 110 90 73 57 52 39 28 21 10 2 58 59 62 71 77 85 56 66 76 61 66 64 72 69 53 177 173 157 171 167 149 105 102 83 0 0 0 98 93 74 188 181 158 164 156 135 35 23 0 80 70 43 191 181 154 205 195 167 168 155 126 170 156 127 179 160 133 169 145 117 160 131 100 140 115 88 86 73 58 34 30 25 50 45 41 57 48 42 36 0 0 146 120 101 150 128 110 41 29 18 23 25 20 28 24 18 68 59 48 89 77 61 105 92 70 108 93 68 146 130 100 118 102 72 70 54 26 89 74 54 62 49 34 51 44 49 89 91 102 76 86 102 68 90 106 74 105 119 70 108 117 125 164 171 154 189 198 114 145 159 60 87 114 67 88 120 125 143 171 157 177 197 169 192 201 169 192 197 175 200 208 171 196 214 169 197 222 163 195 220 101 136 156 47 88 94 106 109 111 122 123 125 161 161 164 164 162 165 153 152 155 151 150 154 148 149 154 153 155 159 148 151 155 133 137 141 119 125 129 120 130 137 104 120 127 87 102 107 104 114 116 116 119 115 105 103 93 67 59 41 111 97 75 155 136 108 118 98 70 96 70 28 144 119 82 204 177 137 182 155 115 176 150 108 196 173 123 191 169 116 176 156 106 189 172 128 180 164 126 174 157 125 189 172 144 200 182 159 154 135 115 99 81 66 62 47 37 28 19 16 60 62 66 68 75 84 55 65 75 58 61 57 0 0 0 189 184 163 224 218 195 117 112 92 0 0 0 108 101 80 174 167 142 159 152 127 90 83 57 87 77 51 182 171 144 183 172 145 167 154 125 166 151 122 163 146 119 165 144 117 152 126 97 130 109 84 83 74 61 35 36 32 40 41 39 60 51 43 45 21 0 66 43 26 65 45 28 13 5 0 30 33 31 32 33 29 67 62 54 96 87 72 131 120 100 116 104 78 141 128 97 116 103 72 75 59 29 92 78 58 116 106 98 73 65 67 60 66 80 96 107 123 70 90 106 65 97 110 73 110 119 115 156 161 126 166 172 101 137 150 60 89 115 68 90 121 120 142 169 118 139 157 90 112 117 104 128 131 108 134 139 113 139 156 131 161 185 127 163 186 87 128 145 52 100 103 104 105 106 123 122 124 167 164 165 171 168 169 155 153 154 152 150 153 153 152 155 156 158 161 150 154 158 131 139 142 112 120 124 107 120 130 98 117 130 76 93 104 88 100 106 107 112 111 110 109 100 81 76 59 70 56 30 72 52 18 87 64 31 124 100 66 145 119 81 186 158 119 174 146 107 152 126 84 215 192 144 199 178 129 157 139 89 198 181 136 206 188 151 198 180 150 180 163 137 200 182 159 157 137 120 109 90 77 60 46 37 35 27 29 64 63 67 70 76 87 65 74 85 58 61 58 0 0 0 136 131 111 241 237 216 134 131 116 0 0 0 106 99 78 152 144 120 147 139 115 136 129 103 125 114 86 181 171 144 211 200 171 192 181 151 168 154 125 156 140 113 166 149 123 160 139 112 132 114 91 90 83 70 47 48 42 32 33 31 46 38 32 62 44 30 56 36 21 46 31 17 37 31 23 13 18 18 36 37 32 65 63 55 84 78 64 146 136 116 136 124 100 163 149 122 142 128 100 80 66 41 64 50 32 128 116 110 164 157 159 113 112 121 58 71 88 81 98 112 75 101 113 104 138 146 79 116 123 71 110 118 73 109 123 29 63 86 57 86 113 130 160 184 107 134 150 0 0 0 37 74 80 0 33 39 3 59 77 103 139 160 112 156 177 85 132 149 53 102 109 104 105 104 123 123 122 164 161 160 166 162 161 153 149 148 155 152 153 157 156 157 157 157 157 150 153 153 138 142 142 119 124 124 107 119 130 98 114 136 83 97 116 86 98 106 104 110 104 122 122 105 88 84 63 43 27 0 112 94 66 148 125 94 164 140 108 128 102 68 144 119 83 171 146 105 150 128 79 207 184 137 196 175 131 172 151 109 188 168 129 229 209 175 221 202 171 179 160 134 192 174 153 161 144 128 118 102 92 46 33 27 40 32 33 57 54 59 57 58 68 53 56 68 62 64 68 51 51 48 76 76 69 137 136 128 73 71 65 34 27 4 97 90 75 143 135 117 106 97 77 140 130 106 137 127 101 172 162 137 229 218 189 209 198 168 183 172 142 165 153 126 161 147 121 157 140 116 162 147 126 143 132 117 67 59 50 28 20 14 47 38 31 55 40 30 77 62 52 68 56 46 36 29 22 25 23 17 42 39 32 76 71 62 83 73 59 152 138 120 136 120 101 146 130 110 126 110 90 82 66 50 67 49 35 129 117 111 203 193 193 184 179 184 68 71 80 54 70 81 86 103 115 109 132 143 74 99 110 47 74 89 61 95 110 43 86 102 48 94 111 94 135 153 88 122 137 70 96 110 90 115 129 42 59 69 95 129 140 122 168 183 117 169 187 69 121 140 53 98 118 106 107 106 128 128 128 167 166 166 168 166 166 158 155 156 161 159 160 162 160 161 157 157 156 149 151 150 139 142 141 125 129 128 115 124 135 100 113 138 85 97 119 95 104 113 112 117 109 102 102 84 50 45 10 89 78 49 190 172 143 182 160 131 192 168 140 161 136 105 155 132 95 162 139 96 165 144 94 199 178 132 183 162 123 170 150 113 187 167 131 213 193 160 202 183 152 182 162 136 156 138 116 152 136 120 120 107 97 31 19 13 43 35 34 59 54 57 62 57 65 55 53 62 50 51 58 82 86 89 68 71 73 0 0 0 45 42 40 43 38 32 111 104 94 152 145 132 74 64 46 91 80 58 69 60 41 101 93 72 156 147 119 182 173 143 183 174 144 171 161 135 158 147 124 162 150 130 196 184 166 190 178 163 121 109 97 49 36 27 43 33 26 50 40 34 53 44 37 50 41 34 35 28 21 32 25 17 49 45 36 98 90 80 81 70 58 150 134 116 136 117 101 106 87 72 89 70 56 80 62 51 50 21 0 148 135 131 222 209 207 226 219 220 171 171 174 89 95 102 64 76 87 80 95 108 78 94 108 81 97 113 81 110 125 64 108 122 53 107 119 68 122 135 48 92 107 74 95 115 87 108 127 24 45 61 104 142 153 112 162 174 107 164 179 61 118 138 61 103 130 101 105 106 127 130 131 166 167 169 167 167 169 152 152 154 154 155 157 158 159 161 153 157 158 146 151 152 136 142 142 121 128 128 116 125 137 105 116 138 81 91 109 99 106 112 107 111 103 88 88 68 40 32 0 179 166 138 235 218 189 193 172 144 170 146 118 197 175 144 153 131 96 159 137 95 180 160 114 183 165 121 185 167 130 185 167 132 188 170 134 193 174 140 166 149 118 162 145 118 144 128 104 153 139 120 121 109 95 35 24 13 44 38 32 62 58 57 67 64 66 55 54 57 45 45 48 53 54 55 39 39 40 42 41 37 55 52 47 79 74 67 154 147 135 126 119 105 77 68 50 87 78 57 92 81 59 78 68 41 84 75 44 161 154 127 212 205 178 186 179 158 183 176 159 178 171 155 176 168 153 195 185 173 151 141 132 62 50 41 35 24 16 45 37 30 46 40 34 38 31 25 31 24 16 42 35 28 60 55 45 86 79 69 74 63 50 139 124 106 127 110 93 66 49 34 65 47 34 81 63 51 70 53 43 105 90 85 169 157 154 184 176 175 213 211 214 213 214 221 163 169 176 118 130 137 36 53 67 85 98 112 96 117 131 71 110 121 65 113 125 68 116 130 44 86 102 76 98 120 72 94 113 35 62 80 111 150 162 105 155 166 106 163 176 65 119 138 60 100 126 106 111 114 131 135 139 167 169 173 166 167 171 156 157 161 160 161 166 161 165 168 160 164 167 153 159 162 138 146 148 116 125 127 105 114 125 102 111 130 80 88 104 93 99 103 159 161 151 132 130 114 134 127 101 236 226 198 232 216 188 153 134 108 145 125 99 214 193 164 153 133 100 157 138 98 178 160 116 183 166 127 186 171 137 194 179 145 205 189 156 196 180 148 164 149 119 145 129 102 130 116 91 138 126 105 105 94 76 57 48 33 45 39 28 63 59 51 57 53 49 32 29 26 35 34 31 32 30 26 38 36 30 65 61 55 67 63 54 114 107 96 163 156 143 134 127 111 112 104 86 116 108 88 114 106 85 99 91 68 148 142 120 175 169 144 192 185 164 201 198 182 211 208 197 193 190 179 160 157 146 166 160 152 147 141 135 95 90 85 57 52 47 51 47 42 55 51 44 47 41 35 29 20 12 23 12 0 32 25 7 45 37 20 47 34 8 93 78 58 86 68 48 0 0 0 24 0 0 50 19 0 48 4 0 0 0 0 77 65 60 135 125 120 172 168 168 206 207 210 215 220 224 208 216 221 141 148 153 70 77 86 72 91 100 70 100 108 76 117 127 82 125 139 30 72 90 82 107 127 74 97 117 55 82 99 117 156 168 110 158 169 119 172 184 64 115 130 62 100 123 112 116 120 133 136 141 165 166 171 165 166 171 157 157 163 157 157 163 154 156 161 154 158 162 154 159 163 143 151 154 121 129 132 110 119 126 110 117 130 69 74 86 98 102 101 220 219 208 187 184 168 196 188 163 254 252 224 186 175 149 80 56 17 181 165 140 215 196 168 187 169 137 166 149 112 176 160 121 198 186 149 184 173 142 190 178 149 217 203 175 193 180 151 186 172 144 165 152 125 124 111 86 99 88 66 76 66 47 74 67 49 45 38 25 70 64 52 64 61 50 54 52 43 72 69 62 78 74 65 89 85 75 109 102 91 96 90 77 92 86 69 86 79 61 88 79 61 108 100 81 117 108 89 112 105 85 118 111 92 156 150 131 169 164 146 195 192 178 201 201 191 167 168 162 145 146 141 118 119 115 80 79 76 104 103 99 111 110 106 74 72 69 70 67 63 66 64 58 83 80 73 94 90 82 86 83 73 92 87 76 105 99 85 116 107 89 128 116 96 150 136 118 155 141 124 161 146 130 147 131 116 161 149 136 158 148 138 105 92 84 135 126 118 165 159 153 119 116 114 132 134 132 174 177 177 202 205 208 174 173 175 120 125 128 71 95 100 73 106 115 81 117 129 52 86 104 77 104 125 57 81 101 65 94 111 106 144 157 100 145 155 115 163 174 55 102 115 67 102 121 128 131 134 143 143 147 174 172 177 180 178 182 171 169 174 169 167 172 164 164 168 157 160 163 153 156 159 141 145 148 116 124 126 116 122 127 111 114 121 63 65 69 174 175 171 233 232 220 195 191 173 150 143 122 191 181 157 127 115 91 135 120 96 224 208 183 227 212 185 218 203 174 223 211 179 227 218 185 198 188 157 192 185 160 223 215 192 217 208 184 190 180 156 167 155 131 121 109 88 98 87 63 83 71 46 66 55 30 82 73 54 55 48 29 84 77 61 95 90 75 101 97 83 118 113 100 133 128 113 134 126 112 144 136 120 145 138 120 123 114 95 134 125 106 136 127 107 133 125 106 152 144 126 157 151 133 137 131 115 145 141 127 199 196 183 204 203 193 121 122 118 47 55 58 69 75 78 82 86 88 82 85 88 85 88 91 75 78 79 51 52 52 49 49 46 67 66 63 103 101 93 138 135 124 158 154 142 172 166 152 163 156 138 158 148 127 161 149 127 189 175 154 211 196 178 215 199 181 200 183 166 221 209 195 233 222 208 207 192 178 169 158 146 187 178 169 187 180 172 160 157 151 111 111 105 123 120 114 178 172 169 179 178 178 133 142 143 81 107 113 65 95 105 57 87 105 84 114 135 46 71 90 81 111 127 105 143 158 85 126 138 92 135 146 43 88 100 64 99 116 104 104 105 111 108 111 140 136 139 152 146 150 156 149 153 164 158 161 171 167 169 172 169 171 165 164 165 151 152 152 132 134 134 128 130 130 98 98 100 116 117 113 234 235 226 238 236 224 164 157 140 78 70 54 12 0 0 134 122 100 212 199 174 216 202 178 220 207 181 211 198 172 230 222 194 235 230 201 199 191 167 212 207 189 230 224 207 205 198 181 191 184 165 109 101 81 0 0 0 102 91 71 130 119 101 147 137 119 155 148 128 156 148 130 160 152 135 181 175 159 182 176 160 187 180 163 195 187 169 182 173 154 184 174 155 190 182 159 186 175 151 184 173 149 189 179 156 188 180 159 190 182 164 179 172 155 162 158 143 187 185 174 182 180 170 101 100 95 111 117 121 137 145 150 114 122 129 89 98 103 107 115 119 120 126 130 108 114 117 103 107 109 92 94 93 72 72 69 90 88 80 130 126 116 158 152 140 172 165 150 147 139 121 122 111 89 114 102 78 112 97 73 119 103 81 115 98 77 107 90 70 100 81 61 119 101 85 169 156 141 170 158 144 202 192 179 244 236 223 221 213 201 150 144 133 108 100 89 98 81 69 128 121 115 171 173 172 121 135 139 77 98 107 53 81 98 81 111 130 37 66 85 111 140 155 139 174 189 97 133 144 90 128 138 87 124 134 99 134 146 47 38 35 53 41 39 74 62 61 78 67 66 85 73 72 104 93 93 122 112 112 133 126 125 139 133 132 134 131 128 129 126 123 119 116 113 88 86 79 176 175 166 243 242 231 224 220 207 157 149 134 78 69 45 69 59 33 188 179 158 229 219 195 190 180 155 173 164 139 192 182 157 202 192 167 201 191 167 221 215 198 222 218 206 194 190 180 193 187 175 193 186 173 164 156 144 182 172 158 212 201 185 220 208 191 231 220 202 224 214 196 226 217 199 218 209 192 226 218 201 228 220 203 213 205 185 209 198 177 206 195 172 206 194 171 198 187 162 203 193 166 202 191 164 196 187 161 196 189 166 188 181 162 164 159 143 166 164 151 182 181 172 153 153 148 146 146 145 148 153 158 119 128 135 97 106 115 102 111 119 104 114 121 88 98 104 87 95 98 107 112 114 96 100 99 55 57 52 49 48 41 97 93 83 153 146 132 175 167 151 147 138 120 118 107 84 117 105 80 114 98 74 116 100 77 121 103 83 121 103 83 103 86 67 90 72 51 90 72 52 97 80 62 77 60 36 147 139 125 209 200 185 187 178 163 117 106 91 113 96 80 100 84 71 104 98 92 126 133 135 106 120 127 52 78 92 68 96 112 13 53 70 127 156 168 158 189 202 121 152 163 104 136 146 87 118 127 101 134 143 70 57 51 83 68 63 96 80 76 91 74 70 75 58 53 76 59 54 71 54 47 73 57 50 83 68 61 80 67 60 71 59 52 86 78 69 166 162 150 232 230 216 233 229 216 222 216 203 225 218 205 186 177 162 188 180 163 216 208 189 224 216 194 206 198 174 184 177 151 216 207 184 223 215 193 218 211 190 230 224 210 211 208 201 210 207 200 230 224 216 235 226 217 244 234 223 254 243 230 246 233 218 234 222 206 225 213 197 215 204 188 219 209 192 227 217 200 216 207 191 203 194 177 196 185 164 198 186 161 191 180 153 195 184 156 206 193 165 208 195 167 210 199 171 196 186 159 186 178 155 177 170 150 167 161 146 187 183 174 190 188 181 160 159 156 142 142 143 77 82 90 25 40 53 52 63 72 64 74 84 67 77 86 66 75 82 49 58 62 46 55 57 53 60 58 54 57 52 16 16 9 39 32 20 147 140 126 191 182 165 164 152 134 108 95 71 103 88 61 109 93 68 113 96 72 113 95 72 111 93 72 107 89 69 116 99 78 113 95 76 110 92 75 96 79 63 55 31 0 86 69 44 132 119 100 121 106 88 109 90 69 86 68 51 71 54 44 84 80 80 87 94 99 74 92 101 66 89 98 51 79 91 120 148 158 142 167 177 148 170 181 143 165 176 47 71 81 70 103 111 66 49 41 78 60 52 102 81 74 108 86 79 107 85 78 97 76 68 88 69 61 91 73 65 84 67 59 79 63 55 50 23 6 130 121 108 219 213 195 234 229 212 242 239 224 254 249 238 250 242 231 245 240 227 241 234 218 234 226 208 224 218 196 216 209 186 216 209 185 216 209 187 218 211 190 233 226 208 229 224 212 226 223 216 244 239 234 248 241 234 250 242 233 242 232 222 221 209 197 210 197 182 202 190 174 187 174 158 199 186 169 191 179 161 200 189 172 199 189 172 184 173 155 179 168 146 169 156 130 182 170 142 191 179 151 184 171 142 199 185 155 202 191 160 180 169 141 179 169 144 146 138 116 142 137 121 181 178 167 181 179 173 142 142 139 81 81 83 79 84 90 69 78 85 66 75 83 64 73 81 50 60 68 46 56 61 53 63 64 64 72 72 61 66 64 50 52 47 39 38 29 9 2 0 91 81 68 171 159 143 173 159 140 122 107 82 100 84 55 105 88 62 119 100 75 112 93 69 101 82 60 104 85 64 104 84 64 91 72 52 82 64 44 100 82 64 103 85 67 92 77 55 95 78 58 106 88 67 101 81 56 79 57 35 76 57 46 82 71 67 67 64 66 92 104 109 78 95 100 63 88 95 108 133 140 115 134 142 136 151 160 148 164 175 81 103 113 90 122 132 58 37 26 68 47 36 94 71 62 104 79 71 101 77 69 97 73 64 96 74 65 100 79 68 99 80 70 87 68 58 76 57 46 115 104 89 167 162 140 193 188 166 221 217 201 234 229 217 233 224 216 250 248 239 242 237 225 225 218 200 211 204 184 201 195 171 217 211 187 208 202 180 203 196 177 221 213 198 226 219 208 227 221 213 222 215 207 217 209 201 217 208 198 202 191 179 195 182 167 214 201 184 200 187 169 176 164 144 189 177 157 171 160 139 174 162 142 186 175 156 184 173 153 189 178 155 193 180 154 207 193 167 181 167 140 151 136 107 190 177 145 198 187 155 169 158 127 169 161 133 180 173 149 194 188 170 169 165 151 101 99 93 109 108 105 75 75 76 75 78 83 61 67 74 58 66 71 59 68 72 50 59 63 44 53 57 46 55 56 52 60 59 48 53 49 65 64 58 68 64 56 31 22 6 58 43 27 190 176 162 192 176 156 121 103 78 95 76 46 117 97 70 124 103 77 114 94 69 103 83 60 104 83 62 92 71 50 90 69 50 91 73 53 84 67 46 86 68 47 90 73 51 97 80 58 106 88 64 103 83 57 101 80 57 82 60 45 78 60 53 73 62 60 86 93 94 68 81 82 74 94 95 110 129 131 115 126 131 101 109 118 113 125 135 101 120 131 98 129 140 70 49 41 81 58 51 97 73 66 95 70 63 82 57 50 99 75 67 98 74 67 85 63 55 100 80 71 88 67 58 92 76 67 132 119 103 179 173 148 217 213 189 211 205 188 229 222 211 250 246 239 251 247 241 235 228 219 207 200 185 202 196 176 192 187 163 218 212 188 232 226 205 223 216 198 231 223 209 229 221 208 207 200 185 196 188 173 210 203 186 202 192 175 182 170 151 189 176 155 206 193 170 201 187 164 177 163 137 175 162 136 170 158 132 171 159 134 197 186 161 205 195 171 199 188 164 200 187 163 213 199 174 207 193 167 206 192 163 209 196 164 190 178 145 191 181 149 192 184 154 190 184 157 201 194 175 154 149 136 16 5 0 71 69 64 57 57 56 51 52 55 46 47 50 33 38 39 37 43 44 35 42 42 34 43 43 37 44 43 43 48 44 40 43 38 64 62 56 77 71 62 48 38 25 33 5 0 196 179 166 221 201 183 143 123 99 108 86 54 146 123 96 123 103 76 110 89 65 107 86 64 96 75 54 93 72 52 99 78 59 99 79 59 90 70 51 92 72 51 87 67 46 85 65 44 98 80 56 94 77 49 99 80 54 91 66 48 76 53 43 78 63 58 72 72 68 51 63 57 102 116 112 126 139 136 139 144 147 138 137 145 137 142 154 113 128 142 97 128 141 70 49 43 84 62 56 101 77 72 98 74 69 84 59 54 108 84 79 109 85 80 86 65 60 103 82 77 85 65 58 89 70 65 166 155 138 201 195 168 206 202 177 228 223 207 252 246 237 251 246 241 223 216 213 213 205 198 227 221 208 231 226 206 209 203 178 221 215 190 244 238 216 240 232 215 243 235 223 247 239 224 228 221 200 222 215 192 227 218 195 200 189 165 187 175 149 196 183 155 185 171 141 201 186 156 214 200 170 226 213 182 223 211 181 196 185 156 197 186 157 199 190 161 200 190 164 207 195 173 199 185 162 195 181 154 213 199 170 199 185 154 166 153 119 178 166 133 172 162 131 157 149 122 171 164 144 134 128 114 0 0 0 49 46 40 56 55 50 44 43 41 32 32 31 32 34 32 40 45 42 39 45 41 42 48 44 54 60 55 53 57 51 38 39 33 25 23 14 51 45 35 54 43 32 54 34 19 151 132 119 190 168 152 147 124 101 120 96 64 146 121 94 112 88 61 99 76 52 104 82 60 89 67 46 95 74 53 100 79 60 97 75 57 94 72 53 95 74 55 80 59 38 69 47 26 89 71 47 88 75 45 79 61 35 100 74 55 83 57 44 66 48 40 66 61 52 50 58 46 118 128 120 138 146 139 150 148 148 160 154 161 155 154 168 107 117 133 90 121 137 62 44 38 74 54 49 95 74 70 96 75 70 100 76 73 104 82 77 105 84 80 95 75 70 95 77 72 71 52 46 125 111 105 190 180 163 195 192 163 214 212 185 209 206 190 222 217 210 228 222 218 199 193 190 221 217 209 237 232 218 229 224 204 234 228 203 240 234 209 241 235 213 229 221 205 223 213 201 232 224 205 232 224 197 223 214 184 209 198 169 191 180 147 204 192 158 219 205 171 211 197 161 221 207 171 219 205 169 219 206 169 215 204 167 210 200 165 205 196 160 193 185 151 197 186 160 214 202 180 200 188 165 174 162 136 177 163 134 175 162 130 177 164 130 186 173 139 185 175 143 191 182 154 198 191 167 168 161 145 97 93 83 0 0 0 25 25 22 15 15 13 20 19 15 26 26 21 40 41 36 39 43 37 39 44 39 50 53 47 32 36 30 21 20 12 39 35 25 38 30 20 57 42 32 123 107 96 151 130 117 133 109 94 98 74 51 90 66 36 96 70 44 87 62 34 87 63 38 94 71 49 90 68 48 89 67 49 91 68 52 93 71 54 82 61 43 78 57 38 81 60 41 81 60 40 86 68 44 93 79 50 83 67 39 97 71 51 88 60 46 66 44 32 62 53 41 55 59 44 126 133 121 155 158 149 154 148 146 153 141 150 152 148 163 108 118 135 96 128 145 71 53 48 80 61 55 96 76 70 95 74 70 98 77 74 82 63 59 87 68 64 94 76 70 79 64 58 55 37 26 146 135 123 209 199 178 192 189 155 204 200 169 199 194 172 196 189 176 196 189 180 204 197 187 226 220 208 226 219 204 206 199 180 234 226 205 243 235 212 222 214 193 218 210 193 227 217 202 225 214 191 211 200 163 207 194 155 200 186 147 210 196 157 217 203 164 218 203 164 222 206 166 222 207 166 213 198 157 212 197 157 198 185 145 206 194 157 199 188 153 191 181 147 209 197 169 204 192 168 181 169 144 186 175 147 193 182 153 185 174 141 186 174 139 178 167 133 192 181 150 196 186 157 180 171 146 195 188 168 175 168 153 101 93 82 87 78 68 89 81 70 68 62 50 39 33 21 41 37 26 48 45 36 48 48 40 46 46 39 28 27 17 73 69 60 108 102 90 98 87 75 113 97 82 141 122 106 137 113 97 133 105 85 103 73 46 98 67 35 86 56 26 99 72 44 94 68 44 83 58 37 79 55 36 75 52 35 84 60 45 88 65 49 84 61 45 80 59 42 81 60 43 82 61 44 80 64 41 88 76 46 98 82 52 78 50 27 86 55 41 85 57 46 59 43 30 66 65 50 135 141 127 157 162 151 147 141 140 151 140 148 163 160 173 114 124 140 93 125 143 61 40 35 81 62 54 101 82 75 104 85 78 104 85 81 102 83 79 97 78 72 97 80 72 66 51 39 85 73 56 157 146 123 182 171 141 199 190 152 193 184 146 165 156 123 194 183 155 221 209 185 224 213 192 213 202 184 204 193 175 211 200 182 229 218 200 238 227 209 212 200 183 223 211 195 228 216 199 225 211 180 210 193 144 204 186 135 203 185 139 215 196 152 200 181 139 195 176 134 187 169 127 196 179 136 206 188 146 201 184 141 197 180 141 204 188 153 200 184 152 199 183 154 203 189 160 194 180 151 182 170 139 200 189 157 203 192 160 197 188 153 191 180 148 189 178 146 200 189 157 177 166 136 140 128 101 171 158 134 192 177 155 180 165 146 176 159 141 156 140 119 102 86 62 41 25 0 30 19 3 49 40 29 50 42 32 36 29 19 50 44 34 125 117 107 159 148 134 129 114 98 135 114 93 145 121 96 117 87 61 136 102 72 129 91 57 117 78 42 123 88 56 107 77 48 100 73 49 87 62 40 78 52 34 76 50 33 87 60 44 88 61 45 87 60 45 91 67 53 66 45 33 53 32 23 71 55 39 91 79 47 118 100 68 98 66 44 92 55 40 97 63 52 72 48 38 58 50 37 145 149 135 155 162 150 139 141 137 151 151 154 157 161 171 112 126 139 96 125 142 66 46 39 77 59 50 88 69 60 85 66 59 79 61 56 86 67 63 97 79 73 106 90 82 87 73 58 120 109 87 157 145 118 173 163 125 201 189 146 150 139 95 159 147 108 219 206 170 219 206 173 210 196 168 196 183 157 185 173 150 207 194 174 221 208 189 216 203 184 216 203 183 240 227 208 230 217 196 200 185 150 190 170 119 181 160 109 154 132 87 154 132 92 152 130 92 122 101 64 110 89 49 174 155 112 203 185 141 207 188 145 199 181 139 200 182 144 203 184 150 200 180 149 178 161 130 188 174 140 203 190 155 197 186 151 185 175 140 195 186 150 199 190 157 201 191 158 212 201 169 203 191 160 147 133 104 144 127 102 203 185 161 197 178 156 161 140 118 171 151 124 143 123 95 89 70 46 49 31 9 31 14 0 32 20 7 16 0 0 92 84 74 146 135 124 158 143 129 141 123 105 150 125 102 171 142 114 137 106 74 129 93 57 142 101 61 126 84 44 119 82 46 101 69 39 103 77 51 97 73 51 87 63 42 87 62 44 83 56 38 70 42 23 91 64 48 99 75 61 69 48 37 48 30 24 36 16 1 81 71 41 143 124 90 129 97 73 89 48 32 94 58 48 89 63 54 58 46 32 139 141 128 156 163 150 138 145 139 145 150 152 153 162 169 110 126 137 100 128 144 69 50 43 81 63 54 93 74 66 91 74 66 75 58 52 93 75 71 82 65 59 68 52 43 83 71 55 93 81 59 116 105 78 150 139 101 151 140 95 103 90 30 163 151 109 194 181 139 151 137 100 175 160 127 197 183 152 201 187 159 211 196 169 220 205 178 213 198 171 229 214 187 240 225 198 204 190 162 145 128 93 133 113 71 124 102 63 98 75 39 79 55 19 68 44 13 21 0 0 92 74 42 161 142 100 176 158 112 200 183 135 207 189 143 187 169 125 178 159 119 187 168 131 192 175 140 186 171 137 157 144 110 138 125 91 146 133 99 160 149 114 157 147 113 164 154 120 169 158 127 174 162 131 148 134 105 137 122 95 178 161 135 159 140 116 158 137 113 197 176 148 184 162 132 155 134 107 123 106 84 82 68 50 57 46 33 23 4 0 107 97 87 163 151 138 166 150 135 152 133 115 141 117 93 168 139 111 143 114 83 125 90 52 132 93 53 119 81 39 111 77 39 98 69 37 100 75 48 92 70 46 84 62 39 78 56 34 75 51 30 74 49 28 81 57 37 74 52 36 70 51 38 83 67 57 66 53 41 52 40 11 108 88 54 110 78 54 94 55 40 96 60 51 86 62 51 74 65 52 132 134 121 156 163 150 147 152 145 149 153 153 160 168 175 109 124 136 91 120 135 68 52 42 85 69 59 102 86 77 98 82 74 93 77 71 100 83 79 91 74 68 90 74 65 96 82 67 95 82 62 126 114 87 141 128 91 137 124 77 142 130 80 191 178 133 193 180 136 158 144 101 194 180 141 209 195 158 212 197 162 218 203 169 228 213 178 224 209 174 219 204 169 213 198 163 178 163 128 135 116 82 118 98 67 93 72 45 72 50 26 51 30 9 43 19 0 66 45 17 125 105 71 165 146 105 165 147 100 186 169 118 189 172 122 159 141 93 148 129 83 159 139 97 183 165 126 170 153 118 111 94 60 87 71 31 119 105 70 138 125 90 124 111 77 135 125 90 137 126 94 140 128 97 138 123 94 133 117 90 162 145 119 160 142 116 165 145 119 159 137 107 148 125 92 156 135 106 149 131 105 110 95 75 80 67 50 52 39 23 73 61 48 127 114 100 141 127 110 125 107 86 131 107 81 155 126 97 141 112 79 122 88 50 114 77 35 111 76 32 113 81 43 103 76 42 98 76 46 85 66 40 84 65 41 74 55 31 73 53 29 81 60 36 89 68 45 79 60 41 54 36 21 72 58 46 90 77 60 79 67 38 107 87 56 101 69 46 95 57 42 95 60 50 76 52 41 53 43 28 123 125 112 159 164 153 151 153 147 147 149 150 160 167 175 111 126 139 101 131 145 58 45 34 79 66 54 101 87 76 94 80 71 92 78 71 77 62 57 89 72 65 106 89 80 95 79 65 117 102 82 138 124 98 119 106 72 136 123 77 178 164 114 212 198 150 206 192 146 187 172 126 203 187 143 204 188 146 204 189 147 213 197 156 213 197 155 196 181 138 175 159 117 180 164 120 163 146 103 130 111 77 99 79 55 64 44 26 44 21 4 37 16 6 59 38 22 100 79 54 102 82 51 113 94 55 123 105 59 138 120 70 140 122 69 140 119 67 159 138 88 175 154 108 172 152 110 162 142 105 147 125 90 129 109 74 125 108 74 129 114 80 116 101 67 154 140 107 176 162 130 146 132 101 148 133 104 141 125 98 137 121 96 143 125 100 140 119 93 138 115 82 139 114 79 145 123 91 138 118 90 91 74 50 70 55 34 57 44 27 57 43 25 97 82 66 116 98 80 96 76 51 151 126 100 148 120 91 135 104 69 141 108 70 124 90 48 112 80 37 102 73 35 94 71 37 97 77 48 93 77 51 97 83 57 87 72 46 103 85 60 101 82 57 75 55 30 73 55 33 68 54 37 66 54 40 74 64 44 99 88 57 136 115 84 117 86 63 88 52 35 95 61 50 91 67 56 51 39 22 122 123 110 166 169 157 154 154 148 147 146 148 155 161 169 107 121 134 102 132 147 50 39 28 81 68 55 105 92 79 102 89 79 90 75 68 96 81 76 99 82 76 94 77 69 109 92 78 117 101 82 89 74 52 78 62 24 107 91 46 145 130 83 183 168 120 201 185 139 215 196 152 217 199 154 217 200 154 213 196 151 202 184 138 187 167 122 168 149 102 164 145 97 171 153 104 147 128 80 100 81 47 70 49 31 57 36 22 72 52 38 69 47 33 65 43 27 95 73 52 90 69 42 93 73 36 89 71 24 98 81 30 114 96 45 119 99 50 129 110 65 155 135 92 151 129 89 128 106 69 129 107 73 130 109 75 110 92 59 91 75 41 96 81 49 147 132 100 153 138 108 144 130 100 151 136 107 114 98 72 94 75 49 123 104 78 134 114 86 150 126 91 161 135 97 170 146 110 161 139 107 99 82 55 76 60 36 54 38 16 70 55 35 123 107 85 139 120 98 118 97 71 158 132 103 128 101 75 130 98 63 165 131 93 154 121 81 133 102 63 103 77 41 96 75 44 104 86 60 107 92 68 114 100 76 95 79 56 97 80 57 89 71 49 66 48 24 95 79 60 101 88 71 84 73 60 71 61 44 93 80 51 123 102 72 111 80 58 91 54 38 90 57 47 87 65 54 64 53 38 130 129 116 175 176 163 172 167 162 171 167 169 170 173 182 114 127 139 96 126 141 84 75 63 104 94 80 106 95 81 87 75 65 85 71 63 102 87 82 99 83 76 90 73 64 113 95 83 109 92 75 76 60 35 94 77 45 88 68 20 106 87 37 185 166 123 195 177 134 196 177 136 189 171 129 185 168 123 177 159 114 156 137 91 164 144 96 172 153 103 178 159 109 153 134 83 129 109 59 84 64 25 53 33 11 77 58 42 74 56 42 52 32 21 51 29 13 78 57 36 98 78 51 94 74 40 96 76 37 92 73 29 94 75 28 98 76 34 90 68 27 101 79 38 118 94 56 106 82 47 109 86 52 110 89 55 83 64 31 75 57 19 72 54 16 126 110 82 139 125 96 135 119 91 141 124 97 100 81 53 123 103 76 132 113 85 129 109 79 160 136 98 165 140 98 163 140 100 155 132 97 100 81 50 77 58 29 39 8 0 60 44 24 102 86 63 124 103 78 122 98 71 134 105 74 124 94 60 149 117 79 159 125 87 148 115 77 135 105 69 109 84 52 97 77 51 95 79 57 90 76 56 95 81 62 69 54 37 48 31 7 51 34 10 70 53 31 92 77 58 97 84 68 96 86 74 80 70 54 85 71 43 100 79 50 93 61 41 90 55 40 87 56 45 76 55 42 60 51 35 109 106 93 145 142 130 146 139 134 155 149 150 158 159 168 109 123 135 106 138 152 74 64 53 102 92 79 109 97 84 98 85 75 90 75 68 92 75 70 85 68 63 90 73 66 110 92 80 96 79 63 97 81 59 89 71 40 128 110 80 204 184 151 209 190 153 148 129 91 125 105 64 120 99 57 136 115 71 129 106 60 108 84 34 163 142 97 199 178 129 167 147 99 132 110 60 145 122 75 94 75 36 71 54 32 87 70 47 69 52 34 59 40 23 62 41 23 66 46 26 85 66 41 84 64 32 92 73 37 103 84 46 102 83 45 100 79 42 109 87 54 114 93 60 128 105 72 135 111 79 127 104 71 113 92 60 96 77 46 118 99 71 123 107 80 113 97 71 143 127 100 138 122 94 143 127 99 112 94 66 110 91 61 106 86 55 135 114 82 138 115 78 134 110 66 156 132 89 158 135 98 98 76 42 122 103 73 131 113 87 46 20 0 22 0 0 56 26 0 74 49 23 93 64 32 112 79 42 133 98 61 136 101 62 117 83 47 106 76 46 83 58 31 83 62 40 72 56 39 38 25 8 43 29 13 45 27 13 52 34 19 60 40 24 52 32 15 67 49 35 87 72 57 86 75 64 80 68 53 86 70 44 88 68 40 77 48 27 82 50 35 89 61 47 82 62 48 67 59 42 63 58 41 81 73 61 82 69 64 87 75 79 90 87 97 83 98 111 88 122 135 51 39 25 92 79 66 110 96 84 106 92 83 99 83 75 100 82 77 98 81 77 99 82 75 111 93 81 89 72 56 106 89 67 105 87 63 129 110 85 196 176 145 165 145 116 103 81 44 125 105 71 128 106 69 147 125 86 198 176 136 150 127 88 143 121 78 163 141 99 144 121 76 148 124 78 154 131 83 100 81 43 60 44 20 77 60 27 99 80 56 102 82 59 92 71 51 66 46 26 61 41 14 68 50 20 78 59 27 100 82 48 107 88 56 97 76 49 98 77 54 109 88 66 116 94 68 122 100 69 115 93 63 113 92 63 104 85 57 117 98 72 130 112 87 95 79 55 111 95 70 115 98 72 116 99 70 105 87 56 110 91 58 117 97 65 127 104 70 105 82 41 81 57 6 96 75 44 128 105 68 144 122 86 172 150 117 157 135 104 120 98 69 149 126 98 131 107 79 79 47 0 66 28 0 71 32 0 83 38 0 108 69 25 113 78 45 98 66 41 105 80 61 112 91 74 68 51 37 36 19 9 53 37 26 52 35 22 46 26 12 50 28 12 53 31 16 93 74 61 94 76 64 64 48 39 78 63 50 84 68 44 81 59 34 73 43 25 78 48 34 86 59 46 80 62 48 69 61 43 80 73 57 94 84 73 86 71 66 79 64 67 68 64 73 95 111 123 106 140 152 62 50 37 89 75 62 105 89 78 97 81 72 93 75 68 89 70 66 106 88 84 103 85 79 96 78 67 80 62 47 87 71 52 120 102 79 97 76 51 91 68 40 89 67 38 98 77 49 120 99 68 114 93 59 108 87 52 185 162 125 161 137 97 127 102 60 101 74 27 126 101 59 142 117 73 147 121 77 117 95 60 38 10 0 119 100 67 154 135 103 123 104 77 106 86 61 91 71 47 72 52 27 56 38 12 64 47 18 65 48 21 78 60 36 92 73 50 84 64 47 88 69 54 90 70 50 86 65 38 100 80 54 111 92 68 98 80 57 79 62 38 79 62 40 68 52 32 45 31 10 54 39 15 70 55 28 81 63 32 89 70 39 90 70 39 74 53 20 78 56 10 99 78 34 103 83 41 128 106 64 203 181 141 220 198 161 133 110 76 126 101 68 201 173 137 224 194 157 202 170 131 161 126 88 152 114 73 177 136 93 183 143 102 140 105 72 105 71 47 136 106 86 126 102 85 57 37 24 41 24 12 49 33 22 27 4 0 62 41 30 91 67 54 95 70 55 99 76 62 87 68 55 72 55 45 80 62 49 72 54 32 75 52 29 81 52 34 77 49 33 84 60 46 78 61 46 74 65 48 95 85 69 100 87 76 99 80 77 100 83 86 82 77 85 91 107 119 112 147 159 74 57 44 93 76 62 112 94 82 103 84 76 98 79 73 88 69 64 93 74 70 89 70 65 85 67 56 87 69 55 70 53 32 120 101 79 126 106 84 98 78 54 95 75 51 92 71 44 100 79 49 106 83 52 83 60 24 111 87 49 133 110 69 128 103 64 134 109 70 139 114 73 137 111 70 154 126 86 136 113 73 112 93 48 157 137 99 168 148 113 135 114 85 140 120 93 130 110 85 84 64 39 66 48 18 67 51 25 48 32 7 46 29 5 57 41 23 51 34 22 52 36 24 69 51 35 69 52 30 78 61 40 92 75 54 87 71 52 69 54 34 53 36 18 65 50 33 93 79 61 93 78 57 101 85 59 114 95 66 100 80 48 115 95 60 133 112 76 128 108 67 143 123 76 174 153 107 184 163 118 199 178 135 202 180 140 123 101 62 112 85 47 198 168 129 242 209 168 231 195 152 183 143 99 169 125 77 197 151 101 196 152 105 140 100 67 104 68 43 116 85 65 100 74 56 49 27 13 32 13 0 47 29 15 68 48 33 124 100 85 137 111 93 117 89 71 94 68 52 78 55 40 78 58 45 82 63 48 74 55 33 76 52 31 88 59 43 77 48 34 85 62 48 79 63 48 81 72 55 100 88 73 97 81 70 106 84 81 109 88 92 73 63 73 77 93 104 118 154 166 75 55 43 96 77 63 112 93 81 99 79 72 100 80 74 106 86 82 98 78 76 100 80 77 103 83 73 104 86 71 67 49 29 103 87 68 136 118 96 111 93 69 115 97 71 103 85 56 95 75 44 125 105 71 128 108 72 124 102 64 119 97 56 111 88 47 130 107 65 122 97 57 123 98 58 150 124 84 153 128 86 164 143 99 173 152 111 154 133 97 141 121 90 150 129 102 154 134 109 124 104 80 77 60 31 59 42 2 53 35 0 44 29 2 35 22 4 41 28 14 46 32 19 48 33 18 47 32 15 55 41 25 62 48 32 62 48 33 58 44 30 39 25 8 60 47 30 127 111 91 148 131 109 152 133 107 155 135 105 143 122 87 156 133 95 172 150 108 170 151 105 147 128 81 148 129 84 176 157 112 180 158 115 176 153 111 133 109 69 110 80 40 166 135 94 202 167 124 209 171 124 188 146 97 178 132 81 188 139 86 171 125 74 129 86 49 109 71 43 102 69 43 94 66 44 45 20 2 43 20 3 90 67 50 134 110 91 153 125 104 115 88 68 94 65 42 94 66 44 78 53 32 73 51 31 82 61 41 87 65 42 82 57 36 88 60 44 75 48 34 84 63 49 79 64 48 84 75 57 100 90 72 97 79 67 108 83 80 113 90 95 74 60 71 81 97 108 131 168 180 85 62 50 101 78 65 103 81 70 86 63 57 81 58 54 97 76 73 90 69 68 94 73 70 99 79 70 105 86 72 97 80 63 88 71 51 102 85 63 86 69 44 106 90 63 114 96 65 97 78 45 114 94 59 128 109 69 134 113 72 111 90 48 115 93 50 111 88 47 93 69 28 116 91 51 155 130 90 170 145 104 179 156 114 181 157 118 160 137 103 155 132 103 137 115 89 149 129 104 162 144 118 144 128 100 99 85 56 71 60 36 51 39 11 48 35 8 61 50 32 46 36 23 26 14 3 34 21 7 45 33 21 42 32 20 32 20 8 33 20 8 30 18 4 15 0 0 88 75 59 138 123 101 139 122 96 137 117 88 148 127 92 151 128 89 145 123 80 146 128 83 151 135 87 141 124 77 149 132 86 180 159 116 193 169 127 136 112 73 104 73 30 160 128 83 189 151 105 202 161 111 193 149 97 181 132 78 189 138 81 193 143 91 161 117 75 115 76 43 104 70 41 113 85 57 69 43 13 102 80 60 135 110 88 144 119 94 147 118 91 97 66 37 76 43 9 87 57 30 85 58 31 79 55 29 84 61 37 94 71 48 86 61 41 84 57 40 76 50 36 81 61 47 76 63 46 84 76 57 96 84 67 96 75 63 103 76 73 112 89 93 82 69 79 90 105 117 126 162 174 92 67 56 111 86 74 108 84 74 98 74 68 98 74 71 104 80 80 91 70 69 87 66 63 88 68 61 88 69 57 93 77 59 74 58 35 87 71 45 81 66 38 93 78 49 112 96 63 106 90 55 100 82 44 96 77 36 116 96 53 110 89 45 106 83 40 100 77 31 125 101 60 171 146 106 181 156 115 180 155 114 182 157 118 179 153 119 169 143 113 171 146 119 174 152 128 163 143 118 157 139 112 175 159 128 183 169 136 168 156 124 123 113 84 77 69 46 56 49 29 57 48 30 50 41 28 40 31 20 38 28 18 38 30 21 35 26 16 47 37 28 62 52 42 26 12 0 75 62 46 129 114 93 125 108 83 122 102 72 148 127 91 143 120 80 160 137 94 154 135 90 152 138 91 161 144 98 151 132 86 168 147 103 177 154 111 113 89 47 104 73 29 160 126 80 192 153 106 208 166 115 212 165 112 197 146 91 187 133 73 192 140 84 182 136 90 134 95 57 105 70 34 116 86 54 131 104 73 166 141 112 169 144 116 138 111 80 127 98 64 118 86 51 93 60 26 81 50 13 92 63 29 91 64 33 88 62 36 95 70 47 91 65 46 84 57 41 83 58 43 82 62 48 78 64 48 91 82 64 90 78 61 99 78 66 99 71 68 101 76 80 69 53 63 90 106 117 134 171 183 86 62 54 102 77 70 100 77 71 103 80 76 98 74 73 91 69 69 91 70 69 94 73 70 103 83 77 103 84 73 116 99 82 96 79 58 97 81 56 97 81 56 75 59 28 95 79 47 116 98 62 114 96 57 90 71 28 92 72 27 119 97 53 99 76 34 82 58 5 121 97 56 178 153 112 188 163 122 175 150 109 182 157 115 193 167 129 185 159 124 172 147 115 199 176 144 188 167 137 162 143 113 172 156 123 179 164 131 161 148 115 153 142 111 151 141 114 117 106 84 80 69 50 59 48 26 39 26 2 22 8 0 24 8 0 31 18 5 64 55 45 87 77 66 48 36 21 72 60 45 135 119 98 139 120 96 149 127 98 162 139 105 130 104 65 171 147 106 176 156 111 151 135 86 168 150 104 166 145 100 175 152 108 187 162 119 105 78 39 101 71 34 168 135 91 176 141 95 178 139 89 199 156 105 208 160 106 193 143 85 184 133 78 187 140 93 157 115 73 115 77 37 104 70 32 147 117 85 175 146 114 157 129 97 136 106 74 117 86 51 110 76 42 96 64 30 91 60 24 96 66 32 91 62 30 91 64 35 91 63 39 90 62 42 85 59 43 88 67 53 81 63 50 77 63 50 97 85 70 100 81 67 117 91 81 122 92 87 116 91 92 70 57 64 84 103 113 125 164 177 73 53 47 90 70 66 99 78 79 104 82 85 93 71 74 93 71 73 100 79 79 86 65 62 89 69 62 94 74 63 115 95 80 117 98 81 105 86 66 101 83 62 65 45 15 106 87 57 123 103 68 130 110 70 113 93 51 88 67 20 125 103 56 133 110 64 92 67 24 100 72 31 127 99 59 161 134 95 188 160 118 191 164 117 187 162 115 176 152 107 179 156 112 197 175 133 201 179 141 186 166 130 167 148 115 158 141 109 144 127 97 140 125 97 147 132 107 136 122 99 142 130 108 141 127 105 109 95 75 110 97 77 105 93 76 66 54 39 42 30 13 27 16 4 0 0 0 70 55 40 138 120 99 128 108 84 151 128 101 171 146 115 137 109 74 176 150 111 183 161 116 163 144 94 166 146 98 180 156 112 179 152 110 174 145 105 112 83 48 94 66 32 158 130 90 175 147 103 176 147 99 183 149 100 198 159 108 191 147 94 183 137 85 193 149 102 159 116 73 127 85 42 114 74 32 126 91 54 161 127 89 142 109 75 114 80 47 117 84 52 104 71 40 93 61 30 93 62 32 102 71 40 100 69 40 94 63 34 96 62 36 80 47 25 75 50 35 86 69 57 79 67 61 86 72 67 100 79 73 113 85 76 117 84 73 118 87 78 103 82 77 63 58 61 92 115 125 122 165 181 79 59 54 100 78 76 107 85 85 95 73 74 100 77 78 102 79 80 106 84 82 100 79 74 96 73 66 98 75 65 96 75 62 117 98 83 108 90 72 97 78 59 66 46 22 100 81 54 123 102 70 138 117 80 132 111 70 93 72 27 116 94 49 135 112 68 102 77 36 88 61 20 93 64 22 154 127 90 193 165 122 182 156 106 170 146 95 171 147 98 190 167 120 205 183 138 198 176 135 186 164 126 190 170 135 159 140 107 144 126 96 148 131 103 138 122 96 126 110 85 162 146 123 193 177 152 171 154 129 158 142 118 173 157 134 146 131 111 91 77 60 49 32 14 72 58 44 93 76 60 101 83 61 117 95 70 157 133 105 172 146 115 146 118 85 168 142 104 158 136 92 153 133 83 168 146 99 170 143 100 158 129 89 158 128 91 115 86 51 96 70 35 148 123 84 168 144 102 173 148 103 179 149 101 183 147 99 178 138 87 183 140 91 189 146 101 173 131 88 148 107 64 126 85 43 132 93 53 142 105 67 130 94 58 114 79 45 107 73 40 104 71 39 96 64 34 96 65 37 104 73 44 101 70 41 93 62 33 105 70 43 95 63 41 74 52 36 73 59 49 82 72 68 102 88 87 108 87 84 105 75 68 116 82 73 115 83 76 105 86 83 70 69 71 95 120 132 129 171 189 79 58 50 89 66 60 97 73 69 82 57 55 89 66 64 101 77 74 92 69 65 105 81 75 102 77 69 95 70 61 95 70 59 114 93 81 124 105 91 94 77 61 58 40 18 66 47 22 120 101 71 130 111 75 113 94 55 110 90 49 118 96 53 110 87 46 82 59 17 73 49 8 76 52 12 100 74 37 154 128 87 171 145 99 155 130 83 164 140 93 178 155 109 177 154 110 166 144 102 166 144 104 176 156 118 155 136 100 160 142 109 165 147 117 147 130 101 137 121 92 158 142 114 162 145 119 152 135 109 144 127 100 147 131 107 144 127 107 127 111 91 106 90 71 115 98 80 136 119 99 99 81 57 156 135 111 180 156 128 157 133 100 142 117 82 152 127 90 162 140 98 172 152 106 177 155 109 170 144 101 157 127 90 158 128 92 121 92 58 91 66 31 132 108 70 151 129 88 157 133 89 164 136 90 160 127 79 157 119 68 174 133 85 172 132 88 175 137 95 159 121 79 127 88 46 121 81 41 121 82 42 121 84 44 126 89 51 102 67 30 91 57 21 104 71 39 110 80 49 95 67 37 88 60 31 95 66 38 88 56 30 91 62 42 75 57 41 70 59 50 82 74 71 103 91 90 112 94 91 110 83 78 115 82 77 104 74 69 102 86 85 69 67 71 87 111 125 130 170 190 78 53 46 99 76 68 114 91 83 102 79 71 81 56 49 100 74 67 80 54 48 93 67 60 99 73 66 86 59 51 98 71 63 103 81 72 123 104 93 97 81 66 57 41 25 27 0 0 135 118 93 158 141 111 122 104 72 130 112 74 139 118 78 106 85 45 86 66 25 76 53 17 87 63 28 77 53 15 109 85 44 127 102 55 123 98 50 137 113 67 143 119 76 135 112 71 139 117 76 151 129 89 137 115 74 152 132 95 176 157 121 177 158 124 179 161 127 185 168 134 164 147 115 129 112 79 137 118 86 133 113 83 123 104 76 130 111 86 128 111 87 123 106 85 119 101 79 117 101 80 82 63 38 177 157 131 190 169 141 140 117 83 158 134 101 178 155 118 186 165 123 184 163 119 176 153 110 172 147 107 170 140 104 165 134 99 127 100 68 92 69 34 129 107 69 147 128 87 154 133 89 164 138 92 155 125 78 145 109 60 156 120 73 152 118 76 157 125 86 152 118 79 139 102 62 140 103 62 160 122 80 127 87 45 128 88 47 120 82 43 109 74 37 106 73 38 102 72 40 90 63 33 83 57 29 84 58 32 86 58 33 79 55 35 66 51 36 60 48 36 34 13 0 45 26 23 68 49 47 88 64 60 103 74 72 111 86 85 103 88 90 61 61 68 97 120 135 128 165 187 87 63 57 103 79 70 117 94 84 121 97 86 106 81 70 110 83 74 105 80 70 96 70 62 106 79 73 100 72 69 104 75 74 93 69 66 107 89 80 104 88 76 68 51 36 0 0 0 137 122 101 172 155 128 146 128 97 145 127 93 140 123 88 103 84 47 101 82 45 78 58 25 87 65 32 82 61 27 109 87 49 117 93 51 107 83 39 109 84 42 107 82 39 98 73 30 102 78 35 111 89 47 103 81 41 116 96 56 128 109 69 135 117 79 162 145 109 179 161 124 144 126 88 119 99 62 126 106 72 118 97 63 139 119 88 146 126 97 119 100 73 117 99 73 115 97 71 84 65 40 61 38 0 166 147 118 182 163 132 138 117 83 174 152 118 191 169 133 186 166 125 177 156 114 169 146 106 174 147 111 173 144 109 159 130 97 130 103 72 100 77 43 143 121 85 168 149 110 177 156 114 185 161 117 174 146 101 150 117 69 141 107 62 140 110 71 142 114 78 144 114 75 140 106 67 141 105 65 175 136 91 130 88 41 129 86 41 134 93 50 124 87 45 100 66 29 85 54 21 91 64 35 89 67 39 77 55 30 78 54 32 65 44 22 87 75 61 170 165 157 205 202 199 173 168 167 143 132 131 102 82 81 71 39 35 108 86 86 102 88 92 61 63 73 103 125 140 116 152 173 77 57 50 98 78 69 98 78 67 104 83 72 105 83 71 95 73 63 107 84 76 93 69 63 102 75 73 106 79 78 97 70 71 100 76 76 99 82 77 114 98 91 97 82 73 40 25 7 90 76 58 141 125 102 138 122 95 150 134 104 130 115 83 81 64 30 91 74 40 80 63 31 88 70 37 89 70 37 99 79 42 100 77 37 91 67 27 87 63 21 93 69 28 101 77 36 104 80 39 102 79 37 100 79 38 100 79 36 95 75 32 103 82 38 121 102 59 136 116 73 129 109 67 115 94 52 106 83 42 108 84 47 121 99 63 122 100 66 114 94 63 120 100 70 112 93 64 100 80 53 73 51 10 142 124 95 173 154 121 160 141 108 187 168 133 192 172 136 182 162 124 181 159 120 178 154 117 179 153 119 175 146 114 157 128 97 133 108 78 99 76 43 151 131 96 184 166 127 189 170 128 189 167 124 187 161 117 163 133 87 138 105 62 131 104 67 136 112 78 140 113 74 121 91 52 111 74 32 141 100 54 129 86 38 149 105 56 135 91 45 108 68 25 96 60 21 92 62 28 85 60 29 85 64 37 92 73 49 88 70 50 62 45 28 70 60 47 165 161 154 216 214 211 215 211 210 233 223 223 235 219 220 172 153 154 93 72 76 72 58 66 59 61 72 109 128 143 119 152 172 63 40 31 77 57 45 62 41 24 81 64 53 95 78 68 93 76 67 93 73 68 95 74 72 90 68 68 82 57 60 59 24 33 62 30 36 43 13 9 87 73 68 100 86 79 63 49 36 52 37 19 107 93 75 114 99 76 130 114 89 112 96 70 61 45 16 55 40 10 65 50 19 90 73 43 96 79 49 88 68 35 97 73 39 99 75 39 91 68 31 91 68 29 105 82 43 108 85 45 98 75 34 99 78 36 101 81 38 93 72 30 107 85 42 126 105 61 131 110 67 129 107 63 138 114 72 118 93 53 105 80 40 115 92 54 105 82 47 98 76 42 105 83 51 108 89 58 127 106 75 98 77 47 119 101 73 164 145 112 172 153 121 188 170 135 187 169 132 183 163 127 187 166 131 183 160 125 181 156 123 185 157 126 173 145 115 149 123 94 94 72 36 152 134 99 187 169 131 181 163 123 171 151 109 186 160 119 176 146 104 151 121 80 127 103 68 128 107 74 135 110 73 128 99 59 148 112 70 147 106 61 145 101 53 172 126 76 143 98 50 108 68 22 93 57 17 88 59 25 77 54 23 75 57 31 84 67 45 83 67 50 82 69 55 49 44 32 25 23 10 51 52 48 104 102 101 163 156 157 192 179 180 199 180 182 203 186 192 167 156 165 69 69 80 95 112 129 129 156 176 226 220 219 209 202 199 155 146 141 91 80 73 65 53 44 76 62 56 67 50 47 79 61 61 82 63 66 78 54 62 156 138 144 203 188 190 179 165 164 125 111 107 82 67 61 59 45 35 64 51 39 85 72 56 66 52 33 84 68 49 85 69 48 52 37 11 42 25 0 45 30 0 61 46 22 80 64 38 72 53 26 88 66 36 96 73 41 94 72 39 96 74 41 98 77 42 105 82 46 92 70 32 89 67 27 93 71 29 101 80 38 118 97 54 121 100 54 123 102 55 130 108 62 126 103 59 111 84 44 103 75 35 114 89 49 121 96 59 118 94 59 104 81 46 91 69 36 131 109 75 115 95 64 108 89 59 168 148 115 167 148 115 172 155 120 186 170 134 179 161 125 186 166 132 188 166 133 180 155 123 192 163 133 192 165 135 142 117 89 93 71 37 171 152 117 203 185 148 193 175 136 188 166 126 198 170 130 201 168 129 182 149 111 143 119 85 130 110 77 148 124 88 120 90 50 162 126 82 182 143 96 166 123 74 181 136 87 156 112 65 119 79 36 102 68 30 82 55 22 77 57 31 80 64 38 71 58 38 77 64 50 72 63 52 66 62 53 57 55 49 38 37 33 32 28 24 0 0 0 0 0 0 97 83 86 141 130 134 121 112 119 111 110 122 141 152 165 131 152 169 254 254 254 254 254 254 249 246 246 223 220 217 195 190 187 176 169 167 135 125 124 125 114 114 188 177 178 224 215 217 245 240 244 254 247 249 220 203 202 128 113 108 70 55 48 69 55 47 53 40 30 65 52 39 103 91 76 76 62 47 63 47 26 60 45 25 77 62 44 99 84 64 67 52 33 52 36 12 67 50 26 86 66 41 90 69 43 88 68 40 88 68 38 88 68 36 103 84 51 107 87 52 103 82 45 109 87 47 114 93 51 123 102 58 117 96 51 120 99 53 126 104 59 130 106 62 133 107 65 130 102 62 143 116 77 149 123 83 136 111 74 121 96 60 109 86 51 130 107 73 111 89 55 99 77 41 169 149 116 184 165 129 172 155 118 177 161 125 183 165 130 195 176 143 194 172 140 178 153 122 182 155 125 182 155 125 114 90 62 60 37 0 129 110 76 158 141 105 167 148 110 167 144 105 175 146 107 182 148 111 175 141 104 149 125 90 117 96 63 119 94 59 148 119 80 190 156 113 184 145 99 146 104 58 143 101 56 148 107 61 118 82 40 95 63 25 77 52 20 86 66 41 82 66 42 80 68 51 92 81 69 59 51 42 53 49 41 55 52 46 48 48 43 62 59 56 62 56 56 69 59 61 34 15 19 0 0 0 0 0 0 68 67 76 132 140 149 149 165 174 217 219 223 206 207 210 245 246 247 253 251 253 247 243 244 250 247 248 242 239 239 238 233 231 252 248 246 254 253 251 245 237 236 202 192 191 128 114 109 73 59 52 52 37 30 74 60 51 50 37 29 27 9 0 92 78 65 88 74 61 71 57 42 112 97 82 119 103 87 108 92 75 90 74 57 56 41 25 58 43 24 77 60 38 80 63 40 79 60 37 69 52 26 73 56 27 92 75 45 113 95 62 104 85 51 112 91 55 107 87 48 108 88 47 112 92 49 122 102 59 133 111 68 133 109 67 129 104 63 126 99 58 140 111 72 146 118 79 134 107 68 129 102 65 119 93 57 120 95 61 138 114 78 115 92 58 118 98 66 164 146 110 172 155 119 166 148 112 155 139 105 146 128 96 143 121 90 139 114 84 123 97 68 115 89 58 138 115 82 140 119 88 82 61 21 77 57 12 92 71 36 86 62 27 98 67 34 104 69 35 110 75 41 100 73 43 125 100 66 153 125 89 175 145 104 176 142 99 158 120 76 150 112 67 123 83 38 121 84 42 119 85 47 95 66 33 90 66 37 96 76 52 79 64 42 92 80 64 93 81 71 51 42 35 37 32 25 46 42 35 45 41 36 50 44 40 51 42 40 54 43 43 67 53 55 73 59 64 56 46 51 20 10 15 33 36 40 96 105 109 90 94 99 99 100 106 92 92 96 160 159 165 234 233 236 254 254 254 254 252 251 254 250 246 245 240 234 187 181 174 146 137 127 124 114 104 54 36 19 69 54 46 57 42 34 63 49 40 57 43 33 41 27 16 38 23 13 46 33 23 61 47 35 91 75 62 77 62 50 66 50 38 69 53 40 54 38 24 56 41 25 55 42 25 65 51 33 72 57 36 62 48 26 62 47 23 67 50 25 95 78 51 115 97 67 115 97 64 98 79 43 104 85 47 117 98 58 124 104 64 131 109 68 129 106 66 121 97 56 105 78 39 116 88 49 136 108 69 136 108 69 140 112 75 127 99 62 118 91 58 174 148 112 153 128 95 91 67 30 113 92 58 116 97 63 109 92 58 87 71 36 87 71 34 105 85 52 103 81 50 100 75 45 139 114 83 199 175 141 214 191 155 173 152 116 147 125 88 137 114 78 150 120 85 154 120 85 137 96 63 136 95 62 137 104 70 171 141 106 195 164 126 163 131 92 158 124 83 177 142 100 158 122 80 128 94 55 104 70 33 119 89 56 107 81 51 93 71 46 90 71 48 83 68 48 106 93 77 77 65 57 42 31 28 42 33 28 50 43 37 51 44 38 53 45 40 51 41 38 51 38 36 52 38 38 55 39 42 52 39 41 49 42 43 30 22 18 17 10 0 200 202 205 227 227 233 177 176 184 92 91 98 72 72 75 158 155 156 214 209 207 199 195 186 176 169 157 147 139 123 115 109 87 108 98 81 91 75 66 74 57 48 78 61 52 81 64 54 66 50 40 57 40 31 38 22 14 27 8 0 34 18 7 38 20 9 32 13 2 32 13 1 51 33 24 56 39 29 53 40 28 46 35 21 54 42 27 66 53 36 64 51 34 63 49 29 55 39 18 74 58 35 102 86 60 105 88 58 103 86 53 121 102 68 130 112 76 134 114 78 137 116 79 136 113 76 134 111 71 114 89 51 107 81 44 124 97 59 126 98 61 135 105 69 132 103 67 127 98 63 160 133 97 176 150 116 187 163 128 157 134 99 118 97 58 142 123 88 143 127 93 140 125 92 148 128 96 150 128 96 173 149 116 201 175 142 188 163 130 166 142 106 182 158 120 166 142 104 137 109 70 165 132 95 172 134 98 160 115 82 169 123 90 161 122 85 153 119 81 172 138 100 160 127 87 158 124 87 173 139 101 146 113 75 133 102 67 96 67 33 120 95 67 106 83 58 67 47 22 77 59 38 97 81 63 104 90 77 57 44 39 44 33 31 46 36 31 42 33 27 44 35 28 50 39 33 48 36 30 55 41 37 50 35 33 57 40 40 55 39 39 41 29 26 60 52 46 56 50 43 249 250 250 250 250 252 238 237 244 212 209 217 154 149 155 66 58 63 88 81 77 146 140 128 135 128 109 155 148 122 161 154 125 136 124 100 112 96 81 58 39 27 64 48 38 86 69 59 84 67 57 75 58 50 49 31 24 45 28 21 37 20 12 47 31 23 65 49 41 49 32 24 53 35 27 58 43 35 54 42 33 50 41 30 46 36 24 53 42 30 59 48 33 60 48 31 57 44 25 62 47 26 61 46 22 74 58 32 97 81 52 115 98 66 119 100 68 130 110 78 129 109 76 112 91 56 125 102 64 124 99 62 108 82 46 108 80 44 105 76 40 111 81 45 129 99 63 158 128 92 159 129 93 173 146 112 196 169 134 143 119 86 114 91 53 161 140 103 172 155 121 155 139 106 134 115 81 119 96 62 135 111 77 169 143 108 168 141 106 142 115 77 162 137 100 165 139 101 132 101 62 142 106 70 142 99 65 142 92 60 159 109 77 168 125 88 145 107 66 146 109 69 177 142 103 172 137 100 158 124 89 115 84 50 91 64 33 93 66 38 121 98 74 102 82 60 55 36 9 79 62 44 98 81 64 77 63 50 45 31 29 48 36 36 43 32 27 34 24 16 43 31 22 55 42 34 63 49 41 51 35 29 48 30 26 58 40 37 51 33 29 48 33 26 43 30 17 45 35 23 213 212 211 199 197 201 197 191 199 212 205 213 208 199 207 160 150 153 94 85 78 89 80 65 147 139 115 176 167 135 141 133 96 137 125 96 133 116 98 93 75 62 50 31 15 61 43 31 76 58 47 82 64 55 72 53 47 36 17 8 38 18 11 43 26 20 41 23 16 80 63 57 82 67 60 31 3 0 63 51 43 61 52 44 44 34 26 44 34 25 55 45 34 55 44 31 59 48 31 55 43 24 55 41 20 61 47 21 76 61 35 80 64 36 87 70 40 114 96 64 96 77 49 59 35 0 105 83 49 119 96 59 114 89 54 118 90 56 110 81 45 110 80 43 124 92 57 159 127 92 174 144 108 175 145 109 159 132 96 110 85 51 117 94 59 145 123 86 114 97 63 113 99 64 129 111 76 124 102 68 138 113 79 170 144 109 170 142 107 132 106 70 117 92 55 145 118 80 160 128 91 159 122 85 155 112 77 149 99 67 140 87 54 141 95 57 135 94 51 149 111 71 166 129 90 145 110 75 120 88 55 112 83 53 88 62 36 101 78 54 107 86 64 82 63 44 62 45 25 73 56 38 72 55 39 53 37 25 56 42 40 49 35 35 37 24 20 41 27 20 52 39 30 60 46 37 69 53 45 57 40 33 45 26 19 59 40 35 54 35 30 47 29 19 52 35 20 47 31 10 215 206 195 177 166 161 163 151 150 161 149 153 147 135 141 161 151 154 139 131 129 94 88 80 106 97 80 161 148 124 148 133 103 125 108 81 126 109 88 115 99 79 80 63 44 56 39 21 57 39 23 67 49 38 85 66 59 80 60 57 52 33 31 42 23 20 23 0 0 76 60 55 118 101 94 75 63 57 36 26 19 78 71 63 67 61 53 52 44 35 52 43 34 49 39 28 58 47 33 57 45 29 58 45 27 63 48 29 66 51 30 58 42 17 82 67 42 116 99 71 86 71 47 30 0 0 88 69 42 121 99 70 117 95 65 132 107 75 141 115 81 117 88 53 109 80 42 132 103 64 168 139 100 182 153 115 162 136 98 138 112 76 137 111 76 129 105 69 118 98 61 107 89 52 117 97 62 154 130 95 171 145 110 151 125 91 119 90 56 101 73 35 101 73 39 110 82 47 131 100 65 136 103 69 160 123 88 169 129 95 147 106 71 142 102 62 129 91 49 150 114 74 153 119 81 125 93 61 90 63 34 107 83 56 108 86 62 104 85 65 79 63 46 52 36 21 58 42 30 49 34 20 39 24 10 48 34 28 65 52 50 53 42 41 36 26 22 46 33 27 58 45 36 58 42 34 59 42 34 58 40 33 53 34 28 65 47 40 65 46 39 54 36 27 49 33 22 48 32 19 215 197 175 199 179 159 137 116 102 98 79 70 122 110 109 137 130 134 127 122 126 117 111 112 87 76 74 114 98 87 148 128 110 147 128 105 135 121 95 126 111 85 116 100 75 76 60 38 55 38 17 60 41 26 70 50 42 85 65 63 63 43 44 53 33 36 53 35 36 20 0 0 93 79 72 107 95 86 35 23 11 69 64 57 76 71 63 43 36 27 33 25 17 53 44 35 50 40 30 53 42 29 48 36 21 58 46 30 69 56 38 66 52 31 78 63 42 91 75 53 71 56 36 45 28 8 59 42 23 122 104 82 131 111 87 119 98 70 143 121 88 127 103 68 98 72 31 111 84 44 146 119 79 161 134 93 147 123 82 136 111 73 129 103 67 113 88 52 119 96 60 130 107 71 124 99 63 130 105 72 154 127 95 125 95 64 104 72 40 138 108 77 156 127 93 139 110 77 132 105 75 109 83 51 110 84 51 138 113 78 120 94 57 128 97 57 118 84 44 121 89 51 141 111 76 129 102 71 106 83 55 113 94 72 107 91 72 79 64 49 52 39 27 45 33 25 53 41 34 36 26 20 32 22 18 41 32 28 53 45 43 56 49 47 42 33 30 42 32 27 57 44 38 59 44 36 59 42 34 58 40 32 52 33 24 57 39 31 59 42 34 55 39 32 50 35 29 46 32 27 198 178 153 206 184 160 174 154 135 120 101 90 120 109 105 110 104 105 106 101 106 102 96 100 97 85 85 82 63 57 116 93 81 134 113 94 125 110 84 127 112 86 128 111 85 99 83 59 66 48 27 73 55 39 75 55 47 68 47 45 54 32 36 59 38 43 55 36 38 39 23 22 29 8 0 77 65 54 81 71 61 36 29 23 82 76 70 68 62 56 27 17 9 47 39 31 38 28 19 50 40 28 58 46 33 41 28 13 45 32 16 58 45 28 60 46 28 65 50 33 68 54 36 52 38 22 10 0 0 78 63 47 124 107 84 90 71 47 73 52 18 119 96 63 120 97 60 103 79 38 132 108 67 146 121 80 124 99 60 100 76 37 103 78 41 100 76 40 93 69 33 143 120 85 158 133 99 111 86 54 128 100 68 124 95 63 111 81 51 130 101 73 131 104 74 136 107 75 178 150 116 159 135 101 86 64 25 85 63 24 109 86 49 135 107 68 139 109 71 142 113 77 141 113 80 130 107 79 128 108 83 131 113 91 102 88 71 51 39 24 48 38 27 36 27 17 48 39 34 45 36 32 40 31 27 39 31 29 46 42 39 54 49 46 44 36 33 39 29 25 52 41 35 59 44 36 57 40 33 54 37 28 47 29 20 51 34 25 52 35 27 51 35 30 51 36 31 45 32 27 185 166 143 160 139 114 189 170 149 169 152 137 100 89 81 72 66 62 84 80 79 92 85 86 90 78 78 78 61 57 89 66 59 119 99 84 123 108 85 114 100 73 120 104 79 121 104 80 96 78 57 68 49 33 72 52 44 92 71 68 78 57 59 56 35 39 36 15 18 56 39 37 45 30 25 41 31 22 90 81 73 82 74 67 75 69 63 79 72 66 43 35 28 34 25 18 43 33 24 39 29 20 51 40 29 52 40 27 55 42 30 51 38 24 49 36 21 58 46 29 67 54 38 54 42 27 38 23 9 29 13 0 76 62 41 92 74 50 39 12 0 78 58 31 135 113 78 126 102 66 134 112 72 137 115 76 108 85 49 80 57 19 95 74 39 104 83 49 92 71 37 119 97 64 168 144 110 156 132 98 154 129 96 124 98 66 95 65 31 84 53 8 115 86 52 135 106 72 167 139 105 179 153 117 130 107 73 86 63 20 115 92 54 131 103 66 137 108 74 139 111 79 131 107 76 128 106 81 128 109 86 107 92 73 69 56 41 37 23 11 48 38 28 42 33 24 50 41 35 51 43 38 38 31 25 41 33 29 59 53 50 58 51 49 47 38 35 44 33 28 51 39 33 53 39 32 51 34 26 52 35 27 47 30 23 49 32 24 49 33 25 51 35 30 54 39 34 47 35 29 171 155 133 147 127 103 170 151 129 194 177 158 133 120 106 50 41 29 79 71 67 87 78 77 72 60 60 84 68 66 73 52 50 102 85 73 141 126 106 137 122 97 129 113 88 142 125 101 136 118 96 72 54 36 54 32 21 81 61 56 90 69 69 90 70 72 57 39 41 54 37 36 68 54 49 38 25 13 58 49 43 112 102 98 103 93 90 66 55 51 47 37 32 54 44 38 54 44 37 35 26 18 37 25 16 43 32 21 49 39 28 50 38 28 42 30 19 41 28 16 62 50 38 59 47 36 46 32 20 34 22 9 41 25 5 80 64 42 68 51 28 52 35 8 97 78 49 116 94 61 116 95 61 115 94 60 93 73 40 80 60 27 96 77 47 103 84 53 97 78 45 93 72 38 116 94 62 137 114 82 180 156 122 156 129 97 137 108 76 169 141 108 178 148 114 160 130 95 155 127 91 159 131 95 141 115 79 122 97 60 101 76 40 108 80 48 117 90 61 113 87 60 91 68 44 75 56 36 71 56 38 51 38 21 38 26 12 40 30 21 46 37 28 50 42 34 49 41 34 50 42 35 35 28 21 57 50 45 76 68 65 58 49 47 45 35 33 50 38 33 51 38 32 46 32 26 44 29 22 52 36 28 51 35 27 51 35 28 50 34 27 51 36 29 56 42 35 50 37 31 146 129 111 168 149 126 153 134 109 170 153 130 158 143 122 81 70 55 69 58 50 79 68 64 66 53 52 74 57 58 80 60 61 73 56 49 126 111 93 157 142 119 147 132 107 144 127 102 162 144 121 110 93 75 51 21 0 71 50 43 82 61 59 94 74 75 73 54 56 47 31 31 80 67 63 72 62 56 0 0 0 79 69 68 130 119 116 101 91 87 51 39 35 56 45 41 42 31 26 51 40 33 56 46 40 40 30 24 25 14 7 40 29 22 49 38 31 44 33 26 44 33 25 61 51 42 49 39 30 32 20 3 41 27 12 51 37 19 65 50 28 51 34 6 56 38 10 94 76 48 95 77 48 83 65 36 68 50 22 73 56 29 94 76 50 103 86 59 107 89 61 103 84 53 92 72 38 104 84 52 184 160 127 192 167 133 169 142 108 185 155 121 166 137 103 145 116 81 139 111 73 131 103 65 127 99 62 130 104 67 101 76 42 96 69 43 97 72 48 85 62 40 60 39 18 32 9 0 34 17 0 42 30 16 48 38 28 50 42 33 44 36 28 49 42 34 43 38 29 42 37 28 46 39 31 78 71 64 78 69 65 48 38 36 41 30 27 52 40 35 50 37 31 45 31 24 44 29 22 51 36 29 50 36 27 52 37 30 50 34 28 49 35 28 54 41 33 47 34 28 129 114 99 167 149 128 155 136 110 142 124 96 157 142 116 114 100 79 57 41 25 70 57 49 71 57 54 62 46 49 82 64 68 66 45 46 104 89 74 155 139 119 157 141 118 139 123 98 152 133 110 136 115 94 68 46 28 63 41 31 78 57 52 84 64 63 72 54 55 43 27 28 69 56 54 79 69 64 48 38 35 0 0 0 93 82 82 115 103 102 84 73 71 60 48 47 67 56 54 84 74 70 57 47 43 56 47 41 44 35 30 25 16 10 31 21 16 33 24 19 27 17 10 60 51 44 61 51 43 30 20 9 32 21 6 41 28 12 38 23 5 46 30 8 65 49 25 89 73 49 100 84 60 73 57 34 46 28 2 61 46 24 83 68 46 103 88 65 116 100 74 104 87 58 102 84 54 98 78 47 136 114 85 158 136 104 135 110 78 127 100 67 109 80 45 119 90 55 124 95 60 132 105 70 129 103 67 121 95 59 106 81 48 81 56 33 61 38 22 52 32 15 51 32 17 52 37 24 55 42 31 47 37 27 47 39 30 57 50 43 46 40 34 41 35 29 41 36 28 39 36 26 56 52 43 80 73 65 64 55 50 44 33 29 46 36 32 52 40 36 50 37 31 51 38 32 48 34 27 46 32 24 48 33 25 53 39 31 49 36 28 47 34 26 51 38 30 45 32 24 92 77 65 148 132 111 171 153 125 147 128 97 154 136 105 140 122 94 72 55 35 67 50 38 74 57 51 65 49 51 67 51 58 73 56 58 88 72 61 132 116 98 154 136 115 153 135 111 141 121 95 172 151 128 117 98 80 34 0 0 74 53 47 72 52 49 68 51 51 74 59 60 66 55 54 67 57 55 72 61 60 52 39 39 36 23 24 74 63 63 68 57 57 44 31 31 72 60 59 98 86 84 75 66 64 52 43 40 33 24 21 45 35 33 57 48 46 41 33 30 32 24 22 44 35 31 67 58 52 53 44 37 33 22 10 37 26 12 36 23 7 56 40 24 43 27 8 58 45 28 92 76 56 75 60 41 45 30 10 53 40 22 64 51 33 86 72 53 91 78 55 83 69 43 87 71 45 98 80 52 114 95 64 104 83 51 100 78 46 140 116 83 117 91 58 114 87 54 125 98 65 117 91 58 109 84 51 115 90 56 83 60 33 55 33 15 48 28 17 45 27 17 48 31 21 52 37 28 58 46 37 50 42 35 43 37 31 56 51 45 52 48 42 37 32 27 46 42 34 44 40 31 61 57 48 64 57 49 49 38 34 50 38 34 59 46 43 54 41 37 50 37 31 58 45 39 50 37 31 41 27 20 45 32 24 55 42 34 51 38 30 47 34 26 51 38 30 46 33 25 71 54 44 115 99 79 168 148 120 149 128 96 135 112 78 162 139 107 119 97 71 56 32 13 71 52 44 70 53 53 62 46 54 83 66 69 69 50 44 108 92 77 153 135 115 148 129 105 153 132 107 173 150 126 140 117 96 64 41 26 67 44 37 84 63 60 83 65 65 74 60 61 63 53 53 66 58 56 75 65 65 69 56 58 50 38 40 37 24 26 51 38 40 84 73 75 96 85 86 92 82 81 75 65 65 64 54 54 35 27 26 70 62 61 77 68 68 59 51 50 49 41 41 24 16 11 52 45 38 48 39 32 39 29 19 40 28 19 38 25 12 46 32 18 42 28 16 27 12 0 59 47 32 90 76 60 71 59 44 32 20 3 52 40 26 62 50 34 74 63 43 69 57 34 94 82 59 141 127 101 122 105 78 90 70 42 125 103 74 138 115 84 125 101 70 128 103 72 111 86 55 110 84 56 99 74 46 86 61 32 57 33 8 52 33 19 51 33 24 55 38 31 59 44 37 45 33 27 51 41 36 52 43 39 38 32 28 52 47 43 56 51 46 42 37 31 41 37 29 58 54 45 64 58 48 51 42 34 50 36 33 54 40 37 60 45 43 60 46 43 55 41 37 51 38 33 50 37 31 47 34 27 46 34 27 56 43 36 53 40 32 41 29 21 51 38 29 56 44 35 73 56 49 94 76 57 157 136 108 165 142 108 134 107 70 144 116 80 130 101 70 77 50 28 65 41 31 69 48 46 59 43 50 76 60 63 71 53 51 76 60 47 145 128 109 151 132 108 145 124 98 158 135 108 160 136 113 95 74 58 60 36 24 85 64 60 91 73 73 77 65 65 65 56 57 64 57 59 66 58 60 77 66 69 78 67 68 47 36 38 49 37 39 115 104 106 132 122 123 111 101 102 88 78 79 48 39 39 41 34 34 99 91 91 99 91 91 69 60 61 50 42 42 19 10 6 53 46 41 55 47 40 51 42 35 45 33 26 47 34 25 45 32 24 39 25 15 34 19 7 40 26 16 65 52 40 54 43 31 33 22 12 39 29 19 38 28 16 57 48 32 58 48 29 93 82 62 113 101 78 75 60 38 100 83 58 132 112 86 105 84 56 102 80 52 108 87 60 109 87 62 97 75 51 72 50 28 47 24 0 46 25 7 57 39 28 49 33 26 58 43 38 61 48 42 49 39 34 49 40 37 54 46 43 41 34 31 50 45 41 49 44 40 44 39 33 46 42 33 59 54 45 60 54 44 53 44 35 56 43 38 58 43 40 61 46 43 63 49 46 57 43 41 51 37 33 54 41 35 49 37 31 38 27 21 42 30 24 50 37 29 50 37 29 51 38 29 52 39 30 69 52 44 74 55 35 135 113 86 168 141 106 146 116 77 129 94 55 138 103 70 107 76 51 60 32 18 66 44 39 58 40 43 70 54 55 86 68 65 69 51 39 146 129 109 158 139 116 128 107 78 130 106 78 143 118 93 117 94 73 72 50 37 70 50 44 87 70 69 83 71 73 73 65 68 64 58 62 62 55 60 71 62 66 76 66 70 60 50 53 36 26 29 57 47 50 67 57 60 74 64 67 91 81 82 26 16 17 44 35 34 85 75 74 71 61 61 59 49 48 45 36 35 30 21 19 61 54 49 68 60 53 65 56 49 54 42 36 73 60 53 80 66 59 55 40 34 37 22 15 39 25 18 34 20 12 30 18 10 38 28 20 29 21 12 25 17 7 42 34 22 39 30 15 59 50 33 59 48 28 43 28 4 81 67 45 106 90 67 96 77 54 74 54 29 90 71 50 108 87 66 71 52 35 36 15 0 49 31 18 72 54 43 65 48 41 50 35 31 61 46 43 62 49 46 58 47 45 55 47 45 68 60 58 51 45 42 44 39 36 40 35 31 46 41 36 55 49 41 55 48 40 55 46 37 58 48 39 60 45 40 60 43 39 61 45 40 60 45 41 55 41 38 51 38 35 51 40 36 51 40 36 39 28 23 25 13 7 39 28 20 57 44 36 52 39 30 46 33 24 71 53 44 68 46 31 118 93 68 159 128 95 159 122 83 143 103 63 151 110 75 126 90 61 69 39 20 67 44 35 62 46 43 65 50 50 74 57 53 70 52 43 122 103 87 141 120 97 133 111 80 139 114 84 148 122 94 153 128 105 100 78 64 62 42 35 79 64 62 83 72 75 81 74 79 74 70 76 69 63 69 64 58 63 72 64 69 82 74 78 69 61 64 41 33 37 17 2 9 43 33 36 50 40 41 55 46 45 106 96 95 98 88 87 63 53 51 52 42 40 35 25 24 51 43 39 57 50 44 54 46 39 53 42 36 37 25 19 70 57 52 89 73 69 66 51 47 40 24 19 45 30 25 46 33 28 33 22 18 32 22 17 30 22 16 32 26 19 38 30 21 36 28 17 35 26 14 37 28 12 59 47 32 57 44 27 75 62 43 106 91 71 91 74 56 87 70 54 76 60 45 42 25 13 36 22 14 56 41 34 71 56 49 64 49 44 53 38 34 56 42 39 62 51 48 58 47 45 56 47 45 71 63 61 57 50 47 38 33 30 45 40 36 54 46 43 57 50 45 54 45 38 53 44 36 58 47 39 64 46 41 63 44 40 60 43 39 57 43 38 55 40 38 53 40 37 52 41 37 55 45 41 48 37 33 26 16 10 28 18 9 52 40 32 52 40 31 51 40 28 73 53 45 74 51 39 116 88 64 156 122 90 161 120 82 154 110 68 154 109 70 136 95 62 87 54 31 71 46 33 60 44 38 69 54 53 73 55 54 69 50 44 82 61 46 116 95 71 136 114 84 150 125 93 163 138 107 172 147 122 122 99 82 69 51 41 74 60 57 83 72 74 82 77 82 76 74 81 70 67 74 66 61 67 72 66 73 77 70 76 77 71 75 78 72 76 62 53 56 46 36 39 22 4 6 72 64 63 124 114 113 93 83 80 74 63 59 56 46 43 40 31 27 90 80 75 86 77 71 67 57 50 63 52 46 40 27 23 68 54 51 85 70 67 68 53 50 42 27 24 43 29 26 56 43 40 40 30 27 23 12 9 30 22 19 34 26 22 32 25 18 41 34 25 43 34 25 34 24 14 55 45 33 60 48 34 62 50 36 86 73 58 84 71 57 60 48 38 21 5 0 47 34 30 50 39 37 49 37 39 52 41 42 60 46 44 60 45 41 57 43 40 70 59 55 53 42 40 45 36 34 50 43 41 48 40 38 48 40 38 63 55 53 64 54 52 57 47 43 56 46 40 59 48 42 61 48 42 68 49 43 67 47 42 62 44 40 58 43 39 57 43 40 57 45 42 55 45 43 53 43 40 51 42 37 38 29 24 27 18 8 42 32 24 51 40 30 54 42 30 73 52 44 72 49 35 101 71 50 145 108 78 154 110 74 155 106 65 152 102 62 149 104 69 101 65 39 69 43 26 59 42 31 71 56 54 78 62 62 73 55 48 71 51 36 119 98 75 141 119 89 138 113 79 150 125 93 161 136 110 133 110 92 86 68 58 68 54 52 76 66 69 74 68 75 65 63 71 65 64 72 66 62 69 68 64 70 65 61 67 62 57 62 70 65 68 69 62 65 72 63 64 56 46 45 52 43 42 78 69 66 60 51 46 69 57 53 52 41 37 71 62 56 106 96 88 90 80 73 75 64 58 67 55 49 45 32 28 69 54 52 73 57 55 57 41 39 42 27 25 41 26 25 56 44 42 46 36 34 25 13 11 28 19 17 38 29 26 43 36 33 29 23 17 32 24 17 37 28 20 35 26 15 44 34 23 49 38 27 44 32 20 43 33 23 39 30 23 47 37 36 70 61 61 53 45 47 38 29 38 63 55 60 69 57 56 69 54 48 63 50 46 77 66 63 54 44 42 38 28 26 35 27 25 49 40 38 65 56 54 76 67 65 68 58 56 56 44 41 61 49 45 68 54 49 67 51 46 65 46 40 64 44 39 60 41 37 56 39 35 55 42 38 55 45 42 54 43 42 47 38 35 48 40 35 46 37 30 34 25 16 37 27 18 49 39 29 53 41 29 89 68 60 77 53 40 86 54 33 138 99 72 158 112 77 159 107 66 153 101 61 166 120 84 102 66 39 61 33 14 72 54 40 62 47 42 68 51 51 75 57 52 66 46 34 112 92 69 155 132 101 147 121 88 153 127 95 157 131 105 147 124 104 104 86 75 67 52 49 69 59 62 67 61 68 65 62 70 71 67 76 65 61 69 66 63 69 69 66 71 66 61 66 67 62 67 71 65 68 88 79 80 88 78 77 73 62 61 61 50 48 56 44 40 52 38 33 49 34 27 89 78 70 99 89 80 79 69 59 76 63 56 61 48 42 42 28 24 81 65 63 79 61 61 56 38 39 34 17 17 43 27 26 58 45 43 57 45 43 41 31 29 26 15 13 76 69 66 79 72 69 60 54 51 31 25 20 33 26 18 43 35 27 36 26 16 44 34 24 42 32 24 29 19 11 45 36 32 72 63 63 68 61 65 46 41 47 45 39 49 65 58 67 72 61 61 69 55 48 58 45 39 66 55 52 52 42 40 34 23 22 47 37 36 68 58 57 78 68 68 77 66 65 63 52 50 52 39 37 60 46 43 69 55 50 69 52 48 62 43 38 62 42 37 58 39 35 53 36 32 56 42 39 58 47 44 54 44 42 52 43 41 48 40 36 42 34 27 37 28 20 31 22 13 47 36 26 58 46 34 87 67 60 80 55 45 81 49 31 138 102 75 167 123 85 161 113 69 152 105 60 166 123 82 104 68 40 68 38 20 75 53 43 71 52 50 68 48 49 78 58 54 66 44 35 100 78 57 149 123 95 148 122 91 159 132 99 151 125 96 165 142 118 130 110 93 66 49 42 80 66 66 79 68 73 69 62 71 78 70 81 72 65 74 70 63 72 69 62 71 68 60 69 70 62 70 68 58 66 72 61 67 84 73 76 89 76 78 88 75 74 88 73 70 69 55 49 52 38 30 52 38 30 64 50 42 72 56 49 74 57 53 53 36 33 57 40 38 91 73 71 91 73 73 54 37 37 38 22 23 79 65 65 86 72 71 72 59 58 48 38 36 27 14 14 86 78 76 82 73 70 68 60 56 54 47 41 31 23 16 60 53 45 60 52 44 48 40 32 47 38 33 37 29 26 48 42 39 63 56 56 60 54 57 59 54 57 50 46 52 60 54 59 70 60 58 60 48 43 48 35 32 53 42 40 51 41 40 46 36 37 66 57 59 84 75 77 85 76 79 70 62 63 53 45 45 56 48 47 62 53 52 64 55 53 68 57 54 63 49 44 60 45 38 58 44 39 57 44 40 57 43 41 56 43 41 54 43 42 57 46 45 53 42 41 45 36 32 40 31 24 33 24 15 43 35 24 57 49 37 71 50 45 74 49 42 70 39 22 136 103 75 155 116 77 143 100 52 150 108 58 167 128 84 109 74 45 75 43 25 65 39 36 77 54 56 71 48 50 73 51 48 80 56 48 98 73 56 134 108 84 141 113 85 143 117 84 136 111 79 156 132 105 127 106 86 64 45 33 87 69 66 84 69 72 79 67 76 88 76 87 79 69 81 74 65 77 73 64 75 73 63 74 71 59 71 71 59 70 76 63 73 85 70 80 85 70 76 89 74 75 93 77 76 88 73 67 75 60 52 65 49 42 50 32 25 44 23 18 63 42 41 62 42 41 90 70 69 95 77 75 93 75 75 59 42 43 60 46 47 95 81 81 88 74 74 74 61 62 56 44 46 36 26 27 53 42 43 63 54 50 62 53 46 69 60 53 38 31 25 65 58 52 73 65 61 52 45 41 45 36 36 45 39 37 61 55 55 68 62 62 76 70 71 71 65 66 37 34 32 51 46 43 63 54 52 52 42 39 51 40 39 60 50 51 63 53 55 64 54 57 77 69 72 79 72 76 72 65 71 66 61 65 66 61 64 79 75 77 78 74 75 60 56 57 55 49 47 57 48 41 51 42 34 52 43 37 58 46 43 56 42 41 52 37 37 54 41 41 54 41 41 54 41 40 52 41 37 45 36 30 37 29 21 37 31 19 49 44 33 64 44 39 68 44 37 60 25 6 143 111 84 162 125 87 134 93 42 139 99 50 171 133 90 112 79 49 86 55 41 78 51 48 58 32 37 80 57 59 85 64 62 82 58 50 72 44 28 150 127 104 175 149 121 147 122 91 157 132 102 144 120 91 114 92 69 71 53 39 79 61 56 79 63 65 96 82 91 96 84 94 80 69 78 75 65 74 73 63 73 75 64 74 76 64 74 77 64 73 81 68 77 91 75 84 85 70 76 84 68 70 90 75 72 94 79 73 93 77 70 93 75 67 91 74 67 70 53 48 48 27 24 58 38 36 79 60 59 75 57 55 78 61 59 73 57 56 69 55 55 103 89 88 95 82 82 75 64 64 56 44 45 45 35 35 77 68 67 99 90 86 91 82 76 78 70 64 43 34 30 67 58 55 80 70 69 75 66 67 63 55 57 42 34 36 67 60 61 72 66 66 69 63 63 62 56 56 40 35 33 50 45 42 57 48 47 53 45 45 59 52 52 69 62 64 72 65 68 70 63 67 73 66 73 73 68 74 70 64 71 71 65 71 74 69 73 78 75 77 76 75 75 62 61 60 44 41 37 42 35 25 46 37 27 47 37 29 50 37 32 57 43 40 62 47 45 59 44 43 55 40 40 53 38 37 51 39 36 47 38 33 36 29 22 29 23 12 42 38 27 48 28 24 46 23 15 37 0 0 135 104 80 163 126 89 145 106 60 141 100 55 162 123 84 102 69 41 82 52 40 92 65 61 63 39 41 83 61 62 87 66 64 68 45 35 58 27 6 151 129 107 181 156 127 168 143 112 179 155 125 170 148 121 144 123 102 78 59 46 78 62 56 85 71 74 97 84 92 88 78 85 79 69 72 71 62 65 71 61 66 75 65 70 79 68 73 81 69 75 85 73 78 91 76 82 85 70 73 84 68 69 90 75 73 93 78 72 89 73 66 83 66 59 94 76 70 96 77 73 83 64 60 86 68 64 79 61 59 68 52 49 58 42 39 53 38 35 63 50 49 96 83 82 91 79 79 71 59 59 47 37 35 48 38 37 86 76 75 94 85 82 80 71 68 69 60 57 40 30 29 62 52 52 76 66 66 73 64 67 61 53 56 43 33 37 59 50 53 52 45 46 42 36 36 45 40 39 50 45 42 67 62 59 64 58 57 62 57 57 67 62 63 72 67 69 74 69 72 75 69 74 74 69 74 76 71 76 74 69 74 72 67 71 73 68 70 67 64 63 69 67 63 64 62 58 43 39 33 45 36 23 59 47 33 58 45 34 48 35 25 52 38 31 64 47 43 65 48 46 60 45 44 55 40 38 52 39 36 53 42 38 42 34 27 28 21 11 37 31 22 78 59 55 71 49 42 48 22 11 85 55 35 125 89 56 144 106 66 141 101 60 146 110 73 96 63 37 73 44 32 88 63 59 70 48 48 80 59 60 96 74 72 89 66 57 66 40 23 138 115 94 181 155 128 156 131 102 153 130 101 176 154 127 158 137 117 76 58 46 86 69 65 91 77 80 91 79 87 82 72 77 78 69 69 71 62 62 71 62 64 77 67 69 81 71 72 86 74 76 90 77 80 88 73 77 85 70 73 89 73 74 97 81 80 97 82 78 89 73 67 80 62 57 80 62 58 94 76 73 94 76 73 90 74 71 81 64 63 88 73 72 87 72 71 79 65 64 69 56 56 70 59 58 55 43 43 55 45 44 51 41 40 45 36 34 53 44 43 52 42 41 50 39 38 55 43 44 47 36 38 62 51 55 65 54 59 51 40 45 39 29 35 49 39 45 59 50 54 55 46 48 54 45 46 61 54 52 69 62 60 74 69 66 70 66 65 68 65 66 68 66 67 69 66 68 72 67 71 74 69 73 76 71 74 76 70 73 68 63 65 65 58 59 66 59 58 62 56 51 74 68 61 84 78 71 73 65 56 73 62 46 91 77 60 89 73 58 62 47 33 44 29 18 53 35 28 63 45 39 67 50 45 59 43 40 50 36 33 54 42 38 48 39 33 32 25 19 32 25 18 89 67 64 94 70 64 78 52 43 54 15 0 117 84 56 146 110 74 130 92 55 126 90 57 102 70 46 90 63 50 82 60 53 68 48 47 74 54 55 95 75 72 114 92 83 75 53 39 123 101 80 203 178 151 161 137 109 111 86 55 151 129 105 143 123 103 79 61 50 93 76 73 87 74 76 88 76 84 88 78 81 81 73 70 77 69 67 77 69 68 80 71 70 83 72 72 88 77 78 93 81 83 91 76 79 88 73 76 91 75 77 97 81 81 97 82 81 93 77 76 91 73 72 87 69 68 89 72 72 87 70 70 87 71 71 81 65 66 92 77 77 100 85 85 99 86 85 81 69 69 82 71 71 72 62 62 69 60 59 59 48 48 52 43 43 58 49 50 53 42 43 51 39 41 55 43 46 55 43 47 65 53 59 72 61 68 71 60 68 64 53 62 70 59 66 74 64 70 73 64 67 76 67 66 78 69 67 82 74 71 75 69 65 71 67 65 70 66 66 69 66 65 70 66 66 68 62 63 64 57 59 64 55 57 65 56 55 66 57 55 82 71 67 103 93 85 112 100 92 111 99 87 102 91 78 89 77 62 102 88 67 116 100 78 115 97 77 87 70 52 53 34 19 42 23 11 54 35 27 65 47 40 59 41 36 49 33 29 53 40 36 50 39 36 37 29 24 29 22 15 97 75 72 76 51 47 68 41 31 67 36 19 99 67 42 128 93 63 147 110 80 136 102 74 83 53 33 77 51 39 83 61 53 78 59 57 69 49 50 47 28 26 100 79 70 94 73 61 88 66 44 163 140 115 166 142 114 118 94 67 129 108 84 131 112 93 85 69 57 87 72 68 89 77 79 90 80 86 89 80 83 85 77 76 84 76 74 84 76 74 83 73 73 81 71 71 85 73 76 92 80 83 92 77 82 88 73 78 88 72 77 89 73 76 88 72 75 88 71 74 92 73 76 96 79 82 97 81 84 89 73 76 88 73 75 85 70 73 86 71 73 81 66 69 80 68 69 85 73 74 81 69 71 73 63 65 78 68 70 73 63 65 69 60 61 70 60 62 67 56 57 65 51 54 61 47 51 60 47 53 60 47 55 73 60 69 87 74 84 85 73 82 84 73 80 80 69 75 78 68 71 83 73 72 78 68 66 84 76 72 77 70 64 70 65 59 66 61 56 67 62 57 76 69 64 76 68 63 71 61 57 73 62 58 90 76 71 104 88 80 109 94 82 121 105 91 132 114 99 126 109 90 117 98 77 118 98 75 109 90 64 110 91 65 122 102 78 115 95 72 79 58 39 46 24 5 54 33 21 60 39 30 54 35 28 53 35 30 55 39 36 51 40 36 43 33 30 35 27 24 94 72 70 84 60 57 91 65 56 89 60 47 63 30 9 76 42 18 136 101 77 139 106 83 73 45 28 65 42 29 76 56 48 57 40 35 65 47 46 67 48 46 74 54 45 82 61 48 96 75 54 124 100 75 135 113 85 117 96 68 121 101 77 128 109 92 86 71 59 76 63 59 99 87 89 97 87 93 85 76 80 88 79 81 88 79 80 87 78 79 81 72 73 75 64 67 80 68 72 86 74 78 84 69 75 82 67 72 85 68 75 87 70 76 84 67 75 86 68 76 93 72 82 93 75 82 93 76 82 89 73 79 83 68 73 85 70 75 91 76 81 78 65 69 67 55 59 83 70 75 75 63 67 69 58 62 76 65 69 72 61 65 72 61 65 72 61 65 77 63 66 83 68 71 83 68 73 84 69 76 76 61 69 74 61 70 76 63 73 75 62 71 79 67 75 78 67 72 83 72 75 86 76 75 76 67 63 78 69 62 74 66 57 71 64 54 61 53 42 67 59 48 89 78 68 96 83 74 100 85 77 120 103 92 131 113 100 127 107 92 120 98 79 119 97 74 130 105 80 125 99 72 125 99 70 138 112 82 110 85 55 100 77 45 118 95 65 132 108 81 108 84 60 64 39 19 56 31 17 56 34 20 53 33 23 58 39 33 57 42 37 54 40 37 48 37 35 42 32 31 106 85 82 103 80 77 111 85 78 99 71 60 74 42 28 53 17 0 75 41 26 94 64 47 75 48 34 60 39 26 63 46 36 53 38 31 63 47 45 81 63 59 79 60 51 62 41 27 114 94 75 139 117 94 132 111 84 124 103 78 98 79 57 109 92 75 83 68 57 83 71 66 100 90 91 91 83 89 87 79 85 86 77 82 83 74 79 80 71 76 77 66 72 67 56 62 81 69 75 85 72 78 85 70 77 77 61 68 82 65 73 87 70 79 83 66 76 86 68 79 88 68 79 86 68 77 82 67 74 85 70 77 89 74 81 80 65 72 80 66 73 80 65 72 76 62 68 86 73 79 74 61 68 80 67 74 81 69 74 75 63 67 80 68 72 81 69 72 79 66 66 89 73 73 87 72 72 74 59 62 81 66 73 82 67 74 72 58 67 76 63 71 69 56 65 83 71 75 81 69 70 64 51 49 77 67 60 76 68 58 93 85 73 109 97 83 117 104 88 127 113 97 126 110 94 120 102 86 130 110 94 142 121 102 146 122 101 133 106 83 121 92 65 129 99 69 128 96 63 127 94 57 141 107 68 145 113 74 140 112 75 135 109 74 108 81 49 117 91 61 127 102 73 97 72 50 52 23 1 54 30 14 58 35 23 59 39 31 57 40 33 56 41 38 48 36 34 37 27 26 103 82 80 92 70 67 97 72 68 94 66 60 84 52 44 69 37 27 61 26 15 62 31 20 62 37 24 60 42 28 57 42 30 52 38 30 61 46 43 82 66 62 93 75 67 66 48 38 87 68 49 116 95 71 116 95 71 146 126 101 125 107 86 111 95 80 69 55 45 86 75 70 104 94 95 89 81 87 86 78 86 90 80 88 83 73 81 79 69 77 82 71 78 80 69 75 85 72 79 88 76 80 91 77 81 89 74 79 77 60 68 77 60 67 82 66 72 78 61 69 83 63 72 88 70 76 80 65 69 79 64 68 82 67 72 76 61 65 79 63 68 82 67 71 79 64 68 86 72 75 82 69 72 84 70 74 85 71 73 84 70 73 89 75 77 92 78 78 88 74 71 81 66 61 80 65 61 75 60 59 78 62 65 79 64 69 79 64 70 81 67 74 69 54 61 72 60 62 91 80 77 103 92 87 112 102 93 136 128 115 141 132 115 144 129 110 161 144 123 168 149 129 152 133 111 145 123 101 148 125 102 133 107 83 128 99 72 133 102 72 125 91 58 123 89 53 119 82 43 129 92 48 141 103 57 135 97 53 136 104 64 127 97 60 107 77 41 112 82 47 122 94 63 119 91 64 82 55 33 53 25 5 58 34 20 60 39 27 58 39 31 57 41 35 51 37 34 42 32 30 82 59 58 89 68 65 110 86 83 98 72 69 92 62 60 97 66 63 82 50 46 59 30 23 61 37 27 64 46 32 52 38 24 49 38 28 50 37 31 57 42 36 70 53 45 58 40 28 72 54 36 103 83 60 112 92 68 125 106 82 131 114 93 128 113 97 67 55 44 88 77 72 102 92 92 92 84 88 89 81 89 92 82 91 85 75 85 83 73 82 87 76 83 89 78 83 80 69 72 83 70 72 76 61 63 86 70 73 74 58 61 74 58 61 85 69 72 71 52 57 70 48 54 71 52 56 61 43 45 69 53 54 81 65 65 82 65 65 81 65 65 77 61 61 66 48 49 65 48 49 78 63 62 81 66 64 86 71 66 93 78 73 92 77 73 93 78 72 101 86 77 96 80 70 102 85 77 106 90 85 101 86 85 87 71 72 73 57 60 74 59 64 66 51 55 56 39 42 117 104 100 151 139 131 131 122 111 147 138 122 155 144 124 153 137 113 150 129 104 145 122 97 144 121 94 139 114 87 127 101 72 117 88 59 115 83 51 124 90 54 138 102 64 133 96 55 122 82 37 133 92 46 143 101 53 133 92 45 126 91 48 123 91 52 126 93 56 125 93 55 114 81 47 132 100 70 108 78 53 55 24 0 58 32 16 64 41 26 61 41 31 58 41 34 53 39 35 46 34 32 86 64 63 95 75 72 110 87 85 101 76 76 96 67 68 112 80 82 99 68 68 68 39 36 58 34 28 50 32 21 54 42 26 64 52 39 50 37 30 54 41 34 54 38 30 59 42 28 73 55 37 94 74 53 120 101 78 100 82 60 122 104 86 126 110 95 58 46 37 86 76 71 95 87 86 88 82 86 83 74 83 80 69 79 78 68 77 77 67 74 77 66 72 79 68 70 71 59 57 86 75 71 95 81 77 99 85 79 102 88 82 102 87 81 105 91 84 114 100 92 113 98 91 121 106 97 126 112 102 122 107 98 121 106 96 116 101 91 111 95 85 109 94 84 112 98 86 123 109 97 127 112 100 111 94 83 104 88 75 109 93 81 102 86 74 101 84 70 116 100 83 129 113 95 126 110 95 119 102 92 121 105 99 98 82 78 66 50 49 72 57 57 69 55 54 57 43 41 83 70 64 113 102 91 109 99 83 117 108 89 138 127 105 149 133 106 153 133 105 142 119 90 128 105 76 131 106 75 129 103 73 120 91 60 113 81 46 128 94 58 150 114 74 149 111 67 136 97 51 139 98 50 146 104 54 140 100 51 128 90 47 137 101 61 144 109 70 145 110 72 126 91 55 133 99 66 122 89 60 72 42 17 56 28 8 65 40 23 66 45 32 60 42 33 54 39 34 48 35 32 102 79 79 98 78 76 91 69 69 97 72 75 97 68 73 98 67 73 82 52 56 67 39 39 71 49 43 53 36 27 35 24 7 39 28 13 41 28 22 58 44 38 48 33 26 63 47 33 69 52 34 60 43 21 96 78 57 95 78 57 127 111 93 123 108 93 59 48 39 92 84 79 98 91 90 87 81 85 83 75 83 82 72 81 83 74 79 83 75 76 82 72 72 85 75 73 120 110 103 153 144 133 158 146 133 144 132 117 161 148 132 162 149 132 152 140 122 177 163 145 181 165 149 174 158 140 173 158 139 162 147 128 151 136 117 144 129 110 139 123 105 142 126 107 159 143 122 179 163 141 176 160 138 153 137 115 138 123 99 134 119 94 123 108 84 118 103 78 119 104 79 142 128 103 135 120 98 112 97 80 130 113 102 111 94 86 72 58 52 79 64 61 75 60 58 78 64 59 58 45 36 87 75 61 133 121 104 123 112 92 122 110 86 146 130 102 141 123 93 129 108 80 133 112 83 132 110 79 111 85 54 112 84 53 133 103 71 143 109 75 140 106 68 135 99 57 135 97 53 135 96 48 133 94 43 132 92 44 126 87 44 132 94 53 131 93 55 144 105 69 149 111 74 139 103 68 133 98 67 95 65 39 53 22 0 60 34 16 68 46 32 63 45 34 57 42 34 53 39 36 93 70 69 96 76 75 97 76 78 96 72 76 100 71 79 97 66 75 72 42 50 54 26 31 52 32 27 32 10 0 48 40 24 61 54 41 33 21 13 43 29 23 32 18 9 65 49 36 86 68 51 70 53 35 65 46 24 64 47 27 111 97 78 114 102 85 67 56 46 89 80 76 85 81 78 78 74 76 85 79 84 87 79 84 89 79 82 91 83 82 88 79 75 88 79 70 165 156 143 199 190 173 180 169 148 161 151 127 185 174 148 188 177 151 168 156 128 179 167 139 180 166 139 163 149 120 159 144 114 150 136 106 146 132 102 153 139 108 150 137 106 153 137 107 165 149 119 163 148 115 167 151 119 170 155 122 171 156 122 165 150 115 151 136 101 138 124 88 121 107 74 137 123 94 142 128 100 132 117 94 144 128 112 124 108 97 83 67 60 84 69 63 77 63 57 69 55 46 52 39 26 86 74 59 138 126 107 113 103 80 103 92 64 132 118 90 137 121 92 128 110 83 131 111 83 144 124 95 143 121 93 146 121 94 161 134 103 160 130 96 137 105 69 123 90 49 137 103 60 143 108 63 136 101 54 134 97 51 119 79 37 117 76 36 113 73 31 126 87 49 156 116 79 146 109 73 135 100 67 112 80 50 65 35 8 53 28 7 68 46 30 64 46 32 57 42 33 59 45 39 91 68 69 90 70 70 96 75 77 104 80 85 105 78 86 92 62 72 63 35 44 42 9 18 62 42 41 80 67 59 87 78 64 89 80 67 60 47 42 47 31 25 38 22 14 48 31 20 82 64 49 82 64 45 55 36 13 57 40 21 99 84 67 94 81 66 61 51 42 87 80 75 90 85 83 83 79 81 91 86 90 89 82 85 91 83 84 97 89 86 91 83 73 75 67 53 171 164 145 195 187 164 184 175 147 170 161 129 177 168 135 181 170 138 163 153 120 156 145 111 157 145 112 165 151 117 165 150 115 148 134 100 147 133 99 167 153 117 172 158 120 173 157 121 184 169 131 174 159 120 162 146 106 169 154 112 172 157 116 168 153 112 168 152 110 160 146 104 149 135 98 138 123 90 148 132 102 152 136 110 142 126 106 121 105 92 90 73 64 86 69 61 86 71 63 74 60 50 57 44 32 64 52 36 119 106 87 117 106 82 115 104 77 126 112 85 152 137 110 150 134 107 147 131 103 175 156 127 180 158 128 167 143 113 154 129 98 144 117 84 134 105 70 122 91 51 137 104 64 146 113 70 143 110 64 146 109 65 118 75 33 123 80 42 143 101 63 126 86 46 151 112 74 150 113 78 130 96 64 125 94 65 87 61 37 47 20 0 66 46 29 62 44 30 53 38 27 60 47 39 93 71 74 95 72 75 98 74 77 103 78 82 89 63 68 54 24 31 34 0 2 90 70 70 127 109 107 115 101 94 86 76 66 77 63 57 82 62 60 58 35 31 56 35 28 47 25 18 39 20 5 83 65 51 83 66 51 78 64 47 97 83 68 67 56 43 56 48 40 92 85 81 91 87 85 91 87 89 97 91 96 90 85 90 97 91 94 106 98 96 94 86 77 75 67 52 175 167 146 194 186 159 190 181 151 181 172 139 181 173 141 179 171 141 149 141 111 131 123 94 142 134 106 158 148 118 162 150 118 141 129 96 140 129 94 161 148 112 160 147 107 166 153 112 180 166 123 176 163 119 161 148 103 162 149 105 174 159 116 174 159 116 176 161 120 174 159 120 172 155 120 162 144 111 164 145 115 163 146 119 136 119 97 117 100 84 99 82 71 76 57 52 84 65 64 85 68 66 71 55 51 48 31 22 105 91 76 134 120 100 104 91 68 97 82 59 129 110 88 149 129 104 160 140 111 171 150 119 163 140 108 143 118 86 136 108 76 141 110 79 135 103 70 123 89 55 133 97 63 145 109 70 151 114 73 147 108 65 143 100 56 152 107 65 148 105 65 135 94 55 152 115 79 150 115 83 124 94 67 117 92 67 89 67 47 54 35 18 63 46 33 61 47 35 49 38 27 52 42 32 78 57 62 104 81 84 112 86 89 92 65 66 64 35 36 83 59 58 98 75 73 110 90 87 115 97 95 81 68 65 64 52 49 65 47 47 83 57 58 83 55 56 54 27 23 65 42 37 50 29 22 59 42 31 96 81 66 90 77 62 61 51 39 48 39 29 64 56 49 51 43 41 63 59 57 89 85 86 89 85 91 88 84 93 89 84 89 98 92 91 90 82 75 81 74 57 183 173 151 196 186 158 178 169 137 194 185 154 181 173 144 176 169 142 164 158 133 137 131 110 137 132 111 144 137 114 152 143 115 146 135 105 154 143 111 168 157 122 154 144 104 160 149 104 171 159 113 173 161 113 162 150 103 154 142 97 167 153 110 169 154 113 169 154 115 168 152 117 175 156 123 165 145 114 156 137 105 168 149 120 154 137 112 130 112 94 110 92 81 81 61 58 82 62 65 83 63 67 73 54 56 53 33 31 102 86 75 144 128 110 101 85 66 81 59 40 125 102 83 153 130 106 163 140 109 149 126 91 144 119 83 146 119 83 143 112 77 156 122 91 147 112 81 121 83 52 125 85 52 156 114 79 169 127 89 146 103 61 158 111 65 160 113 69 127 84 42 130 90 50 140 104 71 131 100 72 87 60 38 77 56 38 67 50 34 58 43 29 58 46 34 61 51 40 56 48 37 52 46 34 87 66 70 100 76 79 95 70 72 62 35 36 59 31 31 115 89 88 119 94 94 94 74 72 84 66 65 62 48 47 67 55 55 80 64 63 72 45 46 85 56 57 80 54 52 59 36 31 56 35 28 57 38 26 59 47 34 61 48 37 47 36 24 37 28 17 68 61 54 88 82 77 78 74 71 96 91 92 108 103 109 99 95 103 96 90 96 99 94 93 90 83 75 89 82 65 184 173 152 196 186 159 188 179 149 183 175 144 177 170 142 178 171 143 167 161 136 164 158 138 154 148 129 138 130 107 170 160 132 179 168 139 159 148 116 159 148 111 173 162 121 178 167 122 167 156 110 174 162 113 167 155 108 157 144 99 163 149 106 166 151 110 168 152 115 162 146 111 167 149 113 173 154 121 162 143 110 149 132 100 133 116 89 122 104 83 118 101 87 97 79 72 75 56 58 81 62 65 73 56 57 54 38 34 93 79 68 147 132 114 131 116 95 131 112 95 165 143 125 169 148 123 179 157 125 169 147 110 161 137 96 148 122 84 120 89 51 150 116 80 157 123 86 126 90 54 110 70 31 142 100 62 164 121 79 148 105 58 154 108 59 151 106 58 125 80 39 131 89 50 135 100 67 120 89 62 42 1 0 41 19 1 55 37 22 61 46 33 56 46 34 57 47 37 61 54 43 56 50 38 99 78 81 76 53 55 56 29 32 64 39 40 87 62 61 108 84 82 100 78 77 91 71 72 96 78 78 73 59 59 63 51 51 84 68 68 78 55 57 68 40 40 83 57 55 75 53 47 64 45 36 56 39 28 38 21 7 28 13 0 40 30 19 28 16 2 66 58 51 110 104 98 106 101 98 91 85 87 87 82 87 87 82 89 100 95 99 102 95 94 80 72 65 90 82 67 185 175 155 195 185 160 186 177 148 182 174 144 175 168 139 177 171 143 164 158 132 148 142 120 131 125 104 131 122 98 178 167 141 191 180 149 153 143 108 141 129 90 174 162 120 178 167 122 156 145 99 170 158 110 170 158 111 161 148 103 166 152 108 169 154 113 173 157 119 164 148 112 145 129 92 159 142 107 151 134 100 124 108 74 127 111 81 143 127 102 138 121 104 103 86 76 73 56 54 88 71 72 83 68 67 59 45 38 72 59 47 135 124 105 146 133 111 148 131 113 140 122 103 140 122 96 181 161 129 189 169 131 176 154 110 161 135 92 139 109 65 157 124 82 171 135 94 163 125 83 147 107 63 140 99 50 158 115 64 163 118 66 157 110 59 148 101 53 135 89 45 141 100 61 151 114 80 125 92 65 61 34 10 43 21 4 62 43 28 66 51 38 57 45 33 52 42 32 60 52 41 56 50 38 84 64 65 54 31 32 72 46 47 134 108 109 132 107 107 89 65 64 71 49 50 81 63 64 86 70 71 76 62 64 65 53 55 61 45 47 79 57 58 86 62 62 64 39 37 76 55 49 84 66 57 71 54 44 63 48 38 44 31 19 25 14 1 36 27 17 46 38 31 58 52 48 78 73 71 81 75 75 58 53 56 66 61 66 97 90 92 99 91 89 72 64 57 104 97 82 197 187 169 198 187 165 172 162 135 176 167 138 167 158 130 162 155 127 157 150 125 159 151 128 160 153 128 159 150 124 170 157 129 181 168 136 180 167 133 173 161 124 173 161 119 172 159 115 165 152 107 163 150 105 167 154 109 162 149 104 167 153 110 169 154 113 169 153 115 157 141 105 149 133 96 148 133 94 127 113 74 122 108 71 136 120 88 140 126 99 144 128 109 120 104 92 74 57 53 89 74 72 87 72 69 66 53 45 59 48 35 102 94 76 115 105 85 106 92 73 89 72 52 114 98 71 137 120 86 149 129 91 160 139 95 159 134 87 166 137 91 173 141 95 167 130 86 175 135 88 182 141 90 170 127 73 167 123 64 166 120 62 160 113 60 151 103 55 143 96 51 141 100 60 143 107 73 118 85 58 70 42 19 49 26 8 60 41 26 59 43 30 55 42 30 56 46 36 61 52 42 58 50 39 57 37 36 55 33 32 92 70 69 133 109 109 124 100 100 79 57 57 67 47 48 68 49 51 65 50 52 81 69 72 82 71 75 69 53 56 71 50 52 84 61 62 79 56 54 65 45 40 67 49 41 90 73 65 76 61 52 59 46 35 54 44 34 38 28 19 26 17 10 26 17 11 20 10 5 58 52 51 78 73 73 85 78 81 103 94 95 101 93 89 77 69 61 117 107 95 193 182 166 193 182 162 197 187 162 168 158 131 177 167 140 184 175 148 147 140 113 156 149 124 178 170 143 161 149 121 145 131 100 164 150 117 177 164 129 173 161 123 170 158 116 168 155 111 168 155 110 165 152 107 168 155 110 166 153 108 172 158 116 170 155 114 165 150 110 154 139 102 147 133 96 151 137 100 149 135 98 155 141 105 154 141 107 153 138 110 168 153 133 143 131 117 69 53 49 78 64 61 78 65 62 70 60 53 61 52 41 69 62 45 61 53 35 38 26 7 60 45 29 137 122 98 165 149 119 169 150 113 173 151 109 162 138 92 167 138 91 172 139 94 168 131 85 167 127 78 176 134 81 179 134 77 180 134 72 168 121 59 165 117 61 156 108 59 145 99 54 138 97 56 125 88 54 116 83 54 81 52 30 59 36 18 53 34 19 54 38 25 58 45 33 61 51 40 59 51 40 52 44 33 53 31 28 81 60 57 88 67 65 71 51 50 67 46 47 80 58 60 97 77 79 80 63 65 54 39 42 59 48 52 69 59 62 86 71 73 81 62 64 64 43 44 76 56 54 78 59 54 70 53 46 59 43 35 75 60 52 83 70 61 69 59 49 59 49 41 42 33 26 34 26 22 27 18 16 24 15 11 75 67 67 97 88 88 94 84 82 98 88 84 75 66 58 108 98 87 189 178 163 204 193 175 197 186 164 196 186 161 192 182 155 192 182 155 178 168 141 156 147 119 152 143 115 136 125 95 132 117 84 170 155 122 179 165 130 167 153 116 179 166 124 178 166 122 171 158 114 173 160 115 170 158 113 170 157 113 179 166 123 175 159 118 171 156 116 167 151 114 163 149 114 161 148 113 165 152 117 175 162 128 159 146 115 140 127 101 122 110 90 91 78 65 75 61 56 70 57 56 70 59 59 67 59 56 60 55 47 60 56 45 52 46 35 68 59 50 57 42 29 143 129 110 213 197 170 205 187 152 168 147 107 160 136 92 163 133 88 172 136 91 180 141 96 171 129 81 170 126 72 179 133 74 189 141 77 177 128 65 166 117 61 155 108 57 146 101 54 132 90 49 117 79 45 118 85 56 102 73 50 67 44 26 49 31 16 60 44 30 59 46 34 57 47 37 57 47 37 51 42 33 102 83 79 109 88 85 97 76 75 63 42 42 42 17 19 59 39 40 78 59 61 79 63 66 79 65 68 70 58 62 53 42 46 70 58 59 79 63 63 81 63 62 78 59 58 66 49 45 90 75 69 78 64 57 63 49 41 71 58 50 71 60 52 73 62 56 55 46 39 50 41 36 51 42 40 41 32 30 66 56 55 78 69 67 85 74 70 97 86 80 81 70 63 97 87 78 186 175 161 219 207 192 202 191 172 208 198 176 207 197 171 178 168 141 149 140 112 187 177 147 163 152 122 105 91 57 125 110 76 170 156 121 188 174 137 182 168 129 179 166 124 167 154 110 162 149 105 169 155 110 166 153 108 169 155 111 182 169 126 178 163 122 169 155 115 169 155 117 159 146 111 130 117 86 123 110 79 137 124 93 111 97 71 63 49 27 63 49 32 74 61 50 79 67 64 74 62 64 68 57 61 59 52 54 56 52 51 69 66 61 66 62 56 56 47 41 59 46 37 117 104 89 153 137 115 146 128 98 156 136 99 165 141 100 158 129 86 168 133 90 170 130 87 167 123 77 172 127 74 178 130 72 180 131 68 171 121 59 165 114 58 148 101 49 142 97 49 125 83 40 114 76 40 114 81 51 110 81 56 69 46 28 49 29 15 61 44 31 57 44 32 53 41 31 57 47 37 60 51 42 127 107 101 107 86 82 99 79 77 83 64 63 69 50 49 49 31 31 44 28 29 68 54 56 84 71 74 85 73 75 70 60 63 55 44 45 68 53 53 87 70 70 90 74 73 82 67 65 82 67 63 84 69 64 80 66 60 80 68 61 68 57 51 61 50 44 69 58 52 68 59 54 53 44 39 35 25 24 36 26 22 42 30 25 80 68 63 90 77 70 100 87 79 63 51 44 80 69 57 100 89 76 77 68 51 62 50 26 132 121 100 180 168 142 138 126 97 170 158 127 176 163 130 108 94 57 140 125 89 174 158 121 178 163 124 186 171 131 180 165 125 144 129 86 139 124 82 173 157 115 168 153 110 168 152 109 184 170 127 183 170 128 161 148 106 154 141 101 156 142 112 131 119 94 104 91 64 131 117 90 144 131 104 102 87 65 83 67 54 96 81 73 82 68 68 79 67 72 73 61 71 63 54 63 58 53 58 68 66 68 64 61 61 53 44 44 72 59 54 135 121 110 137 121 105 106 89 60 142 122 89 166 140 104 163 132 95 162 126 87 160 120 78 163 119 76 171 124 76 179 130 76 180 130 72 175 124 64 169 118 62 148 98 46 138 91 43 130 87 44 115 77 40 111 77 47 107 78 53 82 58 38 52 31 15 52 36 23 61 48 36 58 45 36 57 47 38 60 51 42 73 53 47 92 73 68 100 80 77 104 85 84 96 78 77 73 56 57 57 42 42 50 38 39 61 49 50 79 69 70 85 76 76 75 65 65 69 54 54 76 60 60 88 72 72 91 75 74 79 66 62 72 59 56 78 65 60 85 74 68 76 66 60 70 58 53 75 64 59 77 67 62 65 55 51 46 36 33 42 30 24 48 34 26 57 44 35 78 64 57 102 89 81 88 76 68 77 65 57 68 57 49 67 58 47 54 44 31 0 0 0 136 123 98 181 167 138 144 131 97 153 139 104 135 120 83 160 144 106 180 163 124 178 162 122 171 155 115 182 166 125 157 142 100 158 143 101 194 179 136 180 165 122 171 156 113 173 158 116 172 159 117 168 155 112 163 151 111 171 158 128 171 159 135 141 127 102 146 132 105 148 134 108 133 118 96 76 60 44 74 57 52 78 63 64 74 59 67 83 71 83 76 68 80 58 53 63 57 56 62 67 65 69 69 59 62 88 74 71 131 116 107 136 120 105 120 103 77 142 120 90 158 131 100 163 131 96 162 126 89 157 117 79 152 108 67 158 111 66 175 125 75 191 139 84 176 124 67 172 121 64 164 115 61 146 99 50 123 81 35 106 68 29 102 69 37 103 74 49 89 64 44 59 39 23 50 33 19 60 46 35 63 50 41 60 50 41 59 49 40 71 52 47 33 8 0 73 54 51 96 78 77 91 74 74 83 67 68 77 63 64 57 45 45 43 31 30 61 52 50 78 70 68 84 73 72 86 74 74 78 65 64 74 60 59 79 67 65 84 73 70 82 71 68 74 63 59 66 55 51 73 62 58 75 64 60 70 59 56 73 62 58 76 66 62 69 58 54 56 44 37 55 41 32 53 39 29 55 40 32 69 55 48 93 81 73 115 101 94 122 109 100 119 107 93 89 78 61 82 69 47 158 144 117 172 157 126 146 132 96 169 155 116 162 147 107 160 142 103 175 157 118 177 159 119 174 156 116 174 157 114 181 166 123 186 171 128 182 167 124 176 161 118 182 167 124 171 157 115 161 148 107 174 161 119 173 160 120 160 146 117 166 153 128 146 133 108 136 121 95 152 136 111 159 143 120 111 93 79 82 65 58 81 66 64 76 62 70 78 67 78 67 60 72 60 57 68 62 60 70 68 66 73 62 52 56 100 85 82 130 116 105 145 129 112 137 118 94 129 107 78 124 98 65 142 111 77 153 116 81 170 129 93 172 128 90 155 109 67 160 111 63 183 133 81 172 121 67 163 113 56 170 121 65 149 103 52 120 77 32 111 71 32 104 69 36 99 69 44 94 68 49 69 49 33 48 30 17 57 42 32 65 52 43 62 51 42 57 47 38 90 71 64 56 36 31 41 21 17 48 31 30 63 47 48 75 61 61 87 75 74 82 72 70 56 46 45 44 35 32 52 44 40 64 54 52 83 72 72 93 81 81 84 71 71 66 55 54 73 63 61 84 73 71 83 72 69 75 65 62 68 57 54 70 59 55 78 67 63 76 64 59 70 58 54 80 68 62 83 69 61 65 49 39 49 34 22 50 36 27 52 37 30 51 37 32 62 50 45 83 71 64 99 87 76 75 61 46 121 108 88 185 170 142 178 164 131 180 164 127 192 176 134 166 149 109 125 106 63 165 146 106 180 162 121 184 167 124 153 136 93 168 152 109 180 165 122 173 158 116 169 154 112 189 174 132 185 171 129 177 165 122 192 179 136 179 166 126 154 140 109 151 137 110 139 125 98 125 109 81 151 135 106 164 147 121 149 129 110 108 90 79 62 42 41 81 66 71 82 69 78 65 57 69 62 58 69 69 67 77 69 67 75 66 56 56 120 106 98 140 125 110 153 138 116 142 124 96 118 97 66 119 94 59 142 112 75 131 96 59 165 125 89 183 140 102 172 125 83 175 127 80 173 123 73 168 117 62 171 120 63 181 131 75 157 110 58 130 85 39 127 87 47 116 80 48 96 66 40 94 67 48 78 56 41 51 33 20 52 38 27 62 47 40 61 48 40 59 49 40 87 67 62 97 78 74 73 55 54 48 31 31 51 36 36 56 42 42 72 62 60 88 78 76 78 70 66 62 55 48 56 49 42 49 42 36 55 46 44 83 73 72 92 81 81 80 68 68 66 54 53 70 59 57 83 72 69 90 78 77 77 66 64 66 56 52 74 62 58 80 67 61 79 66 60 81 68 61 86 72 62 73 56 44 54 37 23 48 32 23 49 35 28 46 31 26 39 25 22 49 36 30 84 72 63 75 62 49 112 99 79 171 157 130 187 171 138 185 169 129 174 157 113 152 135 92 142 123 81 173 154 112 181 162 120 171 154 111 154 137 95 164 146 103 174 158 115 167 152 111 164 149 108 185 170 130 178 164 122 165 152 108 184 171 127 177 164 122 176 163 128 173 159 128 148 132 101 140 123 90 142 126 91 154 135 105 152 131 107 133 113 97 82 62 57 72 56 56 76 63 69 80 70 79 69 64 72 66 65 72 63 62 66 72 62 56 129 113 100 141 125 105 151 134 107 137 119 86 112 92 53 134 109 72 164 134 94 139 105 66 150 113 74 163 122 82 165 120 77 182 135 87 174 126 75 185 136 80 184 133 76 188 136 80 163 113 61 134 89 42 133 93 53 126 90 58 105 73 48 94 67 47 83 60 45 60 41 29 49 35 23 56 42 34 59 46 38 61 52 42 77 57 53 84 66 63 95 77 76 78 61 62 50 35 35 42 29 29 46 36 34 67 58 55 77 70 64 80 74 65 81 74 66 70 63 56 50 41 39 55 46 45 73 63 62 85 74 73 81 70 69 71 61 60 70 60 58 73 63 61 84 73 70 77 65 62 56 43 39 69 57 51 92 79 73 87 74 66 69 55 44 73 56 42 86 69 56 60 45 36 24 3 0 46 31 26 52 38 35 52 39 34 50 38 31 60 46 36 138 123 105 180 166 138 183 168 133 185 170 128 167 150 106 131 112 67 162 141 99 181 161 118 180 161 119 167 148 106 173 155 113 164 147 105 165 148 107 160 145 104 169 154 114 192 176 136 175 161 119 147 134 89 167 154 110 183 170 127 186 173 136 186 172 137 163 148 111 156 140 101 139 122 83 153 133 97 140 120 89 154 134 114 150 131 119 78 61 56 55 42 45 82 74 79 73 70 75 67 66 71 54 53 54 77 69 56 129 114 94 147 131 105 164 148 115 154 136 97 128 107 64 150 124 82 160 131 89 143 110 67 156 119 77 164 122 80 173 130 84 174 129 80 163 116 63 175 127 71 176 125 68 178 127 71 162 113 61 133 88 41 124 84 44 126 90 57 115 84 57 96 69 47 85 62 47 68 49 38 48 33 22 54 40 32 60 47 39 60 50 41 61 41 38 54 35 32 71 54 54 85 69 69 68 55 54 53 42 40 48 37 35 43 33 30 50 43 37 73 65 57 86 78 71 82 74 68 72 63 61 60 51 49 50 40 39 64 54 53 84 74 73 89 78 78 75 65 64 64 51 50 77 64 62 88 74 71 78 64 60 63 49 44 70 55 49 92 77 68 88 72 61 67 49 34 86 69 56 78 62 51 47 32 24 36 21 14 31 17 12 45 32 26 27 9 2 61 48 37 162 147 126 197 182 154 182 166 131 188 171 130 177 158 115 154 133 88 180 159 115 184 164 119 170 150 107 172 151 110 176 155 113 164 145 104 169 152 110 162 147 105 159 145 102 183 169 127 188 176 132 177 165 120 177 165 121 176 163 121 172 158 119 179 165 127 179 165 123 162 146 103 149 131 88 164 145 104 148 128 92 152 133 107 174 155 136 110 94 83 64 52 49 83 73 73 66 62 64 76 75 78 65 62 61 89 78 62 124 108 84 143 126 98 168 150 115 162 143 102 138 116 72 150 124 80 148 118 75 159 125 83 151 115 73 141 100 57 175 132 85 174 128 79 170 123 71 163 114 58 165 114 57 177 126 70 175 126 74 141 97 49 112 72 30 117 82 46 113 83 54 92 66 45 88 66 49 74 55 41 46 31 20 56 42 34 63 52 43 56 46 37 51 35 34 53 38 37 53 40 37 58 46 43 61 50 46 69 59 55 73 62 59 58 46 43 39 25 22 48 36 31 71 58 54 86 74 72 89 78 78 78 68 68 60 48 48 43 32 30 59 47 46 84 70 70 92 78 76 79 63 60 70 53 47 75 57 52 94 76 69 82 63 56 62 39 31 90 68 60 96 76 64 72 54 39 72 56 43 84 68 55 79 64 53 54 40 31 24 10 1 53 40 29 39 23 3 85 71 53 158 142 117 177 160 130 179 160 125 175 155 115 184 163 120 189 169 121 189 169 119 176 155 107 171 148 104 171 147 106 164 141 100 170 149 108 168 151 107 159 147 100 146 138 90 162 154 106 180 172 125 182 174 129 179 168 126 170 156 117 165 152 111 173 158 116 158 142 100 166 149 105 178 160 116 168 148 107 167 147 111 155 136 104 161 143 117 133 117 99 69 54 44 74 63 59 70 61 59 78 73 75 67 60 59 93 77 56 127 106 76 126 105 74 150 128 96 154 132 98 125 101 63 145 118 82 150 119 84 144 111 73 165 129 90 142 103 63 167 124 80 182 137 88 166 119 69 169 119 66 166 115 58 172 122 64 174 125 72 160 116 68 130 91 47 111 76 38 104 75 43 96 71 46 87 66 46 69 53 36 52 38 25 50 37 28 57 47 38 57 46 39 72 60 59 44 33 31 39 29 25 52 44 38 58 48 43 57 46 42 68 56 52 84 69 67 77 63 60 52 37 35 47 28 28 63 49 49 77 65 65 85 73 74 89 77 76 71 59 58 54 39 37 66 49 48 81 64 61 95 76 70 91 73 66 64 44 37 76 54 46 95 71 64 75 51 43 76 52 43 81 59 48 66 48 34 61 45 32 69 53 40 81 66 53 59 45 33 44 31 15 53 40 24 49 33 9 99 84 62 148 131 102 157 140 107 181 162 125 180 159 119 176 153 110 173 153 103 169 149 96 160 139 88 171 147 101 172 145 104 162 137 97 167 144 102 156 139 93 155 145 94 154 148 96 164 161 108 169 165 114 168 161 115 172 162 120 174 160 122 174 159 119 179 164 121 157 140 97 174 156 113 180 161 119 157 138 96 162 142 104 175 155 121 160 142 112 145 128 106 129 113 96 68 54 43 88 77 73 79 69 68 60 48 44 99 79 56 136 112 81 143 118 88 143 118 88 148 123 93 124 97 67 160 131 101 171 140 109 133 99 63 158 122 85 151 111 72 165 121 77 179 132 85 165 116 67 172 122 69 171 120 63 166 117 58 164 115 61 158 114 63 129 91 44 110 75 34 105 77 42 96 71 43 81 61 38 67 51 34 56 42 29 47 34 24 50 40 31 53 44 37 78 66 65 81 71 69 71 60 58 50 40 38 45 35 32 50 40 37 54 43 41 60 47 45 68 52 51 73 56 56 67 49 49 51 36 36 49 35 35 71 58 58 94 81 80 94 79 78 78 62 61 67 49 47 58 40 36 81 63 57 95 76 70 89 69 62 67 46 38 81 58 49 68 46 36 53 30 19 56 35 23 49 31 15 57 40 26 61 45 33 70 55 42 53 39 26 52 39 23 48 35 19 42 27 7 93 78 54 126 110 80 143 126 92 173 154 115 181 160 118 168 146 102 164 144 93 164 144 90 155 133 82 161 137 90 165 138 95 164 139 96 170 147 103 161 143 97 155 142 92 159 151 97 169 164 110 172 165 114 173 164 117 179 166 122 175 160 119 172 157 116 183 169 126 172 157 114 167 151 108 164 147 104 158 141 98 148 128 89 164 144 110 151 133 103 137 120 96 150 134 114 106 91 78 76 63 57 70 59 56 72 58 52 119 98 78 142 117 90 153 129 100 141 116 89 150 125 97 137 111 81 157 128 98 181 149 117 155 121 85 133 96 57 143 102 61 165 120 74 174 126 79 171 121 71 166 116 62 175 125 68 167 118 60 163 115 60 153 108 57 119 80 33 107 72 32 103 72 37 87 61 33 78 56 33 72 54 35 62 48 33 49 37 25 48 38 29 49 41 33 56 44 43 72 62 60 81 71 69 73 63 61 64 55 53 50 41 39 38 27 25 46 35 33 61 47 47 69 53 53 76 60 60 77 61 62 61 45 46 52 36 36 60 45 44 73 59 56 88 70 67 91 73 69 78 61 55 60 41 34 78 59 52 105 85 75 80 61 50 47 27 14 71 51 40 78 57 46 91 73 61 85 68 56 53 35 19 73 57 44 76 61 48 56 43 30 36 22 4 54 41 25 59 45 26 107 90 66 129 113 84 146 129 94 156 136 97 151 131 88 155 134 87 167 149 98 165 146 94 155 134 83 157 133 85 160 134 88 168 141 96 175 151 105 173 153 105 172 156 106 163 153 100 162 155 101 169 160 108 179 168 118 178 163 117 154 136 93 158 143 100 171 158 114 170 155 112 168 153 110 160 144 101 149 133 90 133 113 75 143 123 89 129 110 80 130 111 85 128 111 90 129 112 98 83 69 59 60 47 43 82 68 59 124 104 84 137 114 88 141 117 91 143 118 91 145 119 91 134 109 79 139 111 79 166 134 100 160 126 88 126 88 47 136 94 50 170 124 76 180 131 82 169 119 66 156 104 49 168 118 61 163 114 56 166 118 63 161 116 65 127 87 40 113 76 35 103 70 35 86 57 28 80 56 32 78 59 39 72 55 39 54 42 30 47 37 28 50 42 35 64 50 50 51 41 40 49 39 38 65 56 54 80 72 70 72 64 62 57 47 46 52 40 39 53 42 40 58 44 43 62 48 47 77 61 61 87 70 70 72 53 53 51 33 32 42 24 20 71 53 49 98 79 75 100 81 76 80 61 55 74 56 48 77 60 50 66 48 36 52 33 18 105 87 74 121 102 88 124 107 94 134 118 105 106 91 78 81 65 52 66 50 36 81 66 53 73 58 44 54 38 22 65 49 29 115 99 74 135 119 90 147 129 94 152 132 93 148 128 83 161 140 91 160 142 91 149 131 79 153 131 81 156 133 83 158 131 84 166 139 92 166 142 94 166 145 96 170 154 101 154 142 89 150 140 85 159 148 94 177 163 111 183 164 115 161 141 95 163 147 104 162 149 107 166 152 111 176 161 120 168 150 107 137 119 77 111 93 54 143 125 89 138 119 87 140 122 94 149 131 108 145 128 110 122 106 92 85 68 57 95 79 67 125 107 88 136 114 91 132 110 86 148 127 100 126 101 73 118 93 62 140 112 78 144 113 77 155 120 80 150 112 70 145 102 56 177 130 81 182 132 80 165 114 59 159 107 50 157 106 51 156 107 52 164 116 63 164 119 68 138 95 48 122 83 40 115 80 40 96 66 33 84 58 32 83 62 39 76 59 42 58 45 33 48 37 29 51 42 35 45 32 32 57 46 46 53 44 42 39 32 30 49 41 39 71 63 61 82 73 71 73 63 62 50 40 38 37 25 22 45 31 30 60 44 44 78 59 59 88 68 67 87 67 65 67 47 44 58 38 33 73 54 48 80 61 55 88 69 62 78 60 50 39 18 0 59 39 24 99 82 68 126 110 95 122 104 90 106 89 74 139 123 109 142 126 113 120 104 92 96 80 68 83 67 54 95 79 65 69 53 38 55 38 16 105 88 63 128 111 80 129 110 75 149 130 89 159 139 94 158 137 89 157 139 89 153 134 84 155 133 83 152 127 78 146 118 70 156 128 80 160 134 85 165 144 93 171 154 102 162 146 94 159 146 93 162 147 95 172 155 103 186 165 114 184 162 113 179 162 118 173 160 118 167 153 112 158 142 102 176 159 117 168 151 109 117 99 58 132 115 79 149 131 96 115 95 65 163 144 119 160 142 120 129 111 94 95 78 64 105 87 73 151 132 115 148 128 107 129 108 85 146 124 99 128 104 75 130 104 74 142 114 79 133 101 62 169 134 92 185 146 101 171 127 79 179 133 81 174 125 70 160 108 51 162 110 53 155 104 50 159 110 58 158 111 60 156 111 61 136 94 46 116 77 32 116 81 40 108 75 41 93 65 36 84 61 37 75 58 39 60 46 32 51 38 30 51 41 35 45 34 32 41 29 27 50 41 39 53 45 43 44 37 34 40 32 30 62 53 52 86 76 75 85 74 72 66 56 54 56 42 42 54 36 36 47 25 24 66 46 45 94 73 71 102 81 78 87 67 62 68 49 42 60 42 34 63 46 36 48 31 17 83 68 55 116 101 86 120 105 89 134 120 103 142 127 110 127 112 96 116 99 84 122 106 92 146 130 117 130 114 102 82 67 53 81 63 49 92 74 59 78 60 41 104 86 61 138 119 89 133 114 79 144 126 83 142 124 77 140 122 73 153 135 86 153 134 85 157 136 86 150 125 74 141 113 62 159 131 80 170 144 93 181 159 108 182 162 112 175 158 108 181 165 115 183 165 114 177 156 106 180 155 104 179 154 104 178 160 115 174 160 118 166 152 111 151 136 96 183 169 128 176 160 120 150 131 92 136 119 81 145 127 92 126 107 75 129 109 83 138 118 94 119 99 77 85 65 46 105 85 68 152 133 116 138 120 101 134 114 91 127 105 81 130 106 77 147 121 88 141 111 76 138 104 63 175 139 95 183 143 96 173 129 79 169 122 69 167 119 63 158 106 49 146 95 39 141 93 43 156 109 61 149 104 55 149 104 56 134 90 45 106 64 17 112 76 34 122 88 50 105 74 43 87 61 35 77 57 37 64 47 34 55 42 33 52 41 36 76 62 59 60 48 45 41 31 29 43 34 32 51 43 41 50 42 40 44 34 32 51 41 39 77 67 65 93 82 80 87 73 71 80 63 60 74 54 52 43 16 11 66 44 40 99 78 74 106 86 79 88 69 61 61 43 34 40 21 4 65 51 39 140 125 109 161 147 130 127 114 96 135 122 102 158 146 126 159 145 127 128 113 97 126 111 96 130 115 101 122 106 93 122 106 91 105 87 73 89 72 55 88 70 50 114 96 72 158 139 109 140 121 86 143 124 82 145 127 81 155 138 90 150 132 84 146 126 80 165 143 95 173 148 98 167 140 87 180 150 97 185 158 105 184 161 109 166 145 97 162 144 98 175 157 112 180 161 114 181 159 110 183 158 107 183 158 107 176 157 112 165 149 107 164 148 107 174 158 117 179 164 123 155 139 98 174 156 115 169 150 111 167 149 112 176 157 122 142 122 91 114 94 64 132 112 85 132 110 86 112 90 69 119 100 80 118 100 79 135 115 93 121 100 74 138 115 83 146 121 85 139 109 71 148 115 72 163 127 81 157 117 67 157 115 62 158 112 58 162 113 58 156 105 49 139 90 38 118 74 28 134 92 49 134 90 46 139 96 51 138 95 51 115 73 29 119 80 37 125 89 50 113 81 48 90 63 36 77 55 33 68 50 34 60 45 36 54 42 37 63 48 43 71 57 54 67 56 52 66 57 55 38 28 27 33 22 21 45 35 33 43 33 30 46 36 32 64 52 48 78 65 61 96 79 74 112 90 86 97 73 69 69 45 41 57 33 28 80 61 55 83 64 55 59 42 30 76 60 47 101 85 69 130 118 100 141 129 109 136 124 104 136 125 103 121 111 89 141 130 109 140 127 108 132 119 101 126 113 97 125 110 94 124 108 93 120 103 88 110 93 76 83 65 45 117 99 74 167 148 117 162 143 109 157 140 100 168 151 106 168 151 104 167 150 104 174 154 110 173 150 103 188 162 111 182 154 100 175 146 92 174 147 94 161 135 86 149 128 84 150 131 90 150 132 92 156 136 93 162 139 93 166 141 92 183 159 108 175 155 108 167 149 106 176 159 116 170 153 110 164 147 104 177 160 117 165 148 106 152 134 94 167 149 110 172 153 116 175 155 120 145 124 92 154 132 103 169 146 117 124 102 77 128 108 85 134 115 92 121 101 76 130 109 81 173 149 115 162 136 97 149 119 77 158 124 78 157 121 72 155 116 64 160 118 65 160 114 61 154 105 52 154 105 51 146 100 52 95 54 15 107 69 34 125 85 47 127 87 47 138 98 55 132 91 47 127 87 43 114 76 36 116 81 46 95 66 37 79 56 32 73 53 38 64 47 37 60 47 40 54 37 29 52 37 32 62 49 45 80 69 66 82 73 71 60 51 49 34 23 21 41 28 25 47 35 30 44 32 25 53 39 31 68 52 45 90 69 64 106 83 78 100 78 71 80 60 52 60 40 31 51 31 19 52 31 12 109 93 78 121 106 89 107 94 74 111 99 77 123 112 89 140 129 106 139 127 104 133 122 98 140 130 106 146 134 112 130 118 98 114 100 82 96 80 63 116 98 82 115 98 81 85 66 46 94 75 50 130 111 83 166 148 114 164 147 108 158 140 97 171 155 109 184 166 122 179 158 116 149 127 82 149 122 73 154 124 72 138 108 54 149 121 70 129 103 56 114 92 53 128 109 73 129 111 76 142 123 87 154 133 91 143 119 72 148 124 75 175 152 107 183 163 119 176 156 114 153 136 91 170 152 109 178 161 118 150 134 90 147 130 88 160 143 102 175 156 118 174 154 119 171 149 115 177 154 122 159 136 105 123 101 72 149 128 104 149 128 104 122 102 76 120 99 69 178 153 117 174 147 105 170 140 94 168 135 85 162 125 73 161 123 71 165 124 71 157 113 62 150 104 53 160 113 62 136 93 50 61 25 0 94 62 34 129 95 61 130 94 58 131 93 52 137 97 54 133 93 50 113 75 34 110 75 38 98 66 36 85 59 35 77 55 39 67 50 39 64 50 43 51 33 21 39 22 13 48 33 27 52 40 36 80 68 66 83 71 68 81 68 65 78 65 60 57 44 37 37 22 11 43 27 19 55 37 28 57 35 27 60 39 32 77 59 50 89 69 59 71 52 41 61 43 30 114 99 85 150 135 117 157 142 122 147 134 113 131 119 96 122 110 87 129 117 93 128 116 92 135 124 99 155 146 119 159 148 122 151 139 116 138 123 103 108 90 72 109 90 73 108 90 71 94 73 53 94 74 50 82 61 31 117 99 66 137 118 82 121 103 61 135 119 77 153 134 95 166 143 106 148 123 82 130 102 53 145 115 63 146 117 64 153 125 76 119 94 52 111 89 55 105 86 56 109 91 63 108 90 61 139 119 85 155 132 91 131 107 60 150 127 84 181 159 114 169 148 102 169 150 105 174 154 110 160 141 97 169 152 108 174 157 113 171 154 111 174 155 115 186 166 129 175 153 119 168 144 111 167 143 110 142 118 87 142 121 94 136 115 89 123 101 71 118 93 60 160 133 94 163 134 89 174 142 93 171 137 86 165 129 76 166 127 75 170 129 78 157 116 66 150 106 58 161 116 71 118 80 42 38 2 0 69 42 21 111 82 55 121 89 58 123 88 51 140 104 62 134 95 53 113 74 33 107 72 33 98 67 35 87 60 35 79 57 38 70 52 39 62 48 40 82 61 48 75 56 47 62 44 37 45 27 23 35 16 11 54 40 36 73 59 56 86 73 66 98 84 75 95 80 70 66 51 39 41 21 9 53 34 27 61 43 34 62 43 32 67 48 36 61 42 28 83 65 51 156 139 124 171 156 137 152 137 116 143 129 107 129 115 92 145 131 108 149 136 111 104 90 64 127 117 90 157 148 118 160 149 121 169 157 130 163 148 124 138 121 102 107 89 70 112 93 73 99 78 57 101 80 56 91 70 44 104 85 56 137 118 84 108 92 54 76 58 2 119 97 64 155 131 97 150 124 85 118 90 46 124 95 45 143 113 61 145 118 69 126 102 62 136 113 82 93 75 51 87 73 54 114 96 74 108 90 61 149 127 91 164 141 98 122 97 52 129 104 58 174 149 102 183 160 114 174 153 107 169 149 103 163 144 100 168 150 107 152 135 93 126 108 65 170 152 113 178 158 121 163 142 106 179 157 121 182 159 125 171 150 119 131 111 79 128 106 70 141 117 77 158 131 87 172 142 95 172 140 89 161 127 74 159 123 70 162 123 71 171 130 80 162 121 74 157 115 71 156 114 73 97 62 30 36 7 0 44 22 4 88 64 43 113 85 59 116 84 51 132 97 59 127 90 49 116 79 36 109 73 34 100 68 34 90 61 35 84 61 41 78 59 45 64 48 40 69 46 34 77 55 44 69 49 41 70 50 45 64 46 42 52 36 30 44 28 19 61 47 39 84 69 60 91 75 64 96 80 65 97 82 68 77 59 49 64 46 37 52 35 24 60 43 30 73 56 42 87 69 54 124 107 91 153 138 119 135 120 99 129 114 91 125 109 86 157 143 118 172 158 131 152 139 113 154 144 115 167 159 126 177 168 136 150 139 109 137 122 97 176 160 138 133 115 95 84 61 40 99 77 56 91 69 46 82 60 37 86 66 38 120 102 69 109 91 58 89 73 36 128 107 75 136 112 80 134 106 68 108 80 36 112 81 28 129 99 46 137 109 63 154 130 94 130 109 83 65 46 28 52 36 23 102 86 68 109 91 67 111 92 61 155 133 94 170 145 101 133 105 59 145 117 70 171 145 98 170 147 99 169 148 101 167 147 102 173 155 110 159 143 100 132 115 73 133 115 75 159 140 103 174 154 117 181 160 123 191 169 133 205 183 148 160 139 102 159 136 96 174 151 108 162 134 87 182 152 100 180 147 93 156 121 66 142 106 51 155 116 64 167 128 78 164 125 80 164 124 84 144 104 67 80 46 18 36 16 3 34 17 4 81 61 45 113 89 66 112 82 52 116 83 47 117 81 40 115 78 36 104 68 28 98 64 30 89 59 30 84 60 39 82 62 48 66 49 41 27 0 0 8 0 0 55 34 25 70 51 43 78 59 53 75 58 52 66 50 43 55 39 31 44 24 10 50 32 16 78 61 47 95 78 64 91 74 61 78 62 50 68 52 40 64 48 35 65 48 34 78 61 46 108 91 73 146 130 110 141 124 104 126 110 88 136 121 97 157 142 116 161 145 120 161 146 119 145 134 102 158 153 116 180 172 137 148 137 107 118 103 75 156 140 116 138 118 97 128 108 88 101 80 59 82 59 36 85 63 40 85 64 36 97 78 47 110 92 59 128 111 77 120 100 70 95 68 40 116 88 52 135 107 61 156 124 74 149 118 68 130 104 58 158 134 100 140 120 98 58 41 28 56 39 30 32 11 0 106 91 71 113 95 68 132 111 73 174 147 101 171 141 92 139 109 59 145 117 69 157 133 85 172 151 104 177 157 112 157 140 95 177 160 117 174 157 115 129 111 72 130 111 73 174 154 117 193 173 136 194 173 136 201 179 140 184 162 122 192 168 126 187 161 115 161 133 82 173 142 87 177 143 86 155 119 63 128 91 32 153 116 64 164 126 77 160 122 79 162 123 85 122 84 51 65 32 4 40 24 16 32 21 15 68 52 39 105 84 64 115 89 60 110 79 44 105 69 30 107 70 29 100 65 23 99 65 31 88 57 28 79 53 33 78 57 44 65 47 40 168 144 124 80 57 38 31 0 0 23 0 0 59 39 29 80 60 51 85 65 57 69 49 41 57 38 28 62 43 32 62 42 30 58 39 26 75 60 47 93 77 64 83 67 54 53 38 24 57 41 26 87 71 52 101 83 63 114 96 74 131 111 88 129 110 85 163 146 121 165 149 124 146 131 106 159 145 119 137 126 97 174 166 134 192 182 152 157 145 117 118 103 76 127 110 85 135 115 93 149 128 107 107 86 65 94 71 48 99 77 54 83 62 37 72 52 21 110 92 63 147 128 96 122 102 72 110 84 53 113 86 50 130 100 55 154 122 73 152 122 72 144 118 74 155 132 98 121 100 78 68 51 40 104 88 78 70 58 51 45 31 11 111 95 72 116 98 69 147 121 81 174 143 97 164 135 87 146 119 71 160 134 86 171 148 100 169 147 100 174 153 107 172 152 108 178 158 116 169 148 108 147 126 87 153 132 93 188 167 128 199 177 137 189 167 126 194 171 129 200 176 132 180 153 105 178 148 97 176 144 90 169 133 78 148 112 57 128 91 33 157 120 70 164 127 79 152 116 76 152 115 82 100 65 39 51 21 0 47 35 27 33 25 19 44 31 19 90 71 50 122 96 67 118 86 53 94 60 20 104 68 27 109 73 32 110 76 41 97 65 36 79 52 31 77 55 39 67 49 39 211 184 153 200 173 144 142 118 93 52 22 0 13 0 0 53 26 9 75 51 38 79 55 45 82 58 50 76 54 47 54 33 28 62 42 36 64 49 39 72 58 47 58 44 33 32 13 0 88 72 55 131 114 90 116 96 69 99 74 39 107 83 49 123 100 65 158 139 108 174 158 129 162 151 126 166 158 136 164 156 134 181 169 149 184 171 151 140 126 105 116 99 78 128 111 89 123 102 81 137 115 92 132 108 86 95 70 48 79 55 33 81 59 36 74 51 26 92 71 48 150 129 103 152 130 100 135 112 73 138 112 70 145 115 69 152 120 73 162 130 83 170 141 99 162 136 101 99 79 53 50 35 20 109 96 81 106 94 81 48 35 20 54 40 23 139 124 104 166 144 115 178 152 113 167 139 98 145 118 73 141 115 66 158 132 82 160 134 83 163 138 89 174 148 102 186 159 115 186 161 118 175 151 107 143 119 76 181 159 114 197 175 129 193 175 129 197 178 133 196 175 128 181 156 108 170 139 92 172 138 88 181 142 90 173 134 82 160 120 68 156 117 67 151 115 71 154 119 84 134 101 75 67 39 21 53 30 17 52 39 30 42 34 26 36 23 7 83 63 41 109 83 55 115 83 49 103 68 30 107 70 29 107 72 31 110 76 39 106 75 43 78 52 27 67 45 25 68 49 34 190 164 126 201 173 137 178 150 115 179 150 120 131 108 87 23 0 0 51 23 3 79 54 41 81 54 47 92 68 63 77 54 52 62 42 38 56 40 33 48 34 25 39 25 15 46 32 16 99 84 66 140 122 96 135 113 83 100 74 39 105 77 37 119 94 54 135 114 77 158 142 111 166 156 131 168 162 142 161 152 135 137 124 109 113 99 85 106 90 73 130 113 94 132 114 92 105 84 62 131 109 85 153 129 105 118 94 70 85 61 37 90 67 44 84 62 41 67 43 18 131 110 86 160 139 106 156 133 91 157 131 86 164 134 88 173 140 95 176 144 99 177 146 107 161 135 101 86 67 39 59 44 23 87 76 60 96 86 73 85 75 64 39 28 19 87 74 61 160 141 118 167 145 114 142 117 82 136 111 70 102 76 32 119 93 46 165 138 85 152 121 70 178 147 101 195 165 120 194 166 122 195 166 123 177 150 104 176 149 102 183 160 111 184 166 116 184 167 119 189 168 121 183 157 110 170 138 93 173 137 91 180 141 91 175 134 83 166 125 73 166 127 78 161 125 83 161 127 94 106 77 55 52 18 1 60 39 28 51 38 31 43 34 25 35 20 7 73 54 34 99 74 47 113 82 49 113 78 42 107 70 31 106 70 32 112 78 42 111 80 48 86 60 34 67 45 24 61 42 26 193 167 127 171 143 106 135 106 69 197 168 137 222 192 162 147 120 98 54 29 14 40 3 0 62 36 25 66 43 34 73 50 44 73 55 48 63 49 41 45 33 24 35 22 12 57 46 31 87 73 56 107 91 67 120 100 69 107 84 49 103 77 40 111 86 48 130 109 73 147 131 100 155 144 119 175 168 148 169 161 143 139 126 109 126 112 95 110 94 76 117 99 79 120 102 80 98 77 54 107 85 61 120 97 72 125 101 75 113 89 63 106 83 59 98 77 53 64 42 16 79 57 31 146 125 91 171 147 107 159 133 90 160 130 86 177 144 101 172 140 97 158 129 91 144 119 88 71 50 24 55 40 24 73 63 50 69 61 51 81 72 64 74 65 57 36 20 10 95 79 62 107 87 63 106 83 51 147 125 87 170 147 105 126 102 57 150 124 76 170 141 93 169 138 94 179 148 104 173 143 101 190 161 118 194 165 119 171 143 95 177 152 103 186 166 115 185 167 117 187 165 116 178 150 103 165 133 87 169 132 84 171 132 82 168 128 76 171 132 80 170 131 84 172 136 95 156 123 89 80 52 33 64 33 20 61 39 30 49 36 33 42 32 27 38 25 17 59 39 24 94 69 46 119 89 60 127 94 61 107 72 37 97 62 25 106 73 39 111 81 52 99 73 50 73 51 33 53 34 18 203 176 138 178 150 114 124 95 55 182 153 122 216 186 155 175 146 119 156 129 105 120 96 78 40 1 0 35 0 0 59 38 26 52 35 25 55 43 34 44 34 25 33 22 13 57 48 36 76 64 48 89 74 52 121 103 75 119 97 64 108 83 46 102 76 39 110 86 53 122 104 73 129 116 90 154 144 123 145 136 116 131 119 100 153 139 120 136 120 100 123 105 83 132 112 88 102 81 57 76 54 25 102 77 51 130 106 78 128 104 78 94 70 44 82 61 34 77 55 30 65 43 13 111 89 57 141 116 78 137 111 69 147 118 76 175 143 102 163 132 93 128 100 64 109 85 55 63 44 23 59 46 34 63 55 44 47 40 32 65 56 52 77 69 64 66 56 50 37 20 5 72 55 36 108 88 65 123 104 73 176 155 115 162 140 97 123 99 53 155 128 84 158 128 86 143 111 70 143 110 70 180 148 106 184 155 109 176 145 98 179 152 103 190 168 118 192 172 121 189 164 115 168 139 92 150 117 69 159 123 74 174 135 85 177 137 85 184 146 94 166 130 81 167 132 91 131 99 67 65 30 6 72 44 30 57 34 27 51 37 37 45 34 33 45 31 25 44 24 12 80 56 38 114 85 60 125 92 62 107 72 41 94 58 27 101 69 39 110 83 56 103 79 56 73 52 34 54 34 18 183 157 117 165 138 99 133 103 64 192 163 129 191 161 128 163 133 102 198 171 143 191 164 138 153 128 106 79 58 43 0 0 0 47 28 12 52 40 30 55 45 36 41 32 23 50 42 31 63 54 39 80 66 47 118 102 77 126 106 75 128 104 69 111 86 52 88 64 30 97 77 46 115 101 73 119 107 83 129 117 95 145 132 110 142 128 106 136 121 98 139 121 97 145 125 100 109 88 62 87 62 33 111 85 57 127 103 73 144 120 91 114 91 64 79 55 25 82 59 32 68 48 19 71 48 12 97 72 35 116 89 50 141 112 73 177 145 107 168 138 101 121 95 63 86 63 37 58 41 26 70 58 47 56 49 42 59 53 50 68 60 59 55 48 46 64 56 52 65 55 49 54 38 27 93 78 61 121 105 81 135 118 85 166 146 108 143 120 81 140 114 75 171 142 102 130 99 62 146 114 79 179 145 105 176 144 100 188 156 110 182 152 103 181 157 105 189 165 113 190 161 111 167 136 87 146 111 63 158 122 71 178 139 87 183 143 91 189 151 99 172 135 87 147 112 70 94 65 35 62 31 8 69 42 26 57 34 28 51 38 38 46 36 37 45 30 28 38 17 9 63 39 24 99 70 49 110 77 52 106 72 44 104 70 42 110 79 51 108 81 56 86 64 41 59 40 18 82 65 50 185 158 118 149 120 81 112 80 35 195 165 130 193 162 127 172 141 108 210 181 150 183 157 127 187 160 132 170 145 118 137 117 95 66 48 27 49 37 27 58 49 41 40 33 25 36 29 18 45 39 26 61 53 35 96 82 59 119 101 73 123 101 69 111 87 54 99 75 43 97 77 46 99 83 56 103 89 63 125 113 89 143 130 106 139 124 100 137 122 97 136 117 92 137 117 89 108 85 57 92 68 37 107 82 52 105 81 50 142 118 87 135 112 82 91 67 35 79 56 28 77 56 26 86 63 32 102 79 44 120 93 57 134 104 68 162 130 96 167 137 105 132 106 78 88 66 45 43 27 15 52 41 34 61 55 51 73 68 68 68 63 63 63 55 57 54 45 45 75 65 64 67 57 56 47 35 24 101 88 69 114 99 73 165 146 113 167 146 111 136 109 75 186 156 119 144 114 79 146 113 78 164 130 91 170 136 93 191 158 112 185 153 104 182 153 100 188 162 107 191 161 108 174 141 92 158 122 73 163 124 75 163 123 72 169 129 77 182 144 92 169 132 84 120 86 46 70 38 0 65 38 16 66 39 23 60 37 30 49 35 35 45 34 35 46 30 27 45 25 19 53 29 11 97 69 49 114 84 59 109 77 48 111 80 51 115 86 57 97 71 44 64 43 16 69 51 27 126 110 91 179 150 111 181 151 114 168 137 100 192 160 123 194 161 125 194 163 126 209 179 143 179 153 116 164 138 102 196 170 137 221 196 164 108 89 63 37 25 13 49 41 32 29 24 16 28 23 14 40 35 24 55 48 34 79 69 49 97 81 56 114 93 64 115 91 61 100 76 45 90 69 38 82 63 34 89 74 49 93 79 53 96 82 55 119 104 78 140 124 97 137 118 91 126 106 76 97 75 44 87 64 31 107 83 51 96 72 38 113 88 56 110 86 55 87 64 32 82 59 26 107 85 55 111 89 58 104 81 48 121 94 60 127 98 64 149 119 86 162 133 104 136 110 86 79 59 40 38 26 18 53 43 39 47 42 41 59 56 57 62 57 60 72 64 67 65 56 59 58 50 54 79 72 71 68 59 54 38 25 7 75 61 38 144 127 99 156 136 105 112 86 53 154 125 91 148 117 83 124 90 55 138 104 66 163 128 85 172 137 92 166 133 84 191 161 107 193 163 107 187 155 101 182 147 96 181 144 94 180 140 89 150 110 59 148 108 57 172 133 80 146 109 62 84 50 13 72 41 5 71 40 9 67 38 21 63 40 30 55 41 37 51 40 37 49 33 27 50 31 21 42 16 0 94 69 49 117 88 63 109 78 49 113 84 53 110 84 53 84 61 30 73 53 21 135 120 94 176 162 137 164 135 96 190 161 123 192 162 124 176 143 105 186 153 115 194 162 124 203 173 134 189 161 121 171 143 105 169 143 107 215 189 151 130 110 81 54 42 29 48 40 32 27 22 13 25 21 13 33 29 21 47 41 30 65 55 40 76 62 42 105 86 61 124 101 73 114 93 63 93 72 41 89 71 41 73 57 27 79 64 36 94 80 53 113 98 72 130 113 87 131 112 83 118 97 67 88 66 34 85 62 28 100 76 42 105 81 47 122 98 63 107 83 49 92 69 36 86 62 28 122 99 69 112 90 62 98 74 44 145 119 89 151 123 93 144 116 85 158 131 103 124 99 77 65 45 30 41 30 23 58 49 46 43 37 38 48 44 47 62 56 61 72 63 67 73 63 67 61 53 57 72 66 68 82 74 69 60 50 39 56 45 22 102 85 60 129 107 76 126 100 67 135 106 75 129 96 61 115 80 43 141 107 70 176 142 98 167 131 85 148 112 62 190 159 104 198 167 110 189 156 102 178 143 90 169 131 82 163 123 73 140 100 48 147 107 56 165 126 73 129 93 44 83 48 0 108 78 45 118 88 61 85 57 40 60 36 24 62 47 40 53 42 33 48 32 22 48 28 13 37 9 0 83 59 37 109 80 52 117 87 55 121 91 58 108 81 48 88 65 29 109 90 57 164 149 119 165 152 124 